ncols	234
nrows	368
xllcorner	195196.26821073
yllcorner	7004178.4200866
cellsize	5000.0
NODATA_value	-9999
-9999 -9999 -9999 -9999 -9999 -9999 -9999 -9999 -9999 -9999 -9999 -9999 -9999 -9999 -9999 -9999 -9999 -9999 -9999 -9999 -9999 -9999 -9999 -9999 -9999 -9999 -9999 -9999 -9999 -9999 -9999 -9999 -9999 -9999 -9999 -9999 -9999 -9999 -9999 -9999 -9999 -9999 -9999 -9999 -9999 -9999 -9999 -9999 -9999 -9999 -9999 -9999 -9999 -9999 -9999 -9999 -9999 -9999 -9999 -9999 -9999 -9999 -9999 -9999 -9999 -9999 -9999 -9999 -9999 -9999 -9999 -9999 -9999 -9999 -9999 -9999 -9999 -9999 -9999 -9999 -9999 -9999 -9999 -9999 -9999 -9999 -9999 -9999 -9999 -9999 -9999 -9999 -9999 -9999 -9999 -9999 -9999 -9999 -9999 -9999 -9999 -9999 -9999 -9999 -9999 -9999 -9999 -9999 -9999 -9999 -9999 -9999 -9999 -9999 -9999 -9999 -9999 -9999 -9999 -9999 -9999 -9999 -9999 -9999 -9999 -9999 -9999 -9999 -9999 -9999 -9999 -9999 -9999 -9999 -9999 -9999 -9999 -9999 -9999 -9999 -9999 -9999 -9999 -9999 -9999 -9999 -9999 -9999 -9999 -9999 -9999 -9999 -9999 -9999 -9999 -9999 -9999 -9999 -9999 -9999 -9999 -9999 -9999 -9999 -9999 -9999 -9999 -9999 -9999 -9999 -9999 -9999 -9999 -9999 -9999 -9999 -9999 -9999 -9999 -9999 -9999 -9999 -9999 -9999 -9999 -9999 -9999 -9999 -9999 -9999 -9999 -9999 -9999 -9999 -9999 -9999 -9999 -9999 -9999 -9999 -9999 -9999 -9999 -9999 -9999 -9999 -9999 -9999 -9999 -9999 -9999 -9999 -9999 -9999 -9999 -9999 -9999 -9999 -9999 -9999 -9999 -9999 -9999 -9999 -9999 -9999 -9999 -9999 -9999 -9999 -9999 -9999 -9999 -9999
-9999 -9999 -9999 -9999 -9999 -9999 -9999 -9999 -9999 -9999 -9999 -9999 -9999 -9999 -9999 -9999 -9999 -9999 -9999 -9999 -9999 -9999 -9999 -9999 -9999 -9999 -9999 -9999 -9999 -9999 -9999 -9999 -9999 -9999 -9999 -9999 -9999 -9999 -9999 -9999 -9999 -9999 -9999 -9999 -9999 -9999 -9999 -9999 -9999 -9999 -9999 -9999 -9999 -9999 -9999 -9999 -9999 -9999 -9999 -9999 -9999 -9999 -9999 -9999 -9999 -9999 -9999 -9999 -9999 -9999 -9999 -9999 -9999 -9999 -9999 -9999 -9999 -9999 -9999 -9999 -9999 -9999 -9999 -9999 -9999 -9999 -9999 -9999 -9999 -9999 -9999 -9999 -9999 -9999 -9999 -9999 -9999 -9999 -9999 -9999 -9999 -9999 -9999 -9999 -9999 -9999 -9999 -9999 -9999 -9999 -9999 -9999 -9999 -9999 -9999 -9999 -9999 -9999 -9999 -9999 -9999 -9999 -9999 -9999 -9999 -9999 -9999 -9999 -9999 -9999 -9999 -9999 -9999 -9999 -9999 -9999 -9999 -9999 -9999 -9999 -9999 -9999 -9999 -9999 -9999 -9999 -9999 -9999 -9999 -9999 -9999 -9999 -9999 -9999 -9999 -9999 -9999 -9999 -9999 -9999 -9999 -9999 -9999 -9999 -9999 -9999 -9999 -9999 -9999 -9999 -9999 -9999 -9999 -9999 -9999 -9999 -9999 -9999 -9999 -9999 -9999 -9999 -9999 -9999 -9999 -9999 -9999 -9999 -9999 -9999 -9999 -9999 -9999 -9999 -9999 -9999 -9999 -9999 -9999 -9999 -9999 -9999 -9999 -9999 -9999 -9999 -9999 -9999 -9999 -9999 -9999 -9999 -9999 -9999 -9999 -9999 -9999 -9999 -9999 -9999 -9999 -9999 -9999 -9999 -9999 -9999 -9999 -9999 -9999 -9999 -9999 -9999 -9999 -9999
-9999 -9999 -9999 -9999 -9999 -9999 -9999 -9999 -9999 -9999 -9999 -9999 -9999 -9999 -9999 -9999 -9999 -9999 -9999 -9999 -9999 -9999 -9999 -9999 -9999 -9999 -9999 -9999 -9999 -9999 -9999 -9999 -9999 -9999 -9999 -9999 -9999 -9999 -9999 -9999 -9999 -9999 -9999 -9999 -9999 -9999 -9999 -9999 -9999 -9999 -9999 -9999 -9999 -9999 -9999 -9999 -9999 -9999 -9999 -9999 -9999 -9999 -9999 -9999 -9999 -9999 -9999 -9999 -9999 -9999 -9999 -9999 -9999 -9999 -9999 -9999 -9999 -9999 -9999 -9999 -9999 -9999 -9999 -9999 -9999 -9999 -9999 -9999 -9999 -9999 -9999 -9999 -9999 -9999 -9999 -9999 -9999 -9999 -9999 -9999 -9999 -9999 -9999 -9999 -9999 -9999 -9999 -9999 -9999 -9999 -9999 -9999 -9999 -9999 -9999 -9999 -9999 -9999 -9999 -9999 -9999 -9999 -9999 -9999 -9999 -9999 -9999 -9999 -9999 -9999 -9999 -9999 -9999 -9999 -9999 -9999 -9999 -9999 -9999 -9999 -9999 -9999 -9999 -9999 -9999 -9999 -9999 -9999 -9999 -9999 -9999 -9999 -9999 -9999 -9999 -9999 -9999 -9999 -9999 -9999 -9999 -9999 -9999 -9999 -9999 -9999 -9999 -9999 -9999 -9999 -9999 -9999 -9999 -9999 -9999 -9999 -9999 -9999 -9999 -9999 -9999 -9999 -9999 -9999 -9999 -9999 -9999 -9999 -9999 -9999 -9999 -9999 -9999 -9999 -9999 -9999 -9999 -9999 -9999 -9999 -9999 -9999 -9999 -9999 -9999 -9999 -9999 -9999 -9999 -9999 -9999 -9999 -9999 -9999 -9999 -9999 -9999 -9999 -9999 -9999 -9999 -9999 -9999 0.098 0.000 0.000 0.000 -9999 -9999 -9999 -9999 -9999 -9999 -9999
-9999 -9999 -9999 -9999 -9999 -9999 -9999 -9999 -9999 -9999 -9999 -9999 -9999 -9999 -9999 -9999 -9999 -9999 -9999 -9999 -9999 -9999 -9999 -9999 -9999 -9999 -9999 -9999 -9999 -9999 -9999 -9999 -9999 -9999 -9999 -9999 -9999 -9999 -9999 -9999 -9999 -9999 -9999 -9999 -9999 -9999 -9999 -9999 -9999 -9999 -9999 -9999 -9999 -9999 -9999 -9999 -9999 -9999 -9999 -9999 -9999 -9999 -9999 -9999 -9999 -9999 -9999 -9999 -9999 -9999 -9999 -9999 -9999 -9999 -9999 -9999 -9999 -9999 -9999 -9999 -9999 -9999 -9999 -9999 -9999 -9999 -9999 -9999 -9999 -9999 -9999 -9999 -9999 -9999 -9999 -9999 -9999 -9999 -9999 -9999 -9999 -9999 -9999 -9999 -9999 -9999 -9999 -9999 -9999 -9999 -9999 -9999 -9999 -9999 -9999 -9999 -9999 -9999 -9999 -9999 -9999 -9999 -9999 -9999 -9999 -9999 -9999 -9999 -9999 -9999 -9999 -9999 -9999 -9999 -9999 -9999 -9999 -9999 -9999 -9999 -9999 -9999 -9999 -9999 -9999 -9999 -9999 -9999 -9999 -9999 -9999 -9999 -9999 -9999 -9999 -9999 -9999 -9999 -9999 -9999 -9999 -9999 -9999 -9999 -9999 -9999 -9999 -9999 -9999 -9999 -9999 -9999 -9999 -9999 -9999 -9999 -9999 -9999 -9999 -9999 -9999 -9999 -9999 -9999 -9999 -9999 -9999 -9999 -9999 -9999 -9999 -9999 -9999 -9999 -9999 -9999 -9999 -9999 -9999 -9999 -9999 -9999 -9999 -9999 -9999 -9999 -9999 -9999 -9999 -9999 -9999 -9999 -9999 -9999 -9999 -9999 -9999 -9999 -9999 -9999 -9999 -9999 0.092 0.123 0.104 0.124 0.124 -9999 -9999 -9999 -9999 -9999 -9999 -9999
-9999 -9999 -9999 -9999 -9999 -9999 -9999 -9999 -9999 -9999 -9999 -9999 -9999 -9999 -9999 -9999 -9999 -9999 -9999 -9999 -9999 -9999 -9999 -9999 -9999 -9999 -9999 -9999 -9999 -9999 -9999 -9999 -9999 -9999 -9999 -9999 -9999 -9999 -9999 -9999 -9999 -9999 -9999 -9999 -9999 -9999 -9999 -9999 -9999 -9999 -9999 -9999 -9999 -9999 -9999 -9999 -9999 -9999 -9999 -9999 -9999 -9999 -9999 -9999 -9999 -9999 -9999 -9999 -9999 -9999 -9999 -9999 -9999 -9999 -9999 -9999 -9999 -9999 -9999 -9999 -9999 -9999 -9999 -9999 -9999 -9999 -9999 -9999 -9999 -9999 -9999 -9999 -9999 -9999 -9999 -9999 -9999 -9999 -9999 -9999 -9999 -9999 -9999 -9999 -9999 -9999 -9999 -9999 -9999 -9999 -9999 -9999 -9999 -9999 -9999 -9999 -9999 -9999 -9999 -9999 -9999 -9999 -9999 -9999 -9999 -9999 -9999 -9999 -9999 -9999 -9999 -9999 -9999 -9999 -9999 -9999 -9999 -9999 -9999 -9999 -9999 -9999 -9999 -9999 -9999 -9999 -9999 -9999 -9999 -9999 -9999 -9999 -9999 -9999 -9999 -9999 -9999 -9999 -9999 -9999 -9999 -9999 -9999 -9999 -9999 -9999 -9999 -9999 -9999 -9999 -9999 -9999 -9999 -9999 -9999 -9999 -9999 -9999 -9999 -9999 -9999 -9999 -9999 -9999 -9999 -9999 -9999 -9999 -9999 -9999 -9999 -9999 -9999 -9999 -9999 -9999 -9999 -9999 -9999 -9999 -9999 -9999 -9999 -9999 -9999 -9999 -9999 -9999 -9999 -9999 -9999 -9999 -9999 -9999 -9999 -9999 -9999 -9999 -9999 0.149 0.138 0.139 0.132 0.167 0.135 0.106 0.123 -9999 -9999 -9999 -9999 -9999 -9999 -9999
-9999 -9999 -9999 -9999 -9999 -9999 -9999 -9999 -9999 -9999 -9999 -9999 -9999 -9999 -9999 -9999 -9999 -9999 -9999 -9999 -9999 -9999 -9999 -9999 -9999 -9999 -9999 -9999 -9999 -9999 -9999 -9999 -9999 -9999 -9999 -9999 -9999 -9999 -9999 -9999 -9999 -9999 -9999 -9999 -9999 -9999 -9999 -9999 -9999 -9999 -9999 -9999 -9999 -9999 -9999 -9999 -9999 -9999 -9999 -9999 -9999 -9999 -9999 -9999 -9999 -9999 -9999 -9999 -9999 -9999 -9999 -9999 -9999 -9999 -9999 -9999 -9999 -9999 -9999 -9999 -9999 -9999 -9999 -9999 -9999 -9999 -9999 -9999 -9999 -9999 -9999 -9999 -9999 -9999 -9999 -9999 -9999 -9999 -9999 -9999 -9999 -9999 -9999 -9999 -9999 -9999 -9999 -9999 -9999 -9999 -9999 -9999 -9999 -9999 -9999 -9999 -9999 -9999 -9999 -9999 -9999 -9999 -9999 -9999 -9999 -9999 -9999 -9999 -9999 -9999 -9999 -9999 -9999 -9999 -9999 -9999 -9999 -9999 -9999 -9999 -9999 -9999 -9999 -9999 -9999 -9999 -9999 -9999 -9999 -9999 -9999 -9999 -9999 -9999 -9999 -9999 -9999 -9999 -9999 -9999 -9999 -9999 -9999 -9999 -9999 -9999 -9999 -9999 -9999 -9999 -9999 -9999 -9999 -9999 -9999 -9999 -9999 -9999 -9999 -9999 -9999 -9999 -9999 -9999 -9999 -9999 -9999 -9999 -9999 -9999 -9999 -9999 -9999 -9999 -9999 -9999 -9999 -9999 -9999 -9999 -9999 -9999 -9999 -9999 -9999 -9999 -9999 -9999 -9999 -9999 -9999 -9999 -9999 -9999 -9999 -9999 -9999 -9999 0.075 0.133 0.141 0.160 0.201 0.208 0.175 0.119 0.110 -9999 -9999 -9999 -9999 -9999 -9999 -9999
-9999 -9999 -9999 -9999 -9999 -9999 -9999 -9999 -9999 -9999 -9999 -9999 -9999 -9999 -9999 -9999 -9999 -9999 -9999 -9999 -9999 -9999 -9999 -9999 -9999 -9999 -9999 -9999 -9999 -9999 -9999 -9999 -9999 -9999 -9999 -9999 -9999 -9999 -9999 -9999 -9999 -9999 -9999 -9999 -9999 -9999 -9999 -9999 -9999 -9999 -9999 -9999 -9999 -9999 -9999 -9999 -9999 -9999 -9999 -9999 -9999 -9999 -9999 -9999 -9999 -9999 -9999 -9999 -9999 -9999 -9999 -9999 -9999 -9999 -9999 -9999 -9999 -9999 -9999 -9999 -9999 -9999 -9999 -9999 -9999 -9999 -9999 -9999 -9999 -9999 -9999 -9999 -9999 -9999 -9999 -9999 -9999 -9999 -9999 -9999 -9999 -9999 -9999 -9999 -9999 -9999 -9999 -9999 -9999 -9999 -9999 -9999 -9999 -9999 -9999 -9999 -9999 -9999 -9999 -9999 -9999 -9999 -9999 -9999 -9999 -9999 -9999 -9999 -9999 -9999 -9999 -9999 -9999 -9999 -9999 -9999 -9999 -9999 -9999 -9999 -9999 -9999 -9999 -9999 -9999 -9999 -9999 -9999 -9999 -9999 -9999 -9999 -9999 -9999 -9999 -9999 -9999 -9999 -9999 -9999 -9999 -9999 -9999 -9999 -9999 -9999 -9999 -9999 -9999 -9999 -9999 -9999 -9999 -9999 -9999 -9999 -9999 -9999 -9999 -9999 -9999 -9999 -9999 -9999 -9999 -9999 -9999 -9999 -9999 -9999 -9999 -9999 -9999 -9999 -9999 -9999 -9999 -9999 -9999 -9999 -9999 -9999 -9999 -9999 -9999 -9999 -9999 -9999 -9999 -9999 -9999 -9999 -9999 -9999 -9999 -9999 -9999 0.144 0.130 0.161 0.191 0.189 0.179 0.176 0.143 0.126 0.111 0.113 0.000 -9999 -9999 -9999 -9999 -9999
-9999 -9999 -9999 -9999 -9999 -9999 -9999 -9999 -9999 -9999 -9999 -9999 -9999 -9999 -9999 -9999 -9999 -9999 -9999 -9999 -9999 -9999 -9999 -9999 -9999 -9999 -9999 -9999 -9999 -9999 -9999 -9999 -9999 -9999 -9999 -9999 -9999 -9999 -9999 -9999 -9999 -9999 -9999 -9999 -9999 -9999 -9999 -9999 -9999 -9999 -9999 -9999 -9999 -9999 -9999 -9999 -9999 -9999 -9999 -9999 -9999 -9999 -9999 -9999 -9999 -9999 -9999 -9999 -9999 -9999 -9999 -9999 -9999 -9999 -9999 -9999 -9999 -9999 -9999 -9999 -9999 -9999 -9999 -9999 -9999 -9999 -9999 -9999 -9999 -9999 -9999 -9999 -9999 -9999 -9999 -9999 -9999 -9999 -9999 -9999 -9999 -9999 -9999 -9999 -9999 -9999 -9999 -9999 -9999 -9999 -9999 -9999 -9999 -9999 -9999 -9999 -9999 -9999 -9999 -9999 -9999 -9999 -9999 -9999 -9999 -9999 -9999 -9999 -9999 -9999 -9999 -9999 -9999 -9999 -9999 -9999 -9999 -9999 -9999 -9999 -9999 -9999 -9999 -9999 -9999 -9999 -9999 -9999 -9999 -9999 -9999 -9999 -9999 -9999 -9999 -9999 -9999 -9999 -9999 -9999 -9999 -9999 -9999 -9999 -9999 -9999 -9999 -9999 -9999 -9999 -9999 -9999 -9999 -9999 -9999 -9999 -9999 -9999 -9999 -9999 -9999 -9999 -9999 -9999 -9999 -9999 -9999 -9999 -9999 -9999 -9999 -9999 -9999 -9999 -9999 -9999 -9999 -9999 -9999 -9999 -9999 -9999 -9999 -9999 -9999 -9999 -9999 -9999 -9999 -9999 -9999 -9999 -9999 -9999 -9999 -9999 0.143 0.138 0.172 0.178 0.205 0.179 0.186 0.181 0.145 0.130 0.104 -9999 -9999 -9999 -9999 -9999 -9999 -9999
-9999 -9999 -9999 -9999 -9999 -9999 -9999 -9999 -9999 -9999 -9999 -9999 -9999 -9999 -9999 -9999 -9999 -9999 -9999 -9999 -9999 -9999 -9999 -9999 -9999 -9999 -9999 -9999 -9999 -9999 -9999 -9999 -9999 -9999 -9999 -9999 -9999 -9999 -9999 -9999 -9999 -9999 -9999 -9999 -9999 -9999 -9999 -9999 -9999 -9999 -9999 -9999 -9999 -9999 -9999 -9999 -9999 -9999 -9999 -9999 -9999 -9999 -9999 -9999 -9999 -9999 -9999 -9999 -9999 -9999 -9999 -9999 -9999 -9999 -9999 -9999 -9999 -9999 -9999 -9999 -9999 -9999 -9999 -9999 -9999 -9999 -9999 -9999 -9999 -9999 -9999 -9999 -9999 -9999 -9999 -9999 -9999 -9999 -9999 -9999 -9999 -9999 -9999 -9999 -9999 -9999 -9999 -9999 -9999 -9999 -9999 -9999 -9999 -9999 -9999 -9999 -9999 -9999 -9999 -9999 -9999 -9999 -9999 -9999 -9999 -9999 -9999 -9999 -9999 -9999 -9999 -9999 -9999 -9999 -9999 -9999 -9999 -9999 -9999 -9999 -9999 -9999 -9999 -9999 -9999 -9999 -9999 -9999 -9999 -9999 -9999 -9999 -9999 -9999 -9999 -9999 -9999 -9999 -9999 -9999 -9999 -9999 -9999 -9999 -9999 -9999 -9999 -9999 -9999 -9999 -9999 -9999 -9999 -9999 -9999 -9999 -9999 -9999 -9999 -9999 -9999 -9999 -9999 -9999 -9999 -9999 -9999 -9999 -9999 -9999 -9999 -9999 -9999 -9999 -9999 -9999 -9999 -9999 -9999 -9999 -9999 -9999 -9999 -9999 -9999 -9999 -9999 -9999 -9999 -9999 -9999 -9999 -9999 -9999 -9999 0.136 0.161 0.179 0.173 0.181 0.184 0.202 0.162 0.158 0.128 0.103 0.001 -9999 0.474 -9999 -9999 -9999 -9999 -9999
-9999 -9999 -9999 -9999 -9999 -9999 -9999 -9999 -9999 -9999 -9999 -9999 -9999 -9999 -9999 -9999 -9999 -9999 -9999 -9999 -9999 -9999 -9999 -9999 -9999 -9999 -9999 -9999 -9999 -9999 -9999 -9999 -9999 -9999 -9999 -9999 -9999 -9999 -9999 -9999 -9999 -9999 -9999 -9999 -9999 -9999 -9999 -9999 -9999 -9999 -9999 -9999 -9999 -9999 -9999 -9999 -9999 -9999 -9999 -9999 -9999 -9999 -9999 -9999 -9999 -9999 -9999 -9999 -9999 -9999 -9999 -9999 -9999 -9999 -9999 -9999 -9999 -9999 -9999 -9999 -9999 -9999 -9999 -9999 -9999 -9999 -9999 -9999 -9999 -9999 -9999 -9999 -9999 -9999 -9999 -9999 -9999 -9999 -9999 -9999 -9999 -9999 -9999 -9999 -9999 -9999 -9999 -9999 -9999 -9999 -9999 -9999 -9999 -9999 -9999 -9999 -9999 -9999 -9999 -9999 -9999 -9999 -9999 -9999 -9999 -9999 -9999 -9999 -9999 -9999 -9999 -9999 -9999 -9999 -9999 -9999 -9999 -9999 -9999 -9999 -9999 -9999 -9999 -9999 -9999 -9999 -9999 -9999 -9999 -9999 -9999 -9999 -9999 -9999 -9999 -9999 -9999 -9999 -9999 -9999 -9999 -9999 -9999 -9999 -9999 -9999 -9999 -9999 -9999 -9999 -9999 -9999 -9999 -9999 -9999 -9999 -9999 -9999 -9999 -9999 -9999 -9999 -9999 -9999 -9999 -9999 -9999 -9999 -9999 -9999 -9999 -9999 -9999 -9999 -9999 -9999 -9999 -9999 -9999 -9999 -9999 -9999 -9999 -9999 -9999 -9999 -9999 -9999 -9999 -9999 -9999 -9999 0.122 0.074 0.106 0.174 0.203 0.160 0.160 0.185 0.173 0.174 0.169 0.147 0.136 0.119 0.093 -9999 0.000 -9999 -9999 -9999 -9999 -9999
-9999 -9999 -9999 -9999 -9999 -9999 -9999 -9999 -9999 -9999 -9999 -9999 -9999 -9999 -9999 -9999 -9999 -9999 -9999 -9999 -9999 -9999 -9999 -9999 -9999 -9999 -9999 -9999 -9999 -9999 -9999 -9999 -9999 -9999 -9999 -9999 -9999 -9999 -9999 -9999 -9999 -9999 -9999 -9999 -9999 -9999 -9999 -9999 -9999 -9999 -9999 -9999 -9999 -9999 -9999 -9999 -9999 -9999 -9999 -9999 -9999 -9999 -9999 -9999 -9999 -9999 -9999 -9999 -9999 -9999 -9999 -9999 -9999 -9999 -9999 -9999 -9999 -9999 -9999 -9999 -9999 -9999 -9999 -9999 -9999 -9999 -9999 -9999 -9999 -9999 -9999 -9999 -9999 -9999 -9999 -9999 -9999 -9999 -9999 -9999 -9999 -9999 -9999 -9999 -9999 -9999 -9999 -9999 -9999 -9999 -9999 -9999 -9999 -9999 -9999 -9999 -9999 -9999 -9999 -9999 -9999 -9999 -9999 -9999 -9999 -9999 -9999 -9999 -9999 -9999 -9999 -9999 -9999 -9999 -9999 -9999 -9999 -9999 -9999 -9999 -9999 -9999 -9999 -9999 -9999 -9999 -9999 -9999 -9999 -9999 -9999 -9999 -9999 -9999 -9999 -9999 -9999 -9999 -9999 -9999 -9999 -9999 -9999 -9999 -9999 -9999 -9999 -9999 -9999 -9999 -9999 -9999 -9999 -9999 -9999 -9999 -9999 -9999 -9999 -9999 -9999 -9999 -9999 -9999 -9999 -9999 -9999 -9999 -9999 -9999 -9999 -9999 -9999 -9999 -9999 -9999 -9999 -9999 -9999 -9999 -9999 -9999 -9999 -9999 -9999 -9999 -9999 -9999 -9999 -9999 -9999 0.054 0.131 0.133 0.165 0.193 0.182 0.173 0.180 0.164 0.190 0.195 0.175 0.168 0.160 0.134 0.111 0.000 0.000 0.000 -9999 -9999 -9999 -9999
-9999 -9999 -9999 -9999 -9999 -9999 -9999 -9999 -9999 -9999 -9999 -9999 -9999 -9999 -9999 -9999 -9999 -9999 -9999 -9999 -9999 -9999 -9999 -9999 -9999 -9999 -9999 -9999 -9999 -9999 -9999 -9999 -9999 -9999 -9999 -9999 -9999 -9999 -9999 -9999 -9999 -9999 -9999 -9999 -9999 -9999 -9999 -9999 -9999 -9999 -9999 -9999 -9999 -9999 -9999 -9999 -9999 -9999 -9999 -9999 -9999 -9999 -9999 -9999 -9999 -9999 -9999 -9999 -9999 -9999 -9999 -9999 -9999 -9999 -9999 -9999 -9999 -9999 -9999 -9999 -9999 -9999 -9999 -9999 -9999 -9999 -9999 -9999 -9999 -9999 -9999 -9999 -9999 -9999 -9999 -9999 -9999 -9999 -9999 -9999 -9999 -9999 -9999 -9999 -9999 -9999 -9999 -9999 -9999 -9999 -9999 -9999 -9999 -9999 -9999 -9999 -9999 -9999 -9999 -9999 -9999 -9999 -9999 -9999 -9999 -9999 -9999 -9999 -9999 -9999 -9999 -9999 -9999 -9999 -9999 -9999 -9999 -9999 -9999 -9999 -9999 -9999 -9999 -9999 -9999 -9999 -9999 -9999 -9999 -9999 -9999 -9999 -9999 -9999 -9999 -9999 -9999 -9999 -9999 -9999 -9999 -9999 -9999 -9999 -9999 -9999 -9999 -9999 -9999 -9999 -9999 -9999 -9999 -9999 -9999 -9999 -9999 -9999 -9999 -9999 -9999 -9999 -9999 -9999 -9999 -9999 -9999 -9999 -9999 -9999 -9999 -9999 -9999 -9999 -9999 -9999 -9999 -9999 -9999 -9999 -9999 -9999 -9999 -9999 -9999 -9999 -9999 -9999 0.117 0.109 0.107 0.125 0.171 0.196 0.194 0.179 0.179 0.183 0.176 0.187 0.181 0.175 0.178 0.163 0.189 0.132 0.000 -9999 0.000 -9999 -9999 -9999 -9999 -9999
-9999 -9999 -9999 -9999 -9999 -9999 -9999 -9999 -9999 -9999 -9999 -9999 -9999 -9999 -9999 -9999 -9999 -9999 -9999 -9999 -9999 -9999 -9999 -9999 -9999 -9999 -9999 -9999 -9999 -9999 -9999 -9999 -9999 -9999 -9999 -9999 -9999 -9999 -9999 -9999 -9999 -9999 -9999 -9999 -9999 -9999 -9999 -9999 -9999 -9999 -9999 -9999 -9999 -9999 -9999 -9999 -9999 -9999 -9999 -9999 -9999 -9999 -9999 -9999 -9999 -9999 -9999 -9999 -9999 -9999 -9999 -9999 -9999 -9999 -9999 -9999 -9999 -9999 -9999 -9999 -9999 -9999 -9999 -9999 -9999 -9999 -9999 -9999 -9999 -9999 -9999 -9999 -9999 -9999 -9999 -9999 -9999 -9999 -9999 -9999 -9999 -9999 -9999 -9999 -9999 -9999 -9999 -9999 -9999 -9999 -9999 -9999 -9999 -9999 -9999 -9999 -9999 -9999 -9999 -9999 -9999 -9999 -9999 -9999 -9999 -9999 -9999 -9999 -9999 -9999 -9999 -9999 -9999 -9999 -9999 -9999 -9999 -9999 -9999 -9999 -9999 -9999 -9999 -9999 -9999 -9999 -9999 -9999 -9999 -9999 -9999 -9999 -9999 -9999 -9999 -9999 -9999 -9999 -9999 -9999 -9999 -9999 -9999 -9999 -9999 -9999 -9999 -9999 -9999 -9999 -9999 -9999 -9999 -9999 -9999 -9999 -9999 -9999 -9999 -9999 -9999 -9999 -9999 -9999 -9999 -9999 -9999 -9999 -9999 -9999 -9999 -9999 -9999 -9999 -9999 -9999 -9999 -9999 -9999 -9999 -9999 -9999 -9999 -9999 0.105 0.093 0.092 0.112 0.131 0.138 0.148 0.158 0.180 0.175 0.214 0.196 0.185 0.177 0.184 0.177 0.186 0.185 0.177 0.174 0.174 0.000 -9999 -9999 -9999 -9999 -9999 -9999 -9999 -9999
-9999 -9999 -9999 -9999 -9999 -9999 -9999 -9999 -9999 -9999 -9999 -9999 -9999 -9999 -9999 -9999 -9999 -9999 -9999 -9999 -9999 -9999 -9999 -9999 -9999 -9999 -9999 -9999 -9999 -9999 -9999 -9999 -9999 -9999 -9999 -9999 -9999 -9999 -9999 -9999 -9999 -9999 -9999 -9999 -9999 -9999 -9999 -9999 -9999 -9999 -9999 -9999 -9999 -9999 -9999 -9999 -9999 -9999 -9999 -9999 -9999 -9999 -9999 -9999 -9999 -9999 -9999 -9999 -9999 -9999 -9999 -9999 -9999 -9999 -9999 -9999 -9999 -9999 -9999 -9999 -9999 -9999 -9999 -9999 -9999 -9999 -9999 -9999 -9999 -9999 -9999 -9999 -9999 -9999 -9999 -9999 -9999 -9999 -9999 -9999 -9999 -9999 -9999 -9999 -9999 -9999 -9999 -9999 -9999 -9999 -9999 -9999 -9999 -9999 -9999 -9999 -9999 -9999 -9999 -9999 -9999 -9999 -9999 -9999 -9999 -9999 -9999 -9999 -9999 -9999 -9999 -9999 -9999 -9999 -9999 -9999 -9999 -9999 -9999 -9999 -9999 -9999 -9999 -9999 -9999 -9999 -9999 -9999 -9999 -9999 -9999 -9999 -9999 -9999 -9999 -9999 -9999 -9999 -9999 -9999 -9999 -9999 -9999 -9999 -9999 -9999 -9999 -9999 -9999 -9999 -9999 -9999 -9999 -9999 -9999 -9999 -9999 -9999 -9999 -9999 -9999 -9999 -9999 -9999 -9999 -9999 -9999 -9999 -9999 -9999 -9999 -9999 -9999 -9999 -9999 -9999 -9999 -9999 -9999 -9999 -9999 -9999 0.228 0.077 0.098 0.092 0.091 0.133 0.157 0.168 0.152 0.157 0.172 0.166 0.176 0.162 0.180 0.163 0.180 0.173 0.174 0.187 0.157 0.175 0.143 -9999 -9999 -9999 -9999 -9999 -9999 -9999 -9999 -9999
-9999 -9999 -9999 -9999 -9999 -9999 -9999 -9999 -9999 -9999 -9999 -9999 -9999 -9999 -9999 -9999 -9999 -9999 -9999 -9999 -9999 -9999 -9999 -9999 -9999 -9999 -9999 -9999 -9999 -9999 -9999 -9999 -9999 -9999 -9999 -9999 -9999 -9999 -9999 -9999 -9999 -9999 -9999 -9999 -9999 -9999 -9999 -9999 -9999 -9999 -9999 -9999 -9999 -9999 -9999 -9999 -9999 -9999 -9999 -9999 -9999 -9999 -9999 -9999 -9999 -9999 -9999 -9999 -9999 -9999 -9999 -9999 -9999 -9999 -9999 -9999 -9999 -9999 -9999 -9999 -9999 -9999 -9999 -9999 -9999 -9999 -9999 -9999 -9999 -9999 -9999 -9999 -9999 -9999 -9999 -9999 -9999 -9999 -9999 -9999 -9999 -9999 -9999 -9999 -9999 -9999 -9999 -9999 -9999 -9999 -9999 -9999 -9999 -9999 -9999 -9999 -9999 -9999 -9999 -9999 -9999 -9999 -9999 -9999 -9999 -9999 -9999 -9999 -9999 -9999 -9999 -9999 -9999 -9999 -9999 -9999 -9999 -9999 -9999 -9999 -9999 -9999 -9999 -9999 -9999 -9999 -9999 -9999 -9999 -9999 -9999 -9999 -9999 -9999 -9999 -9999 -9999 -9999 -9999 -9999 -9999 -9999 -9999 -9999 -9999 -9999 -9999 -9999 -9999 -9999 -9999 -9999 -9999 -9999 -9999 -9999 -9999 -9999 -9999 -9999 -9999 -9999 -9999 -9999 -9999 -9999 -9999 -9999 -9999 -9999 -9999 -9999 -9999 -9999 -9999 -9999 -9999 -9999 -9999 -9999 -9999 0.032 0.060 0.076 0.107 0.115 0.091 0.099 0.149 0.145 0.156 0.148 0.142 0.158 0.178 0.169 0.176 0.170 0.160 0.183 0.181 0.178 0.187 0.174 0.133 0.098 0.000 0.000 0.000 0.130 0.001 -9999 -9999 -9999
-9999 -9999 -9999 -9999 -9999 -9999 -9999 -9999 -9999 -9999 -9999 -9999 -9999 -9999 -9999 -9999 -9999 -9999 -9999 -9999 -9999 -9999 -9999 -9999 -9999 -9999 -9999 -9999 -9999 -9999 -9999 -9999 -9999 -9999 -9999 -9999 -9999 -9999 -9999 -9999 -9999 -9999 -9999 -9999 -9999 -9999 -9999 -9999 -9999 -9999 -9999 -9999 -9999 -9999 -9999 -9999 -9999 -9999 -9999 -9999 -9999 -9999 -9999 -9999 -9999 -9999 -9999 -9999 -9999 -9999 -9999 -9999 -9999 -9999 -9999 -9999 -9999 -9999 -9999 -9999 -9999 -9999 -9999 -9999 -9999 -9999 -9999 -9999 -9999 -9999 -9999 -9999 -9999 -9999 -9999 -9999 -9999 -9999 -9999 -9999 -9999 -9999 -9999 -9999 -9999 -9999 -9999 -9999 -9999 -9999 -9999 -9999 -9999 -9999 -9999 -9999 -9999 -9999 -9999 -9999 -9999 -9999 -9999 -9999 -9999 -9999 -9999 -9999 -9999 -9999 -9999 -9999 -9999 -9999 -9999 -9999 -9999 -9999 -9999 -9999 -9999 -9999 -9999 -9999 -9999 -9999 -9999 -9999 -9999 -9999 -9999 -9999 -9999 -9999 -9999 -9999 -9999 -9999 -9999 -9999 -9999 -9999 -9999 -9999 -9999 -9999 -9999 -9999 -9999 -9999 -9999 -9999 -9999 -9999 -9999 -9999 -9999 -9999 -9999 -9999 -9999 -9999 -9999 -9999 -9999 -9999 -9999 -9999 -9999 -9999 -9999 -9999 -9999 -9999 -9999 -9999 -9999 -9999 -9999 0.039 0.054 0.060 0.076 0.080 0.105 0.112 0.103 0.104 0.111 0.126 0.138 0.135 0.141 0.180 0.174 0.166 0.160 0.165 0.173 0.167 0.181 0.168 0.190 0.169 0.118 0.125 0.000 -9999 -9999 -9999 -9999 -9999 -9999 -9999
-9999 -9999 -9999 -9999 -9999 -9999 -9999 -9999 -9999 -9999 -9999 -9999 -9999 -9999 -9999 -9999 -9999 -9999 -9999 -9999 -9999 -9999 -9999 -9999 -9999 -9999 -9999 -9999 -9999 -9999 -9999 -9999 -9999 -9999 -9999 -9999 -9999 -9999 -9999 -9999 -9999 -9999 -9999 -9999 -9999 -9999 -9999 -9999 -9999 -9999 -9999 -9999 -9999 -9999 -9999 -9999 -9999 -9999 -9999 -9999 -9999 -9999 -9999 -9999 -9999 -9999 -9999 -9999 -9999 -9999 -9999 -9999 -9999 -9999 -9999 -9999 -9999 -9999 -9999 -9999 -9999 -9999 -9999 -9999 -9999 -9999 -9999 -9999 -9999 -9999 -9999 -9999 -9999 -9999 -9999 -9999 -9999 -9999 -9999 -9999 -9999 -9999 -9999 -9999 -9999 -9999 -9999 -9999 -9999 -9999 -9999 -9999 -9999 -9999 -9999 -9999 -9999 -9999 -9999 -9999 -9999 -9999 -9999 -9999 -9999 -9999 -9999 -9999 -9999 -9999 -9999 -9999 -9999 -9999 -9999 -9999 -9999 -9999 -9999 -9999 -9999 -9999 -9999 -9999 -9999 -9999 -9999 -9999 -9999 -9999 -9999 -9999 -9999 -9999 -9999 -9999 -9999 -9999 -9999 -9999 -9999 -9999 -9999 -9999 -9999 -9999 -9999 -9999 -9999 -9999 -9999 -9999 -9999 -9999 -9999 -9999 -9999 -9999 -9999 -9999 -9999 -9999 -9999 -9999 -9999 -9999 -9999 -9999 -9999 -9999 -9999 -9999 -9999 0.109 0.041 0.039 -9999 -9999 0.041 0.057 0.075 0.069 0.081 0.080 0.100 0.133 0.110 0.127 0.114 0.128 0.138 0.153 0.158 0.153 0.147 0.164 0.160 0.157 0.152 0.167 0.196 0.154 0.194 0.184 0.114 0.101 -9999 -9999 -9999 -9999 -9999 -9999 -9999 -9999
-9999 -9999 -9999 -9999 -9999 -9999 -9999 -9999 -9999 -9999 -9999 -9999 -9999 -9999 -9999 -9999 -9999 -9999 -9999 -9999 -9999 -9999 -9999 -9999 -9999 -9999 -9999 -9999 -9999 -9999 -9999 -9999 -9999 -9999 -9999 -9999 -9999 -9999 -9999 -9999 -9999 -9999 -9999 -9999 -9999 -9999 -9999 -9999 -9999 -9999 -9999 -9999 -9999 -9999 -9999 -9999 -9999 -9999 -9999 -9999 -9999 -9999 -9999 -9999 -9999 -9999 -9999 -9999 -9999 -9999 -9999 -9999 -9999 -9999 -9999 -9999 -9999 -9999 -9999 -9999 -9999 -9999 -9999 -9999 -9999 -9999 -9999 -9999 -9999 -9999 -9999 -9999 -9999 -9999 -9999 -9999 -9999 -9999 -9999 -9999 -9999 -9999 -9999 -9999 -9999 -9999 -9999 -9999 -9999 -9999 -9999 -9999 -9999 -9999 -9999 -9999 -9999 -9999 -9999 -9999 -9999 -9999 -9999 -9999 -9999 -9999 -9999 -9999 -9999 -9999 -9999 -9999 -9999 -9999 -9999 -9999 -9999 -9999 -9999 -9999 -9999 -9999 -9999 -9999 -9999 -9999 -9999 -9999 -9999 -9999 -9999 -9999 -9999 -9999 -9999 -9999 -9999 -9999 -9999 -9999 -9999 -9999 -9999 -9999 -9999 -9999 -9999 -9999 -9999 -9999 -9999 -9999 -9999 -9999 -9999 -9999 -9999 -9999 -9999 -9999 -9999 -9999 -9999 -9999 -9999 -9999 -9999 -9999 0.245 0.041 0.087 0.077 0.076 0.080 0.085 0.067 0.056 0.059 0.063 0.094 0.065 0.083 0.091 0.088 0.095 0.115 0.108 0.127 0.114 0.138 0.130 0.153 0.152 0.175 0.155 0.144 0.145 0.167 0.172 0.180 0.187 0.177 0.168 0.141 0.100 0.000 -9999 0.000 -9999 0.000 -9999 -9999 -9999 -9999
-9999 -9999 -9999 -9999 -9999 -9999 -9999 -9999 -9999 -9999 -9999 -9999 -9999 -9999 -9999 -9999 -9999 -9999 -9999 -9999 -9999 -9999 -9999 -9999 -9999 -9999 -9999 -9999 -9999 -9999 -9999 -9999 -9999 -9999 -9999 -9999 -9999 -9999 -9999 -9999 -9999 -9999 -9999 -9999 -9999 -9999 -9999 -9999 -9999 -9999 -9999 -9999 -9999 -9999 -9999 -9999 -9999 -9999 -9999 -9999 -9999 -9999 -9999 -9999 -9999 -9999 -9999 -9999 -9999 -9999 -9999 -9999 -9999 -9999 -9999 -9999 -9999 -9999 -9999 -9999 -9999 -9999 -9999 -9999 -9999 -9999 -9999 -9999 -9999 -9999 -9999 -9999 -9999 -9999 -9999 -9999 -9999 -9999 -9999 -9999 -9999 -9999 -9999 -9999 -9999 -9999 -9999 -9999 -9999 -9999 -9999 -9999 -9999 -9999 -9999 -9999 -9999 -9999 -9999 -9999 -9999 -9999 -9999 -9999 -9999 -9999 -9999 -9999 -9999 -9999 -9999 -9999 -9999 -9999 -9999 -9999 -9999 -9999 -9999 -9999 -9999 -9999 -9999 -9999 -9999 -9999 -9999 -9999 -9999 -9999 -9999 -9999 -9999 -9999 -9999 -9999 -9999 -9999 -9999 -9999 -9999 -9999 -9999 -9999 -9999 -9999 -9999 -9999 -9999 -9999 0.413 0.113 0.101 0.088 0.305 -9999 -9999 -9999 -9999 -9999 -9999 -9999 -9999 -9999 -9999 -9999 -9999 0.075 0.105 0.127 0.114 0.102 0.100 0.102 0.104 0.099 0.079 0.074 0.079 0.081 0.092 0.099 0.071 0.081 0.087 0.102 0.090 0.132 0.110 0.136 0.131 0.151 0.162 0.174 0.156 0.148 0.144 0.162 0.159 0.166 0.151 0.162 0.142 0.129 0.000 -9999 -9999 -9999 -9999 -9999 -9999 -9999 -9999 -9999
-9999 -9999 -9999 -9999 -9999 -9999 -9999 -9999 -9999 -9999 -9999 -9999 -9999 -9999 -9999 -9999 -9999 -9999 -9999 -9999 -9999 -9999 -9999 -9999 -9999 -9999 -9999 -9999 -9999 -9999 -9999 -9999 -9999 -9999 -9999 -9999 -9999 -9999 -9999 -9999 -9999 -9999 -9999 -9999 -9999 -9999 -9999 -9999 -9999 -9999 -9999 -9999 -9999 -9999 -9999 -9999 -9999 -9999 -9999 -9999 -9999 -9999 -9999 -9999 -9999 -9999 -9999 -9999 -9999 -9999 -9999 -9999 -9999 -9999 -9999 -9999 -9999 -9999 -9999 -9999 -9999 -9999 -9999 -9999 -9999 -9999 -9999 -9999 -9999 -9999 -9999 -9999 -9999 -9999 -9999 -9999 -9999 -9999 -9999 -9999 -9999 -9999 -9999 -9999 -9999 -9999 -9999 -9999 -9999 -9999 -9999 -9999 -9999 -9999 -9999 -9999 -9999 -9999 -9999 -9999 -9999 -9999 -9999 -9999 -9999 -9999 -9999 -9999 -9999 -9999 -9999 -9999 -9999 -9999 -9999 -9999 -9999 -9999 -9999 -9999 -9999 -9999 -9999 -9999 -9999 -9999 -9999 -9999 -9999 -9999 -9999 -9999 -9999 -9999 -9999 -9999 -9999 -9999 -9999 -9999 -9999 -9999 -9999 -9999 -9999 -9999 -9999 0.000 0.094 0.098 0.094 0.090 0.096 0.097 0.100 0.104 0.145 -9999 -9999 -9999 -9999 -9999 -9999 0.291 0.087 0.094 0.099 0.115 0.135 0.118 0.093 0.087 0.098 0.099 0.112 0.100 0.075 0.077 0.076 0.096 0.082 0.100 0.096 0.081 0.104 0.087 0.108 0.117 0.113 0.128 0.148 0.128 0.138 0.142 0.170 0.138 0.143 0.133 0.140 0.160 0.161 0.140 0.129 0.000 -9999 -9999 -9999 -9999 -9999 -9999 -9999 -9999 -9999 -9999
-9999 -9999 -9999 -9999 -9999 -9999 -9999 -9999 -9999 -9999 -9999 -9999 -9999 -9999 -9999 -9999 -9999 -9999 -9999 -9999 -9999 -9999 -9999 -9999 -9999 -9999 -9999 -9999 -9999 -9999 -9999 -9999 -9999 -9999 -9999 -9999 -9999 -9999 -9999 -9999 -9999 -9999 -9999 -9999 -9999 -9999 -9999 -9999 -9999 -9999 -9999 -9999 -9999 -9999 -9999 -9999 -9999 -9999 -9999 -9999 -9999 -9999 -9999 -9999 -9999 -9999 -9999 -9999 -9999 -9999 -9999 -9999 -9999 -9999 -9999 -9999 -9999 -9999 -9999 -9999 -9999 -9999 -9999 -9999 -9999 -9999 -9999 -9999 -9999 -9999 -9999 -9999 -9999 -9999 -9999 -9999 -9999 -9999 -9999 -9999 -9999 -9999 -9999 -9999 -9999 -9999 -9999 -9999 -9999 -9999 -9999 -9999 -9999 -9999 -9999 -9999 -9999 -9999 -9999 -9999 -9999 -9999 -9999 -9999 -9999 -9999 -9999 -9999 -9999 -9999 -9999 -9999 -9999 -9999 -9999 -9999 -9999 -9999 -9999 -9999 -9999 -9999 -9999 -9999 -9999 -9999 -9999 -9999 -9999 -9999 -9999 -9999 -9999 -9999 -9999 -9999 -9999 -9999 -9999 -9999 -9999 -9999 -9999 -9999 -9999 -9999 -9999 0.092 0.092 0.097 0.103 0.091 0.101 0.106 0.107 0.114 0.101 0.099 -9999 -9999 -9999 -9999 0.125 0.104 0.127 0.148 0.152 0.148 0.131 0.096 0.082 0.091 0.107 0.101 0.112 0.122 0.104 0.091 0.075 0.067 0.077 0.073 0.086 0.101 0.100 0.103 0.109 0.125 0.125 0.139 0.143 0.159 0.135 0.152 0.163 0.153 0.138 0.153 0.157 0.149 0.161 0.113 0.106 -9999 -9999 -9999 -9999 -9999 -9999 -9999 -9999 -9999 -9999 -9999
-9999 -9999 -9999 -9999 -9999 -9999 -9999 -9999 -9999 -9999 -9999 -9999 -9999 -9999 -9999 -9999 -9999 -9999 -9999 -9999 -9999 -9999 -9999 -9999 -9999 -9999 -9999 -9999 -9999 -9999 -9999 -9999 -9999 -9999 -9999 -9999 -9999 -9999 -9999 -9999 -9999 -9999 -9999 -9999 -9999 -9999 -9999 -9999 -9999 -9999 -9999 -9999 -9999 -9999 -9999 -9999 -9999 -9999 -9999 -9999 -9999 -9999 -9999 -9999 -9999 -9999 -9999 -9999 -9999 -9999 -9999 -9999 -9999 -9999 -9999 -9999 -9999 -9999 -9999 -9999 -9999 -9999 -9999 -9999 -9999 -9999 -9999 -9999 -9999 -9999 -9999 -9999 -9999 -9999 -9999 -9999 -9999 -9999 -9999 -9999 -9999 -9999 -9999 -9999 -9999 -9999 -9999 -9999 -9999 -9999 -9999 -9999 -9999 -9999 -9999 -9999 -9999 -9999 -9999 -9999 -9999 -9999 0.183 0.402 0.417 0.325 -9999 -9999 -9999 -9999 -9999 -9999 -9999 -9999 -9999 -9999 -9999 -9999 -9999 -9999 -9999 -9999 -9999 -9999 -9999 -9999 -9999 -9999 -9999 -9999 -9999 -9999 -9999 -9999 -9999 -9999 -9999 -9999 -9999 -9999 -9999 -9999 -9999 -9999 -9999 -9999 0.000 0.099 0.103 0.112 0.134 0.128 0.132 0.133 0.145 0.114 0.105 0.114 0.100 0.090 -9999 0.085 0.103 0.129 0.143 0.191 0.185 0.193 0.176 0.096 0.107 0.112 0.111 0.107 0.111 0.117 0.100 0.090 0.086 0.088 0.066 0.071 0.094 0.096 0.122 0.114 0.119 0.123 0.130 0.136 0.141 0.140 0.153 0.153 0.152 0.163 0.124 0.158 0.142 0.150 0.142 0.119 0.071 -9999 -9999 -9999 -9999 -9999 -9999 -9999 -9999 -9999 -9999 -9999
-9999 -9999 -9999 -9999 -9999 -9999 -9999 -9999 -9999 -9999 -9999 -9999 -9999 -9999 -9999 -9999 -9999 -9999 -9999 -9999 -9999 -9999 -9999 -9999 -9999 -9999 -9999 -9999 -9999 -9999 -9999 -9999 -9999 -9999 -9999 -9999 -9999 -9999 -9999 -9999 -9999 -9999 -9999 -9999 -9999 -9999 -9999 -9999 -9999 -9999 -9999 -9999 -9999 -9999 -9999 -9999 -9999 -9999 -9999 -9999 -9999 -9999 -9999 -9999 -9999 -9999 -9999 -9999 -9999 -9999 -9999 -9999 -9999 -9999 -9999 -9999 -9999 -9999 -9999 -9999 -9999 -9999 -9999 -9999 -9999 -9999 -9999 -9999 -9999 -9999 -9999 -9999 -9999 -9999 -9999 -9999 -9999 -9999 -9999 -9999 -9999 -9999 -9999 -9999 -9999 -9999 -9999 -9999 -9999 -9999 -9999 -9999 -9999 -9999 -9999 -9999 -9999 -9999 -9999 -9999 0.074 0.100 0.180 0.428 0.000 0.000 -9999 -9999 -9999 -9999 -9999 -9999 -9999 -9999 -9999 -9999 -9999 -9999 -9999 -9999 -9999 -9999 -9999 -9999 -9999 -9999 -9999 -9999 -9999 -9999 -9999 -9999 -9999 -9999 -9999 -9999 -9999 -9999 -9999 -9999 -9999 -9999 -9999 -9999 -9999 -9999 0.147 0.122 0.127 0.129 0.131 0.132 0.174 0.230 0.127 0.103 0.104 0.115 0.116 0.109 0.070 0.078 0.110 0.133 0.133 0.143 0.183 0.152 0.181 0.118 0.140 0.106 0.101 0.139 0.107 0.120 0.096 0.097 0.093 0.081 0.082 0.082 0.094 0.106 0.095 0.087 0.092 0.101 0.135 0.128 0.128 0.148 0.155 0.146 0.142 0.160 0.154 0.142 0.126 0.125 0.133 0.125 0.093 0.000 -9999 -9999 -9999 -9999 -9999 -9999 -9999 -9999 -9999 -9999
-9999 -9999 -9999 -9999 -9999 -9999 -9999 -9999 -9999 -9999 -9999 -9999 -9999 -9999 -9999 -9999 -9999 -9999 -9999 -9999 -9999 -9999 -9999 -9999 -9999 -9999 -9999 -9999 -9999 -9999 -9999 -9999 -9999 -9999 -9999 -9999 -9999 -9999 -9999 -9999 -9999 -9999 -9999 -9999 -9999 -9999 -9999 -9999 -9999 -9999 -9999 -9999 -9999 -9999 -9999 -9999 -9999 -9999 -9999 -9999 -9999 -9999 -9999 -9999 -9999 -9999 -9999 -9999 -9999 -9999 -9999 -9999 -9999 -9999 -9999 -9999 -9999 -9999 -9999 -9999 -9999 -9999 -9999 -9999 -9999 -9999 -9999 -9999 -9999 -9999 -9999 -9999 -9999 -9999 -9999 -9999 -9999 -9999 -9999 -9999 -9999 -9999 -9999 -9999 -9999 -9999 -9999 -9999 -9999 -9999 -9999 -9999 -9999 -9999 -9999 -9999 -9999 -9999 -9999 0.088 0.107 0.187 0.187 0.426 0.428 0.426 0.151 0.114 -9999 -9999 -9999 -9999 -9999 -9999 -9999 -9999 -9999 -9999 -9999 -9999 -9999 -9999 -9999 -9999 -9999 -9999 -9999 -9999 -9999 -9999 -9999 -9999 -9999 -9999 -9999 -9999 -9999 -9999 -9999 -9999 -9999 -9999 -9999 -9999 -9999 -9999 0.153 0.213 0.215 0.214 0.172 0.168 0.219 0.495 0.216 0.124 0.122 0.117 0.112 0.102 0.102 0.100 0.101 0.107 0.111 0.111 0.118 0.127 0.201 0.133 0.160 0.151 0.108 0.125 0.102 0.109 0.099 0.112 0.100 0.103 0.086 0.068 0.095 0.095 0.098 0.103 0.080 0.087 0.089 0.110 0.130 0.124 0.142 0.136 0.151 0.145 0.133 0.123 0.141 0.140 0.158 0.142 0.108 0.086 0.000 0.000 -9999 -9999 -9999 -9999 -9999 -9999 -9999 -9999
-9999 -9999 -9999 -9999 -9999 -9999 -9999 -9999 -9999 -9999 -9999 -9999 -9999 -9999 -9999 -9999 -9999 -9999 -9999 -9999 -9999 -9999 -9999 -9999 -9999 -9999 -9999 -9999 -9999 -9999 -9999 -9999 -9999 -9999 -9999 -9999 -9999 -9999 -9999 -9999 -9999 -9999 -9999 -9999 -9999 -9999 -9999 -9999 -9999 -9999 -9999 -9999 -9999 -9999 -9999 -9999 -9999 -9999 -9999 -9999 -9999 -9999 -9999 -9999 -9999 -9999 -9999 -9999 -9999 -9999 -9999 -9999 -9999 -9999 -9999 -9999 -9999 -9999 -9999 -9999 -9999 -9999 -9999 -9999 -9999 -9999 -9999 -9999 -9999 -9999 -9999 -9999 -9999 -9999 -9999 -9999 -9999 -9999 -9999 -9999 -9999 -9999 -9999 0.000 0.030 0.031 0.032 0.028 0.036 0.049 0.047 0.054 0.039 0.032 -9999 0.261 -9999 -9999 0.399 0.103 0.184 0.187 0.424 0.442 0.418 0.436 0.436 0.198 0.108 0.000 -9999 -9999 -9999 -9999 -9999 -9999 -9999 -9999 -9999 -9999 -9999 -9999 -9999 -9999 -9999 -9999 -9999 -9999 -9999 -9999 -9999 -9999 -9999 -9999 -9999 -9999 -9999 -9999 -9999 -9999 -9999 -9999 -9999 -9999 -9999 -9999 0.466 0.470 0.485 0.482 0.217 0.163 0.217 0.500 0.475 0.212 0.130 0.109 0.110 0.089 0.101 0.106 0.109 0.126 0.149 0.154 0.199 0.193 0.191 0.122 0.169 0.235 0.166 0.121 0.107 0.106 0.116 0.106 0.088 0.095 0.084 0.072 0.067 0.072 0.093 0.102 0.088 0.078 0.089 0.105 0.116 0.122 0.130 0.140 0.125 0.140 0.144 0.149 0.144 0.139 0.141 0.147 0.120 0.084 -9999 -9999 -9999 -9999 -9999 -9999 -9999 -9999 -9999 -9999
-9999 -9999 -9999 -9999 -9999 -9999 -9999 -9999 -9999 -9999 -9999 -9999 -9999 -9999 -9999 -9999 -9999 -9999 -9999 -9999 -9999 -9999 -9999 -9999 -9999 -9999 -9999 -9999 -9999 -9999 -9999 -9999 -9999 -9999 -9999 -9999 -9999 -9999 -9999 -9999 -9999 -9999 -9999 -9999 -9999 -9999 -9999 -9999 -9999 -9999 -9999 -9999 -9999 -9999 -9999 -9999 -9999 -9999 -9999 -9999 -9999 -9999 -9999 -9999 -9999 -9999 -9999 -9999 -9999 -9999 -9999 -9999 -9999 -9999 -9999 -9999 -9999 -9999 -9999 -9999 -9999 -9999 -9999 -9999 -9999 -9999 -9999 -9999 -9999 -9999 -9999 -9999 -9999 -9999 -9999 -9999 -9999 -9999 -9999 -9999 -9999 -9999 -9999 0.000 0.053 0.065 0.059 0.046 0.063 0.062 0.063 0.069 0.073 0.065 0.067 0.075 0.132 0.135 0.098 0.137 0.180 0.414 0.420 0.428 0.413 0.439 0.450 0.433 0.192 0.192 0.000 -9999 -9999 -9999 -9999 -9999 -9999 -9999 -9999 -9999 -9999 -9999 -9999 0.117 0.086 0.079 0.083 0.080 0.083 0.089 -9999 -9999 -9999 -9999 -9999 -9999 -9999 -9999 -9999 -9999 -9999 -9999 -9999 -9999 0.472 0.488 0.483 0.493 0.479 0.220 0.208 0.214 0.214 0.491 0.468 0.215 0.164 0.132 0.105 0.095 0.140 0.143 0.147 0.192 0.192 0.191 0.382 0.361 0.366 0.145 0.186 0.238 0.238 0.174 0.116 0.102 0.116 0.103 0.080 0.082 0.079 0.078 0.089 0.071 0.089 0.106 0.098 0.087 0.075 0.104 0.120 0.122 0.117 0.118 0.103 0.121 0.134 0.141 0.162 0.126 0.160 0.118 0.109 0.088 -9999 -9999 -9999 -9999 -9999 -9999 -9999 -9999 -9999 -9999
-9999 -9999 -9999 -9999 -9999 -9999 -9999 -9999 -9999 -9999 -9999 -9999 -9999 -9999 -9999 -9999 -9999 -9999 -9999 -9999 -9999 -9999 -9999 -9999 -9999 -9999 -9999 -9999 -9999 -9999 -9999 -9999 -9999 -9999 -9999 -9999 -9999 -9999 -9999 -9999 -9999 -9999 -9999 -9999 -9999 -9999 -9999 -9999 -9999 -9999 -9999 -9999 -9999 -9999 -9999 -9999 -9999 -9999 -9999 -9999 -9999 -9999 -9999 -9999 -9999 -9999 -9999 -9999 -9999 -9999 -9999 -9999 -9999 -9999 -9999 -9999 -9999 -9999 -9999 -9999 -9999 -9999 -9999 -9999 -9999 -9999 -9999 -9999 -9999 -9999 -9999 -9999 -9999 -9999 -9999 -9999 -9999 -9999 -9999 -9999 -9999 -9999 -9999 0.000 0.062 0.064 0.060 0.060 0.060 0.069 0.073 0.073 0.075 0.099 0.100 0.135 0.184 0.410 0.406 0.399 0.000 0.000 0.000 0.000 0.429 0.000 0.000 0.422 0.189 0.436 0.000 -9999 -9999 -9999 -9999 -9999 -9999 -9999 -9999 -9999 -9999 -9999 -9999 0.085 0.092 0.096 0.090 0.147 0.183 0.104 0.000 -9999 -9999 -9999 -9999 -9999 -9999 -9999 -9999 -9999 -9999 -9999 0.000 0.479 0.505 0.000 0.000 0.494 0.217 0.165 0.166 0.217 0.509 0.489 0.483 0.482 0.163 0.134 0.110 0.174 0.373 0.377 0.371 0.379 0.192 0.345 0.000 0.000 0.370 0.150 0.189 0.186 0.204 0.148 0.115 0.107 0.081 0.093 0.081 0.108 0.101 0.074 0.077 0.074 0.080 0.095 0.089 0.068 0.081 0.090 0.131 0.128 0.125 0.118 0.129 0.116 0.143 0.128 0.136 0.148 0.159 0.126 0.102 0.000 -9999 -9999 -9999 -9999 -9999 -9999 -9999 -9999 -9999 -9999
-9999 -9999 -9999 -9999 -9999 -9999 -9999 -9999 -9999 -9999 -9999 -9999 -9999 -9999 -9999 -9999 -9999 -9999 -9999 -9999 -9999 -9999 -9999 -9999 -9999 -9999 -9999 -9999 -9999 -9999 -9999 -9999 -9999 -9999 -9999 -9999 -9999 -9999 -9999 -9999 -9999 -9999 -9999 -9999 -9999 -9999 -9999 -9999 -9999 -9999 -9999 -9999 -9999 -9999 -9999 -9999 -9999 -9999 -9999 -9999 -9999 -9999 -9999 -9999 -9999 -9999 -9999 -9999 -9999 -9999 -9999 -9999 -9999 -9999 -9999 -9999 -9999 -9999 -9999 -9999 -9999 -9999 -9999 -9999 -9999 -9999 -9999 -9999 -9999 -9999 -9999 -9999 -9999 -9999 -9999 -9999 -9999 -9999 -9999 -9999 -9999 -9999 -9999 0.158 0.076 0.081 0.066 0.065 0.067 0.076 0.077 0.081 0.094 0.126 0.101 0.177 0.412 0.000 0.000 0.000 0.000 0.000 0.000 0.000 0.000 0.000 0.000 0.414 0.449 0.423 0.000 0.000 0.000 0.309 0.069 0.113 0.111 0.305 -9999 -9999 -9999 0.117 0.091 0.087 0.094 0.091 0.200 0.190 0.185 0.435 0.194 0.434 0.436 -9999 -9999 0.109 -9999 -9999 -9999 0.000 0.480 0.470 0.476 0.496 0.000 0.000 0.000 0.506 0.172 0.175 0.139 0.176 0.500 0.511 0.225 0.227 0.223 0.184 0.116 0.336 0.000 0.362 0.362 0.194 0.188 0.341 0.000 0.000 0.203 0.153 0.160 0.156 0.201 0.196 0.119 0.115 0.090 0.101 0.096 0.107 0.108 0.093 0.090 0.072 0.055 0.074 0.098 0.078 0.112 0.127 0.134 0.137 0.110 0.121 0.129 0.116 0.145 0.127 0.113 0.140 0.158 0.118 0.106 0.083 -9999 -9999 -9999 -9999 -9999 -9999 -9999 -9999 -9999 -9999
-9999 -9999 -9999 -9999 -9999 -9999 -9999 -9999 -9999 -9999 -9999 -9999 -9999 -9999 -9999 -9999 -9999 -9999 -9999 -9999 -9999 -9999 -9999 -9999 -9999 -9999 -9999 -9999 -9999 -9999 -9999 -9999 -9999 -9999 -9999 -9999 -9999 -9999 -9999 -9999 -9999 -9999 -9999 -9999 -9999 -9999 -9999 -9999 -9999 -9999 -9999 -9999 -9999 -9999 -9999 -9999 -9999 -9999 -9999 -9999 -9999 -9999 -9999 -9999 -9999 -9999 -9999 -9999 -9999 -9999 -9999 -9999 -9999 -9999 -9999 -9999 -9999 -9999 -9999 -9999 -9999 -9999 -9999 -9999 -9999 -9999 -9999 -9999 -9999 -9999 -9999 -9999 -9999 -9999 -9999 -9999 -9999 -9999 -9999 -9999 -9999 -9999 -9999 0.090 0.079 0.087 0.063 0.067 0.071 0.098 0.077 0.091 0.129 0.174 0.399 0.400 0.000 0.000 0.000 0.000 0.000 0.000 0.000 0.000 0.000 0.000 0.000 0.000 0.416 0.000 0.441 0.000 0.105 0.083 0.084 0.095 0.094 0.050 0.000 0.185 0.145 0.085 0.103 0.096 0.096 0.151 0.193 0.203 0.447 0.000 0.000 0.000 0.000 0.454 0.195 0.469 0.149 0.484 0.462 0.000 0.000 0.000 0.000 0.000 0.000 0.000 0.000 0.495 0.215 0.183 0.184 0.221 0.491 0.222 0.227 0.222 0.211 0.225 0.183 0.000 0.000 0.000 0.362 0.191 0.345 0.000 0.000 0.000 0.378 0.210 0.197 0.197 0.371 0.399 0.135 0.114 0.103 0.100 0.101 0.111 0.097 0.085 0.107 0.100 0.056 0.068 0.096 0.092 0.101 0.098 0.136 0.146 0.146 0.105 0.130 0.116 0.131 0.142 0.142 0.166 0.131 0.124 0.098 0.000 -9999 -9999 -9999 -9999 -9999 -9999 -9999 -9999 -9999 -9999
-9999 -9999 -9999 -9999 -9999 -9999 -9999 -9999 -9999 -9999 -9999 -9999 -9999 -9999 -9999 -9999 -9999 -9999 -9999 -9999 -9999 -9999 -9999 -9999 -9999 -9999 -9999 -9999 -9999 -9999 -9999 -9999 -9999 -9999 -9999 -9999 -9999 -9999 -9999 -9999 -9999 -9999 -9999 -9999 -9999 -9999 -9999 -9999 -9999 -9999 -9999 -9999 -9999 -9999 -9999 -9999 -9999 -9999 -9999 -9999 -9999 -9999 -9999 -9999 -9999 -9999 -9999 -9999 -9999 -9999 -9999 -9999 -9999 -9999 -9999 -9999 -9999 -9999 -9999 -9999 -9999 -9999 -9999 -9999 -9999 -9999 -9999 -9999 -9999 -9999 -9999 -9999 -9999 -9999 -9999 -9999 -9999 -9999 -9999 -9999 -9999 -9999 -9999 0.122 0.080 0.078 0.065 0.074 0.095 0.098 0.088 0.160 0.168 0.412 0.424 0.000 0.000 0.000 0.000 0.000 0.000 0.000 0.000 0.000 0.000 0.000 0.000 0.000 0.000 0.000 0.000 0.434 0.110 0.101 0.120 0.123 0.119 0.430 0.196 0.160 0.126 0.121 0.120 0.118 0.123 0.197 0.451 0.451 0.461 0.000 0.000 0.000 0.000 0.000 0.000 0.000 0.000 0.000 0.000 0.000 0.000 0.000 0.000 0.000 0.000 0.000 0.000 0.504 0.512 0.229 0.214 0.472 0.487 0.234 0.226 0.162 0.217 0.500 0.465 0.000 0.000 0.000 0.000 0.375 0.000 0.000 0.000 0.000 0.000 0.204 0.204 0.374 0.371 0.382 0.194 0.145 0.111 0.108 0.110 0.100 0.096 0.087 0.111 0.076 0.085 0.071 0.075 0.089 0.106 0.118 0.109 0.104 0.134 0.105 0.125 0.117 0.119 0.120 0.146 0.150 0.118 0.121 0.111 0.090 -9999 -9999 -9999 -9999 -9999 -9999 -9999 -9999 -9999 -9999
-9999 -9999 -9999 -9999 -9999 -9999 -9999 -9999 -9999 -9999 -9999 -9999 -9999 -9999 -9999 -9999 -9999 -9999 -9999 -9999 -9999 -9999 -9999 -9999 -9999 -9999 -9999 -9999 -9999 -9999 -9999 -9999 -9999 -9999 -9999 -9999 -9999 -9999 -9999 -9999 -9999 -9999 -9999 -9999 -9999 -9999 -9999 -9999 -9999 -9999 -9999 -9999 -9999 -9999 -9999 -9999 -9999 -9999 -9999 -9999 -9999 -9999 -9999 -9999 -9999 -9999 -9999 -9999 -9999 -9999 -9999 -9999 -9999 -9999 -9999 -9999 -9999 -9999 -9999 -9999 -9999 -9999 -9999 -9999 -9999 -9999 -9999 -9999 -9999 -9999 -9999 -9999 -9999 -9999 -9999 -9999 -9999 -9999 -9999 -9999 -9999 -9999 -9999 0.085 0.102 0.069 0.080 0.102 0.128 0.127 0.165 0.165 0.394 0.402 0.000 0.000 0.000 0.000 0.000 0.000 0.000 0.000 0.418 0.000 0.000 0.000 0.000 0.000 0.000 0.000 0.447 0.151 0.148 0.153 0.161 0.204 0.453 0.000 0.450 0.201 0.157 0.124 0.150 0.206 0.208 0.451 0.462 0.000 0.000 0.000 0.000 0.000 0.000 0.000 0.000 0.000 0.000 0.000 0.000 0.000 0.000 0.000 0.000 0.000 0.000 0.000 0.514 0.500 0.491 0.487 0.488 0.479 0.481 0.483 0.229 0.215 0.212 0.207 0.215 0.347 0.000 0.000 0.000 0.000 0.000 0.000 0.000 0.000 0.000 0.371 0.204 0.390 0.000 0.395 0.197 0.122 0.115 0.139 0.115 0.088 0.081 0.081 0.093 0.086 0.081 0.092 0.079 0.095 0.086 0.095 0.116 0.111 0.134 0.149 0.130 0.102 0.089 0.113 0.136 0.137 0.141 0.141 0.131 0.100 -9999 -9999 -9999 -9999 -9999 -9999 -9999 -9999 -9999 -9999
-9999 -9999 -9999 -9999 -9999 -9999 -9999 -9999 -9999 -9999 -9999 -9999 -9999 -9999 -9999 -9999 -9999 -9999 -9999 -9999 -9999 -9999 -9999 -9999 -9999 -9999 -9999 -9999 -9999 -9999 -9999 -9999 -9999 -9999 -9999 -9999 -9999 -9999 -9999 -9999 -9999 -9999 -9999 -9999 -9999 -9999 -9999 -9999 -9999 -9999 -9999 -9999 -9999 -9999 -9999 -9999 -9999 -9999 -9999 -9999 -9999 -9999 -9999 -9999 -9999 -9999 -9999 -9999 -9999 -9999 -9999 -9999 -9999 -9999 -9999 -9999 -9999 -9999 -9999 -9999 -9999 -9999 -9999 -9999 -9999 -9999 -9999 -9999 -9999 -9999 -9999 -9999 -9999 -9999 -9999 -9999 -9999 -9999 -9999 -9999 -9999 -9999 0.161 0.071 0.099 0.091 0.090 0.128 0.126 0.160 0.390 0.397 0.404 0.000 0.000 0.000 0.000 0.000 0.000 0.000 0.000 0.429 0.433 0.428 0.000 0.000 0.000 0.000 0.000 0.440 0.121 0.152 0.112 0.113 0.119 0.187 0.000 0.458 0.439 0.458 0.469 0.466 0.455 0.464 0.000 0.000 0.000 0.000 0.000 0.000 0.000 0.000 0.000 0.000 0.000 0.000 0.000 0.000 0.000 0.000 0.000 0.508 0.000 0.000 0.000 0.502 0.514 0.214 0.487 0.000 0.475 0.482 0.498 0.493 0.493 0.210 0.220 0.166 0.126 0.151 0.000 0.000 0.000 0.000 0.000 0.000 0.000 0.000 0.000 0.406 0.164 0.420 0.000 0.200 0.120 0.113 0.099 0.110 0.092 0.090 0.073 0.070 0.094 0.081 0.085 0.109 0.117 0.078 0.089 0.097 0.122 0.132 0.126 0.106 0.099 0.099 0.091 0.103 0.138 0.150 0.151 0.160 0.131 0.101 0.000 -9999 -9999 -9999 -9999 -9999 -9999 -9999 -9999 -9999
-9999 -9999 -9999 -9999 -9999 -9999 -9999 -9999 -9999 -9999 -9999 -9999 -9999 -9999 -9999 -9999 -9999 -9999 -9999 -9999 -9999 -9999 -9999 -9999 -9999 -9999 -9999 -9999 -9999 -9999 -9999 -9999 -9999 -9999 -9999 -9999 -9999 -9999 -9999 -9999 -9999 -9999 -9999 -9999 -9999 -9999 -9999 -9999 -9999 -9999 -9999 -9999 -9999 -9999 -9999 -9999 -9999 -9999 -9999 -9999 -9999 -9999 -9999 -9999 -9999 -9999 -9999 -9999 -9999 -9999 -9999 -9999 -9999 -9999 -9999 -9999 -9999 -9999 -9999 -9999 -9999 -9999 -9999 -9999 -9999 -9999 -9999 -9999 -9999 -9999 -9999 -9999 -9999 -9999 -9999 -9999 -9999 -9999 -9999 -9999 -9999 -9999 0.064 0.073 0.086 0.128 0.118 0.165 0.382 0.391 0.391 0.379 0.000 0.000 0.414 0.000 0.000 0.000 0.000 0.400 0.406 0.422 0.446 0.449 0.000 0.000 0.000 0.000 0.000 0.113 0.122 0.153 0.113 0.092 0.118 0.438 0.448 0.191 0.186 0.193 0.438 0.452 0.000 0.000 0.000 0.000 0.000 0.000 0.000 0.000 0.000 0.000 0.000 0.000 0.000 0.000 0.000 0.000 0.000 0.000 0.000 0.505 0.000 0.524 0.500 0.231 0.243 0.504 0.514 0.000 0.000 0.484 0.223 0.220 0.214 0.204 0.161 0.130 0.126 0.147 0.345 0.000 0.000 0.000 0.000 0.000 0.000 0.000 0.000 0.000 0.386 0.136 0.153 0.117 0.122 0.112 0.106 0.095 0.096 0.086 0.080 0.078 0.104 0.101 0.115 0.111 0.121 0.126 0.095 0.095 0.118 0.132 0.106 0.119 0.118 0.104 0.103 0.113 0.145 0.147 0.148 0.168 0.119 0.103 0.101 0.000 -9999 -9999 -9999 -9999 -9999 -9999 -9999 -9999
-9999 -9999 -9999 -9999 -9999 -9999 -9999 -9999 -9999 -9999 -9999 -9999 -9999 -9999 -9999 -9999 -9999 -9999 -9999 -9999 -9999 -9999 -9999 -9999 -9999 -9999 -9999 -9999 -9999 -9999 -9999 -9999 -9999 -9999 -9999 -9999 -9999 -9999 -9999 -9999 -9999 -9999 -9999 -9999 -9999 -9999 -9999 -9999 -9999 -9999 -9999 -9999 -9999 -9999 -9999 -9999 -9999 -9999 -9999 -9999 -9999 -9999 -9999 -9999 -9999 -9999 -9999 -9999 -9999 -9999 -9999 -9999 -9999 -9999 -9999 -9999 -9999 -9999 -9999 -9999 -9999 -9999 -9999 -9999 -9999 -9999 -9999 -9999 -9999 -9999 -9999 -9999 -9999 -9999 -9999 -9999 -9999 -9999 -9999 -9999 -9999 -9999 0.057 0.070 0.079 0.092 0.121 0.127 0.175 0.396 0.389 0.389 0.406 0.407 0.179 0.411 0.000 0.000 0.403 0.407 0.416 0.432 0.454 0.000 0.000 0.000 0.000 0.000 0.428 0.114 0.201 0.209 0.117 0.101 0.120 0.461 0.460 0.183 0.186 0.186 0.191 0.457 0.465 0.000 0.000 0.000 0.000 0.000 0.000 0.000 0.000 0.000 0.000 0.000 0.000 0.000 0.000 0.000 0.000 0.000 0.000 0.511 0.491 0.216 0.116 0.114 0.168 0.493 0.000 0.000 0.000 0.489 0.228 0.216 0.218 0.166 0.138 0.132 0.124 0.202 0.346 0.355 0.361 0.362 0.000 0.000 0.000 0.000 0.000 0.000 0.000 0.196 0.117 0.119 0.106 0.111 0.095 0.102 0.096 0.095 0.093 0.097 0.109 0.104 0.130 0.119 0.117 0.120 0.127 0.103 0.120 0.129 0.121 0.107 0.102 0.109 0.090 0.130 0.142 0.185 0.161 0.157 0.125 0.120 0.098 -9999 -9999 -9999 -9999 -9999 -9999 -9999 -9999 -9999
-9999 -9999 -9999 -9999 -9999 -9999 -9999 -9999 -9999 -9999 -9999 -9999 -9999 -9999 -9999 -9999 -9999 -9999 -9999 -9999 -9999 -9999 -9999 -9999 -9999 -9999 -9999 -9999 -9999 -9999 -9999 -9999 -9999 -9999 -9999 -9999 -9999 -9999 -9999 -9999 -9999 -9999 -9999 -9999 -9999 -9999 -9999 -9999 -9999 -9999 -9999 -9999 -9999 -9999 -9999 -9999 -9999 -9999 -9999 -9999 -9999 -9999 -9999 -9999 -9999 -9999 -9999 -9999 -9999 -9999 -9999 -9999 -9999 -9999 -9999 -9999 -9999 -9999 -9999 -9999 -9999 -9999 -9999 -9999 -9999 -9999 -9999 -9999 -9999 -9999 -9999 -9999 -9999 -9999 -9999 -9999 0.078 -9999 -9999 -9999 -9999 -9999 0.057 0.063 0.069 0.091 0.127 0.126 0.098 0.094 0.099 0.094 0.080 0.080 0.079 0.081 0.166 0.000 0.400 0.411 0.139 0.102 0.117 0.437 0.435 0.198 0.203 0.186 0.113 0.152 0.156 0.155 0.120 0.101 0.119 0.198 0.447 0.193 0.147 0.148 0.142 0.196 0.000 0.000 0.000 0.000 0.000 0.000 0.000 0.000 0.000 0.000 0.000 0.000 0.000 0.000 0.000 0.000 0.000 0.000 0.000 0.000 0.196 0.122 0.114 0.099 0.130 0.470 0.000 0.000 0.000 0.000 0.488 0.210 0.224 0.171 0.135 0.141 0.124 0.154 0.351 0.000 0.000 0.000 0.379 0.000 0.000 0.000 0.000 0.000 0.000 0.000 0.132 0.108 0.107 0.098 0.091 0.093 0.085 0.092 0.097 0.092 0.102 0.099 0.108 0.117 0.118 0.139 0.115 0.111 0.100 0.108 0.104 0.115 0.098 0.109 0.094 0.126 0.144 0.134 0.156 0.155 0.128 0.109 0.106 -9999 -9999 -9999 -9999 -9999 -9999 -9999 -9999 -9999
-9999 -9999 -9999 -9999 -9999 -9999 -9999 -9999 -9999 -9999 -9999 -9999 -9999 -9999 -9999 -9999 -9999 -9999 -9999 -9999 -9999 -9999 -9999 -9999 -9999 -9999 -9999 -9999 -9999 -9999 -9999 -9999 -9999 -9999 -9999 -9999 -9999 -9999 -9999 -9999 -9999 -9999 -9999 -9999 -9999 -9999 -9999 -9999 -9999 -9999 -9999 -9999 -9999 -9999 -9999 -9999 -9999 -9999 -9999 -9999 -9999 -9999 -9999 -9999 -9999 -9999 -9999 -9999 -9999 -9999 -9999 -9999 -9999 -9999 -9999 -9999 -9999 -9999 -9999 -9999 -9999 -9999 -9999 -9999 -9999 -9999 -9999 -9999 -9999 -9999 -9999 -9999 -9999 -9999 -9999 -9999 0.054 -9999 0.036 0.042 0.058 0.054 0.056 0.071 0.069 0.102 0.104 0.125 0.090 0.095 0.096 0.101 0.079 0.078 0.060 0.068 0.096 0.169 0.137 0.110 0.116 0.107 0.152 0.192 0.193 0.151 0.107 0.091 0.093 0.112 0.161 0.110 0.094 0.092 0.092 0.117 0.150 0.118 0.124 0.116 0.197 0.197 0.000 0.000 0.000 0.000 0.000 0.000 0.000 0.000 0.000 0.000 0.000 0.000 0.000 0.000 0.000 0.000 0.000 0.000 0.000 0.153 0.124 0.136 0.102 0.107 0.174 0.488 0.000 0.000 0.000 0.000 0.469 0.486 0.484 0.227 0.138 0.114 0.089 0.117 0.180 0.000 0.000 0.000 0.376 0.385 0.390 0.000 0.000 0.000 0.000 0.000 0.112 0.114 0.095 0.094 0.090 0.093 0.095 0.096 0.100 0.089 0.081 0.094 0.103 0.121 0.117 0.145 0.134 0.118 0.121 0.106 0.105 0.129 0.146 0.125 0.124 0.133 0.142 0.127 0.132 0.138 0.147 0.105 0.097 0.002 0.000 -9999 -9999 -9999 -9999 -9999 -9999 -9999
-9999 -9999 -9999 -9999 -9999 -9999 -9999 -9999 -9999 -9999 -9999 -9999 -9999 -9999 -9999 -9999 -9999 -9999 -9999 -9999 -9999 -9999 -9999 -9999 -9999 -9999 -9999 -9999 -9999 -9999 -9999 -9999 -9999 -9999 -9999 -9999 -9999 -9999 -9999 -9999 -9999 -9999 -9999 -9999 -9999 -9999 -9999 -9999 -9999 -9999 -9999 -9999 -9999 -9999 -9999 -9999 -9999 -9999 -9999 -9999 -9999 -9999 -9999 -9999 -9999 -9999 -9999 -9999 -9999 -9999 -9999 -9999 -9999 -9999 -9999 -9999 -9999 -9999 -9999 -9999 -9999 -9999 -9999 -9999 -9999 -9999 -9999 -9999 -9999 -9999 -9999 -9999 -9999 -9999 -9999 -9999 -9999 -9999 0.035 0.059 0.046 0.051 0.068 0.068 0.079 0.082 0.100 0.101 0.091 0.094 0.101 0.102 0.079 0.068 0.066 0.073 0.096 0.185 0.197 0.203 0.149 0.145 0.207 0.197 0.210 0.145 0.094 0.092 0.085 0.116 0.122 0.095 0.089 0.090 0.106 0.116 0.122 0.111 0.118 0.120 0.143 0.186 0.000 0.000 0.000 0.000 0.000 0.000 0.000 0.000 0.000 0.000 0.000 0.000 0.000 0.000 0.000 0.000 0.000 0.000 0.218 0.095 0.096 0.085 0.100 0.129 0.223 0.478 0.000 0.000 0.495 0.000 0.511 0.515 0.232 0.180 0.129 0.100 0.099 0.126 0.183 0.000 0.182 0.127 0.111 0.146 0.400 0.397 0.000 0.000 0.000 0.000 0.160 0.108 0.095 0.085 0.088 0.094 0.102 0.085 0.089 0.083 0.082 0.094 0.093 0.089 0.084 0.110 0.130 0.119 0.113 0.131 0.117 0.134 0.142 0.142 0.116 0.110 0.139 0.134 0.148 0.139 0.147 0.100 0.110 0.000 -9999 -9999 -9999 -9999 -9999 -9999 -9999 -9999
-9999 -9999 -9999 -9999 -9999 -9999 -9999 -9999 -9999 -9999 -9999 -9999 -9999 -9999 -9999 -9999 -9999 -9999 -9999 -9999 -9999 -9999 -9999 -9999 -9999 -9999 -9999 -9999 -9999 -9999 -9999 -9999 -9999 -9999 -9999 -9999 -9999 -9999 -9999 -9999 -9999 -9999 -9999 -9999 -9999 -9999 -9999 -9999 -9999 -9999 -9999 -9999 -9999 -9999 -9999 -9999 -9999 -9999 -9999 -9999 -9999 -9999 -9999 -9999 -9999 -9999 -9999 -9999 -9999 -9999 -9999 -9999 -9999 -9999 -9999 -9999 -9999 -9999 -9999 -9999 -9999 -9999 -9999 -9999 -9999 -9999 -9999 -9999 -9999 -9999 -9999 -9999 -9999 -9999 -9999 -9999 -9999 -9999 0.063 0.049 0.060 0.064 0.065 0.073 0.078 0.100 0.100 0.090 0.073 0.074 0.095 0.082 0.071 0.068 0.063 0.066 0.099 0.148 0.196 0.196 0.198 0.184 0.202 0.197 0.211 0.153 0.087 0.096 0.092 0.097 0.122 0.095 0.105 0.086 0.098 0.119 0.154 0.119 0.163 0.150 0.192 0.000 0.000 0.000 0.000 0.000 0.000 0.000 0.000 0.000 0.000 0.000 0.000 0.483 0.472 0.000 0.000 0.000 0.000 0.000 0.128 0.112 0.085 0.103 0.107 0.178 0.502 0.000 0.231 0.137 0.129 0.168 0.220 0.179 0.161 0.129 0.123 0.104 0.100 0.127 0.147 0.181 0.111 0.099 0.101 0.107 0.136 0.163 0.409 0.000 0.000 0.000 0.387 0.199 0.105 0.087 0.086 0.102 0.111 0.094 0.090 0.091 0.090 0.114 0.116 0.108 0.101 0.122 0.130 0.132 0.126 0.137 0.110 0.121 0.116 0.119 0.101 0.121 0.139 0.128 0.135 0.134 0.118 0.095 0.087 -9999 -9999 -9999 -9999 -9999 -9999 -9999 -9999 -9999
-9999 -9999 -9999 -9999 -9999 -9999 -9999 -9999 -9999 -9999 -9999 -9999 -9999 -9999 -9999 -9999 -9999 -9999 -9999 -9999 -9999 -9999 -9999 -9999 -9999 -9999 -9999 -9999 -9999 -9999 -9999 -9999 -9999 -9999 -9999 -9999 -9999 -9999 -9999 -9999 -9999 -9999 -9999 -9999 -9999 -9999 -9999 -9999 -9999 -9999 -9999 -9999 -9999 -9999 -9999 -9999 -9999 -9999 -9999 -9999 -9999 -9999 -9999 -9999 -9999 -9999 -9999 -9999 -9999 -9999 -9999 -9999 -9999 -9999 -9999 -9999 -9999 -9999 -9999 -9999 -9999 -9999 -9999 -9999 -9999 -9999 -9999 -9999 -9999 -9999 -9999 -9999 -9999 -9999 -9999 -9999 -9999 -9999 0.055 0.065 0.056 0.056 0.069 0.077 0.106 0.107 0.102 0.093 0.071 0.075 0.074 0.072 0.069 0.069 0.070 0.068 0.106 0.182 0.186 0.197 0.189 0.187 0.212 0.201 0.209 0.114 0.109 0.101 0.094 0.102 0.103 0.097 0.104 0.098 0.122 0.199 0.197 0.158 0.157 0.208 0.000 0.000 0.000 0.000 0.000 0.000 0.000 0.000 0.000 0.000 0.000 0.000 0.000 0.000 0.000 0.000 0.000 0.000 0.000 0.161 0.112 0.114 0.101 0.101 0.132 0.226 0.000 0.491 0.133 0.126 0.119 0.113 0.122 0.168 0.125 0.123 0.129 0.137 0.107 0.108 0.146 0.104 0.104 0.101 0.086 0.083 0.101 0.145 0.202 0.356 0.000 0.000 0.385 0.207 0.146 0.125 0.134 0.149 0.153 0.105 0.107 0.109 0.116 0.160 0.154 0.130 0.152 0.138 0.144 0.131 0.121 0.128 0.126 0.098 0.120 0.114 0.099 0.123 0.121 0.120 0.123 0.137 0.107 0.099 0.092 -9999 -9999 -9999 -9999 -9999 -9999 -9999 -9999 -9999
-9999 -9999 -9999 -9999 -9999 -9999 -9999 -9999 -9999 -9999 -9999 -9999 -9999 -9999 -9999 -9999 -9999 -9999 -9999 -9999 -9999 -9999 -9999 -9999 -9999 -9999 -9999 -9999 -9999 -9999 -9999 -9999 -9999 -9999 -9999 -9999 -9999 -9999 -9999 -9999 -9999 -9999 -9999 -9999 -9999 -9999 -9999 -9999 -9999 -9999 -9999 -9999 -9999 -9999 -9999 -9999 -9999 -9999 -9999 -9999 -9999 -9999 -9999 -9999 -9999 -9999 -9999 -9999 -9999 -9999 -9999 -9999 -9999 -9999 -9999 -9999 -9999 -9999 -9999 -9999 -9999 -9999 -9999 -9999 -9999 -9999 -9999 -9999 -9999 -9999 -9999 -9999 -9999 -9999 -9999 -9999 -9999 -9999 0.054 0.055 0.068 0.079 0.079 0.092 0.105 0.103 0.099 0.096 0.069 0.072 0.074 0.073 0.081 0.073 0.074 0.076 0.111 0.174 0.175 0.188 0.193 0.194 0.195 0.188 0.122 0.116 0.110 0.093 0.098 0.095 0.100 0.099 0.104 0.094 0.115 0.204 0.153 0.151 0.156 0.479 0.000 0.000 0.000 0.000 0.000 0.000 0.000 0.000 0.000 0.000 0.000 0.000 0.000 0.000 0.000 0.000 0.000 0.000 0.000 0.170 0.131 0.120 0.118 0.108 0.130 0.484 0.484 0.217 0.132 0.109 0.099 0.169 0.163 0.123 0.126 0.155 0.187 0.193 0.185 0.189 0.182 0.116 0.096 0.103 0.098 0.084 0.101 0.109 0.185 0.000 0.000 0.000 0.372 0.150 0.119 0.109 0.206 0.216 0.154 0.145 0.132 0.160 0.165 0.157 0.158 0.157 0.155 0.127 0.121 0.147 0.128 0.121 0.099 0.100 0.120 0.107 0.097 0.107 0.107 0.113 0.141 0.143 0.140 0.099 0.086 -9999 -9999 -9999 -9999 -9999 -9999 -9999 -9999 -9999
-9999 -9999 -9999 -9999 -9999 -9999 -9999 -9999 -9999 -9999 -9999 -9999 -9999 -9999 -9999 -9999 -9999 -9999 -9999 -9999 -9999 -9999 -9999 -9999 -9999 -9999 -9999 -9999 -9999 -9999 -9999 -9999 -9999 -9999 -9999 -9999 -9999 -9999 -9999 -9999 -9999 -9999 -9999 -9999 -9999 -9999 -9999 -9999 -9999 -9999 -9999 -9999 -9999 -9999 -9999 -9999 -9999 -9999 -9999 -9999 -9999 -9999 -9999 -9999 -9999 -9999 -9999 -9999 -9999 -9999 -9999 -9999 -9999 -9999 -9999 -9999 -9999 -9999 -9999 -9999 -9999 -9999 -9999 -9999 -9999 -9999 -9999 -9999 -9999 -9999 -9999 -9999 -9999 -9999 -9999 -9999 -9999 -9999 0.061 0.061 0.076 0.077 0.080 0.091 0.100 0.096 0.104 0.092 0.072 0.070 0.081 0.071 0.070 0.063 0.069 0.077 0.095 0.137 0.182 0.198 0.195 0.189 0.195 0.457 0.124 0.125 0.117 0.097 0.096 0.096 0.100 0.097 0.156 0.158 0.459 0.203 0.159 0.159 0.152 0.484 0.000 0.000 0.000 0.000 0.000 0.000 0.000 0.000 0.000 0.000 0.000 0.000 0.000 0.000 0.000 0.000 0.000 0.491 0.170 0.172 0.169 0.137 0.113 0.134 0.220 0.468 0.000 0.000 0.497 0.221 0.215 0.224 0.231 0.174 0.161 0.137 0.140 0.186 0.350 0.349 0.000 0.188 0.114 0.107 0.147 0.139 0.102 0.138 0.380 0.000 0.000 0.369 0.189 0.111 0.101 0.106 0.161 0.221 0.145 0.132 0.175 0.176 0.176 0.172 0.168 0.155 0.147 0.138 0.135 0.155 0.135 0.118 0.112 0.102 0.106 0.111 0.090 0.099 0.123 0.106 0.133 0.124 0.127 0.098 0.083 0.001 0.000 -9999 -9999 -9999 -9999 -9999 -9999 -9999
-9999 -9999 -9999 -9999 -9999 -9999 -9999 -9999 -9999 -9999 -9999 -9999 -9999 -9999 -9999 -9999 -9999 -9999 -9999 -9999 -9999 -9999 -9999 -9999 -9999 -9999 -9999 -9999 -9999 -9999 -9999 -9999 -9999 -9999 -9999 -9999 -9999 -9999 -9999 -9999 -9999 -9999 -9999 -9999 -9999 -9999 -9999 -9999 -9999 -9999 -9999 -9999 -9999 -9999 -9999 -9999 -9999 -9999 -9999 -9999 -9999 -9999 -9999 -9999 -9999 -9999 -9999 -9999 -9999 -9999 -9999 -9999 -9999 -9999 -9999 -9999 -9999 -9999 -9999 -9999 -9999 -9999 -9999 -9999 -9999 -9999 -9999 -9999 -9999 -9999 -9999 -9999 -9999 -9999 -9999 -9999 -9999 -9999 0.068 0.063 0.076 0.080 0.070 0.066 0.071 0.078 0.064 0.066 0.078 0.070 0.078 0.069 0.061 0.064 0.077 0.077 0.080 0.107 0.142 0.190 0.182 0.444 0.452 0.463 0.118 0.099 0.123 0.093 0.094 0.097 0.099 0.106 0.125 0.165 0.207 0.210 0.156 0.159 0.146 0.203 0.000 0.000 0.000 0.000 0.000 0.000 0.000 0.000 0.000 0.000 0.000 0.000 0.000 0.000 0.000 0.000 0.000 0.473 0.223 0.231 0.170 0.168 0.170 0.229 0.506 0.000 0.000 0.000 0.490 0.503 0.498 0.485 0.507 0.217 0.153 0.144 0.147 0.188 0.333 0.000 0.000 0.000 0.386 0.336 0.382 0.193 0.182 0.355 0.362 0.372 0.209 0.196 0.130 0.106 0.093 0.102 0.159 0.155 0.145 0.136 0.154 0.155 0.168 0.177 0.156 0.119 0.106 0.165 0.137 0.130 0.139 0.128 0.126 0.120 0.090 0.097 0.096 0.112 0.123 0.120 0.123 0.133 0.133 0.087 0.078 -9999 -9999 -9999 -9999 -9999 -9999 -9999 -9999 -9999
-9999 -9999 -9999 -9999 -9999 -9999 -9999 -9999 -9999 -9999 -9999 -9999 -9999 -9999 -9999 -9999 -9999 -9999 -9999 -9999 -9999 -9999 -9999 -9999 -9999 -9999 -9999 -9999 -9999 -9999 -9999 -9999 -9999 -9999 -9999 -9999 -9999 -9999 -9999 -9999 -9999 -9999 -9999 -9999 -9999 -9999 -9999 -9999 -9999 -9999 -9999 -9999 -9999 -9999 -9999 -9999 -9999 -9999 -9999 -9999 -9999 -9999 -9999 -9999 -9999 -9999 -9999 -9999 -9999 -9999 -9999 -9999 -9999 -9999 -9999 -9999 -9999 -9999 -9999 -9999 -9999 -9999 -9999 -9999 -9999 -9999 -9999 -9999 -9999 -9999 -9999 -9999 -9999 -9999 -9999 -9999 -9999 -9999 0.068 0.065 0.073 0.074 0.070 0.072 0.069 0.078 0.064 0.059 0.070 0.073 0.070 0.067 0.061 0.069 0.071 0.079 0.090 0.107 0.146 0.426 0.402 0.439 0.449 0.151 0.104 0.104 0.095 0.100 0.097 0.095 0.095 0.102 0.124 0.159 0.152 0.466 0.207 0.194 0.192 0.464 0.461 0.490 0.000 0.000 0.000 0.000 0.000 0.000 0.000 0.000 0.000 0.000 0.000 0.000 0.000 0.000 0.000 0.000 0.484 0.215 0.222 0.162 0.133 0.130 0.215 0.000 0.000 0.000 0.000 0.518 0.523 0.000 0.485 0.231 0.150 0.151 0.176 0.358 0.335 0.000 0.000 0.000 0.000 0.369 0.202 0.165 0.203 0.360 0.357 0.197 0.141 0.116 0.115 0.099 0.092 0.115 0.153 0.134 0.127 0.119 0.146 0.161 0.178 0.189 0.191 0.128 0.128 0.146 0.176 0.240 0.149 0.145 0.140 0.120 0.108 0.100 0.104 0.104 0.108 0.114 0.134 0.128 0.128 0.134 0.000 -9999 -9999 -9999 -9999 -9999 -9999 -9999 -9999 -9999
-9999 -9999 -9999 -9999 -9999 -9999 -9999 -9999 -9999 -9999 -9999 -9999 -9999 -9999 -9999 -9999 -9999 -9999 -9999 -9999 -9999 -9999 -9999 -9999 -9999 -9999 -9999 -9999 -9999 -9999 -9999 -9999 -9999 -9999 -9999 -9999 -9999 -9999 -9999 -9999 -9999 -9999 -9999 -9999 -9999 -9999 -9999 -9999 -9999 -9999 -9999 -9999 -9999 -9999 -9999 -9999 -9999 -9999 -9999 -9999 -9999 -9999 -9999 -9999 -9999 -9999 -9999 -9999 -9999 -9999 -9999 -9999 -9999 -9999 -9999 -9999 -9999 -9999 -9999 -9999 -9999 -9999 -9999 -9999 -9999 -9999 -9999 -9999 -9999 -9999 -9999 -9999 -9999 -9999 -9999 -9999 -9999 0.083 0.064 0.084 0.080 0.075 0.063 0.067 0.070 0.074 0.060 0.067 0.073 0.073 0.070 0.071 0.062 0.062 0.076 0.087 0.082 0.110 0.145 0.434 0.411 0.467 0.445 0.156 0.098 0.094 0.090 0.084 0.083 0.101 0.106 0.102 0.103 0.129 0.169 0.000 0.438 0.453 0.469 0.458 0.209 0.468 0.000 0.000 0.000 0.000 0.000 0.000 0.000 0.000 0.000 0.000 0.000 0.000 0.000 0.000 0.000 0.511 0.495 0.491 0.504 0.136 0.123 0.131 0.474 0.000 0.000 0.000 0.000 0.000 0.000 0.000 0.495 0.465 0.153 0.148 0.140 0.351 0.000 0.000 0.000 0.000 0.000 0.379 0.190 0.163 0.155 0.149 0.204 0.142 0.114 0.105 0.104 0.102 0.108 0.136 0.151 0.119 0.126 0.171 0.169 0.178 0.226 0.244 0.164 0.135 0.134 0.159 0.191 0.194 0.158 0.126 0.141 0.146 0.126 0.117 0.102 0.110 0.103 0.114 0.122 0.140 0.140 0.137 0.110 -9999 0.084 -9999 -9999 -9999 -9999 -9999 -9999 -9999
-9999 -9999 -9999 -9999 -9999 -9999 -9999 -9999 -9999 -9999 -9999 -9999 -9999 -9999 -9999 -9999 -9999 -9999 -9999 -9999 -9999 -9999 -9999 -9999 -9999 -9999 -9999 -9999 -9999 -9999 -9999 -9999 -9999 -9999 -9999 -9999 -9999 -9999 -9999 -9999 -9999 -9999 -9999 -9999 -9999 -9999 -9999 -9999 -9999 -9999 -9999 -9999 -9999 -9999 -9999 -9999 -9999 -9999 -9999 -9999 -9999 -9999 -9999 -9999 -9999 -9999 -9999 -9999 -9999 -9999 -9999 -9999 -9999 -9999 -9999 -9999 -9999 -9999 -9999 -9999 -9999 -9999 -9999 -9999 -9999 -9999 -9999 -9999 -9999 -9999 -9999 -9999 -9999 -9999 -9999 -9999 -9999 0.076 0.065 0.062 0.068 0.064 0.069 0.071 0.069 0.069 0.069 0.082 0.082 0.076 0.074 0.076 0.063 0.062 0.067 0.081 0.086 0.104 0.182 0.444 0.436 0.456 0.438 0.191 0.127 0.097 0.080 0.087 0.080 0.094 0.099 0.096 0.099 0.110 0.137 0.473 0.471 0.467 0.461 0.224 0.506 0.522 0.000 0.000 0.000 0.000 0.000 0.000 0.000 0.000 0.000 0.000 0.000 0.000 0.000 0.000 0.476 0.486 0.212 0.158 0.163 0.129 0.106 0.107 0.231 0.505 0.000 0.000 0.000 0.000 0.000 0.000 0.000 0.385 0.204 0.199 0.391 0.354 0.000 0.000 0.000 0.000 0.000 0.367 0.385 0.171 0.132 0.130 0.156 0.118 0.109 0.100 0.099 0.138 0.126 0.134 0.131 0.137 0.169 0.183 0.192 0.186 0.225 0.231 0.177 0.141 0.142 0.170 0.175 0.153 0.142 0.139 0.133 0.127 0.129 0.113 0.109 0.131 0.109 0.092 0.131 0.135 0.136 0.130 0.092 0.073 0.000 -9999 -9999 -9999 -9999 -9999 -9999 -9999
-9999 -9999 -9999 -9999 -9999 -9999 -9999 -9999 -9999 -9999 -9999 -9999 -9999 -9999 -9999 -9999 -9999 -9999 -9999 -9999 -9999 -9999 -9999 -9999 -9999 -9999 -9999 -9999 -9999 -9999 -9999 -9999 -9999 -9999 -9999 -9999 -9999 -9999 -9999 -9999 -9999 -9999 -9999 -9999 -9999 -9999 -9999 -9999 -9999 -9999 -9999 -9999 -9999 -9999 -9999 -9999 -9999 -9999 -9999 -9999 -9999 -9999 -9999 -9999 -9999 -9999 -9999 -9999 -9999 -9999 -9999 -9999 -9999 -9999 -9999 -9999 -9999 -9999 -9999 -9999 -9999 -9999 -9999 -9999 -9999 -9999 -9999 -9999 -9999 -9999 -9999 -9999 -9999 -9999 -9999 -9999 -9999 0.000 0.052 0.068 0.071 0.065 0.073 0.062 0.066 0.067 0.080 0.089 0.091 0.073 0.082 0.074 0.070 0.067 0.068 0.074 0.085 0.103 0.104 0.187 0.440 0.437 0.430 0.440 0.130 0.099 0.082 0.082 0.083 0.095 0.095 0.087 0.095 0.103 0.111 0.220 0.136 0.125 0.142 0.138 0.238 0.503 0.000 0.000 0.000 0.000 0.000 0.000 0.000 0.000 0.000 0.000 0.000 0.000 0.000 0.000 0.000 0.000 0.487 0.226 0.164 0.129 0.109 0.120 0.226 0.489 0.000 0.000 0.000 0.000 0.000 0.000 0.000 0.000 0.000 0.000 0.000 0.000 0.000 0.000 0.000 0.000 0.000 0.000 0.203 0.165 0.153 0.147 0.143 0.116 0.092 0.090 0.095 0.125 0.119 0.117 0.130 0.129 0.169 0.185 0.184 0.229 0.167 0.181 0.151 0.136 0.143 0.158 0.148 0.160 0.136 0.113 0.122 0.115 0.122 0.113 0.100 0.140 0.129 0.132 0.126 0.127 0.139 0.116 0.084 0.000 0.129 -9999 -9999 -9999 -9999 -9999 -9999 -9999
-9999 -9999 -9999 -9999 -9999 -9999 -9999 -9999 -9999 -9999 -9999 -9999 -9999 -9999 -9999 -9999 -9999 -9999 -9999 -9999 -9999 -9999 -9999 -9999 -9999 -9999 -9999 -9999 -9999 -9999 -9999 -9999 -9999 -9999 -9999 -9999 -9999 -9999 -9999 -9999 -9999 -9999 -9999 -9999 -9999 -9999 -9999 -9999 -9999 -9999 -9999 -9999 -9999 -9999 -9999 -9999 -9999 -9999 -9999 -9999 -9999 -9999 -9999 -9999 -9999 -9999 -9999 -9999 -9999 -9999 -9999 -9999 -9999 -9999 -9999 -9999 -9999 -9999 -9999 -9999 -9999 -9999 -9999 -9999 -9999 -9999 -9999 -9999 -9999 -9999 -9999 -9999 -9999 -9999 -9999 -9999 -9999 -9999 0.000 0.054 0.065 0.064 0.069 0.066 0.074 0.062 0.082 0.088 0.089 0.074 0.079 0.077 0.080 0.071 0.069 0.085 0.101 0.102 0.103 0.141 0.447 0.460 0.449 0.434 0.156 0.101 0.109 0.106 0.109 0.110 0.093 0.087 0.082 0.098 0.110 0.127 0.123 0.095 0.105 0.133 0.184 0.226 0.000 0.000 0.000 0.000 0.000 0.000 0.000 0.000 0.000 0.000 0.000 0.000 0.000 0.000 0.000 0.000 0.500 0.175 0.131 0.136 0.144 0.238 0.520 0.000 0.000 0.000 0.000 0.000 0.000 0.000 0.000 0.000 0.000 0.000 0.000 0.000 0.000 0.395 0.397 0.379 0.388 0.000 0.410 0.206 0.140 0.142 0.144 0.113 0.108 0.101 0.096 0.126 0.132 0.134 0.166 0.181 0.172 0.219 0.218 0.178 0.164 0.167 0.138 0.086 0.111 0.103 0.099 0.109 0.107 0.111 0.128 0.129 0.115 0.109 0.112 0.109 0.124 0.120 0.128 0.124 0.113 0.111 0.065 -9999 0.000 -9999 -9999 -9999 -9999 -9999 -9999 -9999
-9999 -9999 -9999 -9999 -9999 -9999 -9999 -9999 -9999 -9999 -9999 -9999 -9999 -9999 -9999 -9999 -9999 -9999 -9999 -9999 -9999 -9999 -9999 -9999 -9999 -9999 -9999 -9999 -9999 -9999 -9999 -9999 -9999 -9999 -9999 -9999 -9999 -9999 -9999 -9999 -9999 -9999 -9999 -9999 -9999 -9999 -9999 -9999 -9999 -9999 -9999 -9999 -9999 -9999 -9999 -9999 -9999 -9999 -9999 -9999 -9999 -9999 -9999 -9999 -9999 -9999 -9999 -9999 -9999 -9999 -9999 -9999 -9999 -9999 -9999 -9999 -9999 -9999 -9999 -9999 -9999 -9999 -9999 -9999 -9999 -9999 -9999 -9999 -9999 -9999 -9999 -9999 -9999 -9999 -9999 -9999 -9999 -9999 -9999 0.057 0.060 0.072 0.063 0.067 0.070 0.074 0.079 0.089 0.115 0.070 0.077 0.077 0.104 0.078 0.076 0.110 0.092 0.088 0.107 0.115 0.199 0.451 0.437 0.453 0.473 0.110 0.110 0.109 0.108 0.111 0.085 0.090 0.095 0.090 0.098 0.135 0.113 0.100 0.106 0.110 0.174 0.232 0.495 0.000 0.000 0.000 0.000 0.000 0.000 0.000 0.000 0.000 0.000 0.000 0.000 0.000 0.000 0.485 0.230 0.174 0.135 0.142 0.171 0.507 0.000 0.000 0.000 0.000 0.000 0.000 0.000 0.000 0.000 0.000 0.000 0.000 0.000 0.000 0.000 0.401 0.400 0.373 0.395 0.000 0.430 0.204 0.140 0.139 0.119 0.116 0.104 0.078 0.089 0.111 0.116 0.129 0.169 0.182 0.186 0.181 0.180 0.151 0.121 0.119 0.087 0.084 0.081 0.090 0.109 0.107 0.119 0.133 0.132 0.125 0.112 0.103 0.110 0.112 0.105 0.108 0.115 0.110 0.109 0.072 0.093 -9999 0.000 -9999 -9999 -9999 -9999 -9999 -9999 -9999
-9999 -9999 -9999 -9999 -9999 -9999 -9999 -9999 -9999 -9999 -9999 -9999 -9999 -9999 -9999 -9999 -9999 -9999 -9999 -9999 -9999 -9999 -9999 -9999 -9999 -9999 -9999 -9999 -9999 -9999 -9999 -9999 -9999 -9999 -9999 -9999 -9999 -9999 -9999 -9999 -9999 -9999 -9999 -9999 -9999 -9999 -9999 -9999 -9999 -9999 -9999 -9999 -9999 -9999 -9999 -9999 -9999 -9999 -9999 -9999 -9999 -9999 -9999 -9999 -9999 -9999 -9999 -9999 -9999 -9999 -9999 -9999 -9999 -9999 -9999 -9999 -9999 -9999 -9999 -9999 -9999 -9999 -9999 -9999 -9999 -9999 -9999 -9999 -9999 -9999 -9999 -9999 -9999 -9999 -9999 -9999 -9999 -9999 -9999 0.062 0.057 0.072 0.070 0.075 0.074 0.096 0.082 0.089 0.102 0.098 0.100 0.084 0.080 0.069 0.076 0.112 0.093 0.105 0.115 0.153 0.191 0.142 0.137 0.200 0.205 0.162 0.110 0.116 0.105 0.096 0.090 0.086 0.093 0.096 0.110 0.121 0.114 0.120 0.110 0.137 0.177 0.254 0.488 0.000 0.000 0.000 0.000 0.000 0.000 0.000 0.000 0.000 0.000 0.000 0.000 0.000 0.000 0.000 0.499 0.229 0.189 0.240 0.239 0.528 0.000 0.000 0.000 0.000 0.000 0.000 0.000 0.000 0.000 0.000 0.000 0.404 0.000 0.000 0.000 0.395 0.391 0.390 0.382 0.430 0.431 0.162 0.142 0.118 0.105 0.110 0.101 0.079 0.101 0.096 0.129 0.123 0.176 0.162 0.161 0.141 0.135 0.120 0.107 0.118 0.097 0.093 0.083 0.115 0.122 0.130 0.129 0.134 0.132 0.133 0.128 0.125 0.100 0.105 0.109 0.093 0.096 0.111 0.101 0.109 0.079 0.000 0.000 -9999 -9999 -9999 -9999 -9999 -9999 -9999
-9999 -9999 -9999 -9999 -9999 -9999 -9999 -9999 -9999 -9999 -9999 -9999 -9999 -9999 -9999 -9999 -9999 -9999 -9999 -9999 -9999 -9999 -9999 -9999 -9999 -9999 -9999 -9999 -9999 -9999 -9999 -9999 -9999 -9999 -9999 -9999 -9999 -9999 -9999 -9999 -9999 -9999 -9999 -9999 -9999 -9999 -9999 -9999 -9999 -9999 -9999 -9999 -9999 -9999 -9999 -9999 -9999 -9999 -9999 -9999 -9999 -9999 -9999 -9999 -9999 -9999 -9999 -9999 -9999 -9999 -9999 -9999 -9999 -9999 -9999 -9999 -9999 -9999 -9999 -9999 -9999 -9999 -9999 -9999 -9999 -9999 -9999 -9999 -9999 -9999 -9999 -9999 -9999 -9999 -9999 -9999 -9999 -9999 -9999 -9999 0.059 0.074 0.070 0.069 0.077 0.082 0.090 0.083 0.099 0.102 0.102 0.078 0.079 0.069 0.078 0.100 0.092 0.113 0.114 0.156 0.145 0.110 0.103 0.118 0.119 0.131 0.107 0.094 0.099 0.102 0.116 0.111 0.102 0.112 0.123 0.106 0.116 0.136 0.118 0.144 0.146 0.188 0.000 0.000 0.000 0.000 0.000 0.000 0.000 0.463 0.479 0.000 0.000 0.000 0.000 0.000 0.000 0.000 0.507 0.527 0.251 0.249 0.257 0.506 0.504 0.000 0.000 0.000 0.000 0.000 0.000 0.372 0.380 0.382 0.416 0.409 0.372 0.356 0.380 0.390 0.391 0.394 0.401 0.442 0.225 0.142 0.129 0.115 0.108 0.106 0.108 0.086 0.102 0.096 0.111 0.144 0.174 0.145 0.137 0.116 0.114 0.124 0.123 0.112 0.102 0.114 0.105 0.104 0.112 0.135 0.134 0.138 0.138 0.126 0.131 0.093 0.105 0.103 0.082 0.093 0.106 0.104 0.103 0.121 0.103 0.086 0.000 -9999 -9999 -9999 -9999 -9999 -9999 -9999
-9999 -9999 -9999 -9999 -9999 -9999 -9999 -9999 -9999 -9999 -9999 -9999 -9999 -9999 -9999 -9999 -9999 -9999 -9999 -9999 -9999 -9999 -9999 -9999 -9999 -9999 -9999 -9999 -9999 -9999 -9999 -9999 -9999 -9999 -9999 -9999 -9999 -9999 -9999 -9999 -9999 -9999 -9999 -9999 -9999 -9999 -9999 -9999 -9999 -9999 -9999 -9999 -9999 -9999 -9999 -9999 -9999 -9999 -9999 -9999 -9999 -9999 -9999 -9999 -9999 -9999 -9999 -9999 -9999 -9999 -9999 -9999 -9999 -9999 -9999 -9999 -9999 -9999 -9999 -9999 -9999 -9999 -9999 -9999 -9999 -9999 -9999 -9999 -9999 -9999 -9999 -9999 -9999 -9999 -9999 -9999 -9999 -9999 -9999 -9999 0.062 0.076 0.074 0.069 0.066 0.071 0.080 0.081 0.094 0.103 0.104 0.088 0.082 0.068 0.079 0.089 0.114 0.149 0.211 0.146 0.110 0.085 0.112 0.108 0.121 0.100 0.131 0.111 0.120 0.109 0.134 0.130 0.127 0.132 0.141 0.119 0.159 0.156 0.145 0.125 0.143 0.144 0.229 0.222 0.243 0.486 0.486 0.480 0.487 0.503 0.488 0.000 0.000 0.000 0.000 0.000 0.000 0.000 0.492 0.510 0.234 0.249 0.258 0.158 0.489 0.000 0.000 0.000 0.000 0.000 0.535 0.383 0.368 0.395 0.403 0.202 0.375 0.359 0.365 0.203 0.202 0.199 0.214 0.235 0.233 0.144 0.124 0.117 0.105 0.107 0.111 0.088 0.077 0.110 0.134 0.150 0.156 0.121 0.125 0.139 0.119 0.136 0.133 0.117 0.118 0.131 0.124 0.121 0.099 0.117 0.105 0.105 0.093 0.082 0.090 0.114 0.127 0.118 0.094 0.125 0.118 0.133 0.123 0.114 0.132 0.081 0.130 -9999 -9999 -9999 -9999 -9999 -9999 -9999
-9999 -9999 -9999 -9999 -9999 -9999 -9999 -9999 -9999 -9999 -9999 -9999 -9999 -9999 -9999 -9999 -9999 -9999 -9999 -9999 -9999 -9999 -9999 -9999 -9999 -9999 -9999 -9999 -9999 -9999 -9999 -9999 -9999 -9999 -9999 -9999 -9999 -9999 -9999 -9999 -9999 -9999 -9999 -9999 -9999 -9999 -9999 -9999 -9999 -9999 -9999 -9999 -9999 -9999 -9999 -9999 -9999 -9999 -9999 -9999 -9999 -9999 -9999 -9999 -9999 -9999 -9999 -9999 -9999 -9999 -9999 -9999 -9999 -9999 -9999 -9999 -9999 -9999 -9999 -9999 -9999 -9999 -9999 -9999 -9999 -9999 -9999 -9999 -9999 -9999 -9999 -9999 -9999 -9999 -9999 -9999 -9999 -9999 -9999 0.076 0.072 0.082 0.074 0.072 0.066 0.061 0.078 0.073 0.082 0.083 0.090 0.090 0.083 0.074 0.078 0.094 0.118 0.151 0.205 0.105 0.109 0.091 0.091 0.100 0.120 0.124 0.109 0.114 0.134 0.131 0.171 0.216 0.172 0.238 0.143 0.105 0.130 0.123 0.141 0.146 0.217 0.218 0.215 0.225 0.221 0.505 0.499 0.506 0.500 0.515 0.501 0.000 0.000 0.000 0.000 0.000 0.000 0.000 0.505 0.502 0.224 0.499 0.241 0.121 0.219 0.510 0.000 0.000 0.000 0.000 0.508 0.388 0.392 0.210 0.199 0.196 0.181 0.387 0.357 0.192 0.214 0.209 0.206 0.192 0.177 0.122 0.126 0.112 0.107 0.101 0.100 0.087 0.083 0.106 0.148 0.177 0.133 0.115 0.131 0.142 0.118 0.129 0.114 0.125 0.138 0.123 0.114 0.124 0.124 0.111 0.115 0.112 0.101 0.084 0.092 0.134 0.141 0.134 0.138 0.134 0.143 0.140 0.121 0.118 0.145 0.084 -9999 -9999 -9999 -9999 -9999 -9999 -9999 -9999
-9999 -9999 -9999 -9999 -9999 -9999 -9999 -9999 -9999 -9999 -9999 -9999 -9999 -9999 -9999 -9999 -9999 -9999 -9999 -9999 -9999 -9999 -9999 -9999 -9999 -9999 -9999 -9999 -9999 -9999 -9999 -9999 -9999 -9999 -9999 -9999 -9999 -9999 -9999 -9999 -9999 -9999 -9999 -9999 -9999 -9999 -9999 -9999 -9999 -9999 -9999 -9999 -9999 -9999 -9999 -9999 -9999 -9999 -9999 -9999 -9999 -9999 -9999 -9999 -9999 -9999 -9999 -9999 -9999 -9999 -9999 -9999 -9999 -9999 -9999 -9999 -9999 -9999 -9999 -9999 -9999 -9999 -9999 -9999 -9999 -9999 -9999 -9999 -9999 -9999 -9999 -9999 -9999 -9999 -9999 -9999 -9999 -9999 -9999 0.061 0.075 0.071 0.077 0.075 0.066 0.059 0.072 0.082 0.074 0.078 0.084 0.085 0.082 0.072 0.078 0.090 0.108 0.113 0.112 0.094 0.089 0.082 0.086 0.095 0.135 0.135 0.108 0.089 0.100 0.116 0.139 0.132 0.131 0.133 0.141 0.141 0.149 0.185 0.178 0.218 0.223 0.220 0.232 0.219 0.471 0.488 0.509 0.510 0.501 0.504 0.497 0.000 0.000 0.000 0.000 0.000 0.498 0.510 0.510 0.221 0.223 0.230 0.153 0.134 0.180 0.224 0.476 0.000 0.000 0.000 0.000 0.000 0.377 0.393 0.196 0.153 0.141 0.154 0.142 0.373 0.202 0.168 0.154 0.151 0.138 0.127 0.130 0.112 0.107 0.077 0.090 0.084 0.085 0.111 0.137 0.146 0.129 0.151 0.163 0.112 0.117 0.118 0.127 0.103 0.102 0.108 0.124 0.121 0.112 0.112 0.114 0.112 0.103 0.120 0.133 0.142 0.120 0.147 0.119 0.149 0.148 0.135 0.102 0.152 0.150 0.073 0.101 -9999 -9999 -9999 -9999 -9999 -9999 -9999
-9999 -9999 -9999 -9999 -9999 -9999 -9999 -9999 -9999 -9999 -9999 -9999 -9999 -9999 -9999 -9999 -9999 -9999 -9999 -9999 -9999 -9999 -9999 -9999 -9999 -9999 -9999 -9999 -9999 -9999 -9999 -9999 -9999 -9999 -9999 -9999 -9999 -9999 -9999 -9999 -9999 -9999 -9999 -9999 -9999 -9999 -9999 -9999 -9999 -9999 -9999 -9999 -9999 -9999 -9999 -9999 -9999 -9999 -9999 -9999 -9999 -9999 -9999 -9999 -9999 -9999 -9999 -9999 -9999 -9999 -9999 -9999 -9999 -9999 -9999 -9999 -9999 -9999 -9999 -9999 -9999 -9999 -9999 -9999 -9999 -9999 -9999 -9999 -9999 -9999 -9999 -9999 -9999 -9999 -9999 -9999 -9999 -9999 -9999 0.058 0.075 0.074 0.076 0.065 0.060 0.063 0.065 0.077 0.079 0.074 0.077 0.079 0.079 0.073 0.076 0.094 0.117 0.113 0.096 0.085 0.077 0.081 0.077 0.110 0.164 0.138 0.110 0.081 0.092 0.114 0.145 0.136 0.139 0.170 0.135 0.137 0.186 0.173 0.212 0.221 0.234 0.245 0.222 0.499 0.512 0.516 0.504 0.506 0.490 0.233 0.485 0.499 0.000 0.000 0.000 0.492 0.230 0.512 0.528 0.230 0.236 0.185 0.148 0.146 0.181 0.238 0.495 0.000 0.000 0.000 0.000 0.000 0.384 0.370 0.197 0.096 0.107 0.102 0.128 0.154 0.162 0.163 0.136 0.141 0.131 0.132 0.114 0.120 0.102 0.101 0.089 0.089 0.109 0.109 0.122 0.143 0.139 0.163 0.136 0.114 0.119 0.116 0.121 0.126 0.123 0.103 0.101 0.113 0.100 0.108 0.130 0.113 0.094 0.141 0.142 0.141 0.137 0.124 0.127 0.129 0.155 0.113 0.092 0.125 0.083 0.083 0.084 0.000 -9999 -9999 -9999 -9999 -9999 -9999
-9999 -9999 -9999 -9999 -9999 -9999 -9999 -9999 -9999 -9999 -9999 -9999 -9999 -9999 -9999 -9999 -9999 -9999 -9999 -9999 -9999 -9999 -9999 -9999 -9999 -9999 -9999 -9999 -9999 -9999 -9999 -9999 -9999 -9999 -9999 -9999 -9999 -9999 -9999 -9999 -9999 -9999 -9999 -9999 -9999 -9999 -9999 -9999 -9999 -9999 -9999 -9999 -9999 -9999 -9999 -9999 -9999 -9999 -9999 -9999 -9999 -9999 -9999 -9999 -9999 -9999 -9999 -9999 -9999 -9999 -9999 -9999 -9999 -9999 -9999 -9999 -9999 -9999 -9999 -9999 -9999 -9999 -9999 -9999 -9999 -9999 -9999 -9999 -9999 -9999 -9999 -9999 -9999 -9999 -9999 -9999 -9999 -9999 -9999 0.062 0.083 0.074 0.066 0.063 0.063 0.060 0.066 0.076 0.072 0.073 0.078 0.072 0.076 0.073 0.080 0.094 0.096 0.089 0.092 0.083 0.070 0.081 0.087 0.113 0.218 0.171 0.113 0.111 0.121 0.121 0.149 0.140 0.140 0.140 0.137 0.181 0.188 0.131 0.133 0.138 0.146 0.178 0.216 0.526 0.518 0.243 0.231 0.228 0.173 0.177 0.224 0.495 0.510 0.508 0.489 0.137 0.137 0.136 0.148 0.248 0.152 0.158 0.116 0.115 0.147 0.248 0.516 0.486 0.000 0.000 0.000 0.000 0.381 0.356 0.192 0.117 0.121 0.100 0.111 0.132 0.156 0.137 0.131 0.108 0.104 0.121 0.089 0.107 0.112 0.106 0.081 0.082 0.114 0.113 0.113 0.117 0.115 0.125 0.128 0.127 0.105 0.096 0.100 0.121 0.111 0.076 0.096 0.100 0.103 0.112 0.108 0.111 0.087 0.107 0.115 0.137 0.146 0.128 0.131 0.112 0.123 0.113 0.097 0.133 0.097 0.000 0.000 -9999 -9999 -9999 -9999 -9999 -9999 -9999
-9999 -9999 -9999 -9999 -9999 -9999 -9999 -9999 -9999 -9999 -9999 -9999 -9999 -9999 -9999 -9999 -9999 -9999 -9999 -9999 -9999 -9999 -9999 -9999 -9999 -9999 -9999 -9999 -9999 -9999 -9999 -9999 -9999 -9999 -9999 -9999 -9999 -9999 -9999 -9999 -9999 -9999 -9999 -9999 -9999 -9999 -9999 -9999 -9999 -9999 -9999 -9999 -9999 -9999 -9999 -9999 -9999 -9999 -9999 -9999 -9999 -9999 -9999 -9999 -9999 -9999 -9999 -9999 -9999 -9999 -9999 -9999 -9999 -9999 -9999 -9999 -9999 -9999 -9999 -9999 -9999 -9999 -9999 -9999 -9999 -9999 -9999 -9999 -9999 -9999 -9999 -9999 -9999 -9999 -9999 -9999 -9999 -9999 -9999 0.065 0.087 0.075 0.065 0.071 0.065 0.066 0.068 0.070 0.067 0.076 0.076 0.074 0.079 0.073 0.083 0.076 0.082 0.085 0.090 0.084 0.076 0.080 0.084 0.092 0.177 0.130 0.141 0.114 0.121 0.144 0.135 0.136 0.148 0.136 0.139 0.170 0.173 0.147 0.136 0.126 0.130 0.134 0.482 0.513 0.528 0.232 0.176 0.167 0.174 0.126 0.171 0.238 0.507 0.228 0.135 0.118 0.134 0.126 0.130 0.140 0.166 0.140 0.117 0.110 0.139 0.232 0.231 0.522 0.000 0.000 0.000 0.000 0.000 0.377 0.194 0.151 0.127 0.107 0.118 0.128 0.127 0.113 0.101 0.100 0.098 0.124 0.094 0.094 0.102 0.110 0.094 0.081 0.118 0.110 0.114 0.126 0.125 0.119 0.136 0.123 0.090 0.086 0.102 0.103 0.090 0.083 0.091 0.087 0.087 0.087 0.085 0.086 0.085 0.107 0.123 0.139 0.150 0.128 0.122 0.129 0.110 0.098 0.077 0.000 0.106 0.000 -9999 -9999 -9999 -9999 -9999 -9999 -9999 -9999
-9999 -9999 -9999 -9999 -9999 -9999 -9999 -9999 -9999 -9999 -9999 -9999 -9999 -9999 -9999 -9999 -9999 -9999 -9999 -9999 -9999 -9999 -9999 -9999 -9999 -9999 -9999 -9999 -9999 -9999 -9999 -9999 -9999 -9999 -9999 -9999 -9999 -9999 -9999 -9999 -9999 -9999 -9999 -9999 -9999 -9999 -9999 -9999 -9999 -9999 -9999 -9999 -9999 -9999 -9999 -9999 -9999 -9999 -9999 -9999 -9999 -9999 -9999 -9999 -9999 -9999 -9999 -9999 -9999 -9999 -9999 -9999 -9999 -9999 -9999 -9999 -9999 -9999 -9999 -9999 -9999 -9999 -9999 -9999 -9999 -9999 -9999 -9999 -9999 -9999 -9999 -9999 -9999 -9999 -9999 -9999 -9999 -9999 -9999 0.076 0.084 0.080 0.071 0.070 0.065 0.094 0.085 0.073 0.066 0.077 0.077 0.078 0.080 0.085 0.076 0.070 0.075 0.077 0.092 0.086 0.082 0.084 0.086 0.111 0.143 0.135 0.111 0.117 0.110 0.109 0.143 0.142 0.134 0.135 0.148 0.169 0.141 0.153 0.123 0.125 0.135 0.169 0.499 0.506 0.493 0.223 0.172 0.168 0.165 0.165 0.178 0.220 0.222 0.134 0.146 0.132 0.129 0.130 0.128 0.127 0.146 0.125 0.114 0.115 0.134 0.221 0.532 0.513 0.000 0.000 0.000 0.000 0.000 0.374 0.360 0.140 0.133 0.117 0.105 0.139 0.131 0.115 0.105 0.112 0.111 0.110 0.088 0.080 0.096 0.085 0.086 0.085 0.101 0.117 0.120 0.117 0.097 0.106 0.094 0.099 0.084 0.082 0.098 0.096 0.090 0.091 0.106 0.095 0.079 0.085 0.089 0.086 0.112 0.138 0.134 0.136 0.125 0.138 0.104 0.100 0.083 0.095 -9999 0.000 0.000 -9999 -9999 -9999 -9999 -9999 -9999 -9999 -9999 -9999
-9999 -9999 -9999 -9999 -9999 -9999 -9999 -9999 -9999 -9999 -9999 -9999 -9999 -9999 -9999 -9999 -9999 -9999 -9999 -9999 -9999 -9999 -9999 -9999 -9999 -9999 -9999 -9999 -9999 -9999 -9999 -9999 -9999 -9999 -9999 -9999 -9999 -9999 -9999 -9999 -9999 -9999 -9999 -9999 -9999 -9999 -9999 -9999 -9999 -9999 -9999 -9999 -9999 -9999 -9999 -9999 -9999 -9999 -9999 -9999 -9999 -9999 -9999 -9999 -9999 -9999 -9999 -9999 -9999 -9999 -9999 -9999 -9999 -9999 -9999 -9999 -9999 -9999 -9999 -9999 -9999 -9999 -9999 -9999 -9999 -9999 -9999 -9999 -9999 -9999 -9999 -9999 -9999 -9999 -9999 -9999 -9999 -9999 -9999 0.000 0.077 0.086 0.087 0.084 0.086 0.084 0.089 0.072 0.077 0.068 0.069 0.079 0.077 0.078 0.085 0.081 0.073 0.077 0.063 0.066 0.077 0.085 0.095 0.102 0.118 0.117 0.109 0.109 0.114 0.120 0.116 0.134 0.136 0.140 0.136 0.171 0.177 0.134 0.137 0.133 0.132 0.488 0.517 0.513 0.170 0.171 0.168 0.174 0.230 0.234 0.219 0.218 0.176 0.146 0.122 0.129 0.131 0.125 0.128 0.114 0.111 0.104 0.113 0.112 0.140 0.235 0.564 0.000 0.000 0.000 0.000 0.000 0.000 0.362 0.196 0.125 0.105 0.118 0.125 0.129 0.116 0.102 0.099 0.114 0.114 0.105 0.084 0.079 0.085 0.089 0.080 0.084 0.084 0.086 0.093 0.088 0.103 0.096 0.074 0.084 0.083 0.078 0.091 0.095 0.081 0.083 0.084 0.091 0.083 0.071 0.072 0.085 0.091 0.129 0.138 0.127 0.110 0.099 0.098 0.097 0.096 0.097 0.000 0.000 0.076 0.066 -9999 -9999 -9999 -9999 -9999 -9999 -9999 -9999
-9999 -9999 -9999 -9999 -9999 -9999 -9999 -9999 -9999 -9999 -9999 -9999 -9999 -9999 -9999 -9999 -9999 -9999 -9999 -9999 -9999 -9999 -9999 -9999 -9999 -9999 -9999 -9999 -9999 -9999 -9999 -9999 -9999 -9999 -9999 -9999 -9999 -9999 -9999 -9999 -9999 -9999 -9999 -9999 -9999 -9999 -9999 -9999 -9999 -9999 -9999 -9999 -9999 -9999 -9999 -9999 -9999 -9999 -9999 -9999 -9999 -9999 -9999 -9999 -9999 -9999 -9999 -9999 -9999 -9999 -9999 -9999 -9999 -9999 -9999 -9999 -9999 -9999 -9999 -9999 -9999 -9999 -9999 -9999 -9999 -9999 -9999 -9999 -9999 -9999 -9999 -9999 -9999 -9999 -9999 -9999 -9999 -9999 -9999 -9999 0.079 0.090 0.101 0.100 0.089 0.095 0.089 0.071 0.070 0.074 0.073 0.072 0.076 0.071 0.081 0.083 0.072 0.069 0.069 0.065 0.078 0.085 0.105 0.113 0.104 0.117 0.118 0.114 0.118 0.119 0.116 0.152 0.138 0.171 0.180 0.166 0.189 0.167 0.172 0.222 0.000 0.000 0.000 0.500 0.174 0.169 0.176 0.172 0.228 0.486 0.213 0.163 0.179 0.145 0.117 0.117 0.117 0.120 0.109 0.100 0.098 0.097 0.139 0.123 0.145 0.261 0.556 0.000 0.000 0.000 0.000 0.000 0.000 0.379 0.201 0.114 0.115 0.111 0.129 0.112 0.113 0.127 0.112 0.119 0.111 0.077 0.082 0.075 0.081 0.087 0.089 0.087 0.084 0.080 0.078 0.084 0.078 0.083 0.087 0.078 0.098 0.083 0.084 0.081 0.084 0.084 0.094 0.094 0.100 0.084 0.082 0.088 0.085 0.108 0.129 0.134 0.100 0.108 0.109 0.102 0.108 0.091 0.068 -9999 0.081 0.072 -9999 -9999 -9999 -9999 -9999 -9999 -9999 -9999
-9999 -9999 -9999 -9999 -9999 -9999 -9999 -9999 -9999 -9999 -9999 -9999 -9999 -9999 -9999 -9999 -9999 -9999 -9999 -9999 -9999 -9999 -9999 -9999 -9999 -9999 -9999 -9999 -9999 -9999 -9999 -9999 -9999 -9999 -9999 -9999 -9999 -9999 -9999 -9999 -9999 -9999 -9999 -9999 -9999 -9999 -9999 -9999 -9999 -9999 -9999 -9999 -9999 -9999 -9999 -9999 -9999 -9999 -9999 -9999 -9999 -9999 -9999 -9999 -9999 -9999 -9999 -9999 -9999 -9999 -9999 -9999 -9999 -9999 -9999 -9999 -9999 -9999 -9999 -9999 -9999 -9999 -9999 -9999 -9999 -9999 -9999 -9999 -9999 -9999 -9999 -9999 -9999 -9999 -9999 -9999 -9999 -9999 -9999 0.000 0.088 0.093 0.100 0.096 0.087 0.091 0.077 0.073 0.069 0.081 0.075 0.070 0.075 0.073 0.074 0.074 0.082 0.075 0.080 0.066 0.067 0.075 0.103 0.119 0.101 0.111 0.113 0.107 0.105 0.115 0.111 0.149 0.168 0.163 0.177 0.164 0.179 0.175 0.245 0.000 0.000 0.000 0.000 0.219 0.166 0.170 0.179 0.228 0.212 0.493 0.231 0.127 0.139 0.138 0.130 0.119 0.112 0.096 0.100 0.100 0.092 0.110 0.099 0.104 0.176 0.247 0.530 0.000 0.000 0.000 0.000 0.000 0.000 0.183 0.129 0.126 0.119 0.117 0.118 0.107 0.104 0.125 0.117 0.096 0.102 0.084 0.083 0.085 0.086 0.085 0.081 0.067 0.077 0.081 0.074 0.079 0.093 0.102 0.108 0.116 0.131 0.099 0.086 0.096 0.084 0.090 0.101 0.090 0.083 0.086 0.084 0.096 0.088 0.102 0.127 0.129 0.105 0.097 0.103 0.084 0.119 0.095 0.075 0.068 0.087 0.000 -9999 -9999 -9999 -9999 -9999 -9999 -9999 -9999
-9999 -9999 -9999 -9999 -9999 -9999 -9999 -9999 -9999 -9999 -9999 -9999 -9999 -9999 -9999 -9999 -9999 -9999 -9999 -9999 -9999 -9999 -9999 -9999 -9999 -9999 -9999 -9999 -9999 -9999 -9999 -9999 -9999 -9999 -9999 -9999 -9999 -9999 -9999 -9999 -9999 -9999 -9999 -9999 -9999 -9999 -9999 -9999 -9999 -9999 -9999 -9999 -9999 -9999 -9999 -9999 -9999 -9999 -9999 -9999 -9999 -9999 -9999 -9999 -9999 -9999 -9999 -9999 -9999 -9999 -9999 -9999 -9999 -9999 -9999 -9999 -9999 -9999 -9999 -9999 -9999 -9999 -9999 -9999 -9999 -9999 -9999 -9999 -9999 -9999 -9999 -9999 -9999 -9999 -9999 -9999 -9999 -9999 -9999 -9999 0.074 0.088 0.103 0.086 0.097 0.087 0.072 0.073 0.070 0.078 0.075 0.073 0.074 0.075 0.073 0.072 0.074 0.074 0.075 0.070 0.068 0.079 0.100 0.107 0.098 0.108 0.118 0.087 0.087 0.103 0.110 0.140 0.164 0.169 0.184 0.167 0.168 0.170 0.000 0.000 0.000 0.000 0.000 0.216 0.170 0.170 0.181 0.231 0.480 0.474 0.169 0.143 0.123 0.134 0.117 0.116 0.114 0.104 0.086 0.084 0.093 0.108 0.112 0.110 0.173 0.235 0.500 0.000 0.000 0.000 0.000 0.000 0.503 0.224 0.127 0.114 0.117 0.138 0.128 0.111 0.085 0.101 0.105 0.098 0.094 0.083 0.084 0.089 0.092 0.073 0.073 0.071 0.082 0.086 0.083 0.092 0.107 0.110 0.104 0.110 0.129 0.107 0.087 0.090 0.080 0.092 0.103 0.077 0.091 0.082 0.080 0.091 0.089 0.093 0.103 0.088 0.095 0.084 0.087 0.100 0.111 0.131 0.096 0.110 0.105 0.000 -9999 -9999 -9999 -9999 -9999 -9999 -9999 -9999
-9999 -9999 -9999 -9999 -9999 -9999 -9999 -9999 -9999 -9999 -9999 -9999 -9999 -9999 -9999 -9999 -9999 -9999 -9999 -9999 -9999 -9999 -9999 -9999 -9999 -9999 -9999 -9999 -9999 -9999 -9999 -9999 -9999 -9999 -9999 -9999 -9999 -9999 -9999 -9999 -9999 -9999 -9999 -9999 -9999 -9999 -9999 -9999 -9999 -9999 -9999 -9999 -9999 -9999 -9999 -9999 -9999 -9999 -9999 -9999 -9999 -9999 -9999 -9999 -9999 -9999 -9999 -9999 -9999 -9999 -9999 -9999 -9999 -9999 -9999 -9999 -9999 -9999 -9999 -9999 -9999 -9999 -9999 -9999 -9999 -9999 -9999 -9999 -9999 -9999 -9999 -9999 -9999 -9999 -9999 -9999 -9999 -9999 -9999 -9999 0.069 0.074 0.078 0.084 0.077 0.072 0.076 0.071 0.074 0.073 0.077 0.074 0.075 0.078 0.067 0.070 0.071 0.080 0.090 0.091 0.085 0.103 0.108 0.112 0.111 0.115 0.117 0.087 0.089 0.103 0.112 0.168 0.130 0.135 0.139 0.126 0.124 0.486 0.000 0.000 0.000 0.000 0.000 0.000 0.499 0.490 0.494 0.495 0.515 0.518 0.142 0.133 0.117 0.117 0.119 0.128 0.116 0.097 0.086 0.100 0.096 0.104 0.105 0.113 0.139 0.243 0.487 0.000 0.000 0.000 0.512 0.232 0.220 0.239 0.125 0.126 0.127 0.142 0.132 0.103 0.096 0.104 0.086 0.088 0.098 0.075 0.077 0.081 0.096 0.079 0.074 0.078 0.088 0.085 0.093 0.117 0.109 0.131 0.112 0.128 0.142 0.133 0.106 0.110 0.115 0.121 0.104 0.097 0.091 0.099 0.084 0.088 0.111 0.105 0.089 0.092 0.099 0.103 0.104 0.111 0.139 0.144 0.131 0.125 0.099 0.000 -9999 -9999 -9999 -9999 -9999 -9999 -9999 -9999
-9999 -9999 -9999 -9999 -9999 -9999 -9999 -9999 -9999 -9999 -9999 -9999 -9999 -9999 -9999 -9999 -9999 -9999 -9999 -9999 -9999 -9999 -9999 -9999 -9999 -9999 -9999 -9999 -9999 -9999 -9999 -9999 -9999 -9999 -9999 -9999 -9999 -9999 -9999 -9999 -9999 -9999 -9999 -9999 -9999 -9999 -9999 -9999 -9999 -9999 -9999 -9999 -9999 -9999 -9999 -9999 -9999 -9999 -9999 -9999 -9999 -9999 -9999 -9999 -9999 -9999 -9999 -9999 -9999 -9999 -9999 -9999 -9999 -9999 -9999 -9999 -9999 -9999 -9999 -9999 -9999 -9999 -9999 -9999 -9999 -9999 -9999 -9999 -9999 -9999 -9999 -9999 -9999 -9999 -9999 -9999 -9999 -9999 -9999 0.000 0.076 0.083 0.077 0.084 0.077 0.072 0.078 0.076 0.075 0.064 0.059 0.068 0.065 0.067 0.063 0.065 0.072 0.075 0.076 0.081 0.084 0.097 0.111 0.111 0.109 0.112 0.108 0.092 0.097 0.106 0.102 0.126 0.128 0.116 0.106 0.102 0.105 0.508 0.000 0.000 0.502 0.246 0.229 0.503 0.488 0.505 0.220 0.228 0.528 0.503 0.173 0.125 0.112 0.112 0.113 0.101 0.108 0.100 0.101 0.096 0.100 0.094 0.109 0.107 0.139 0.233 0.484 0.000 0.000 0.498 0.226 0.227 0.239 0.160 0.132 0.132 0.129 0.132 0.116 0.103 0.107 0.089 0.081 0.092 0.092 0.086 0.081 0.094 0.081 0.084 0.087 0.080 0.086 0.088 0.096 0.101 0.129 0.134 0.137 0.133 0.127 0.133 0.121 0.120 0.112 0.121 0.101 0.124 0.093 0.092 0.080 0.095 0.109 0.105 0.106 0.087 0.091 0.114 0.126 0.120 0.176 0.155 0.142 0.138 0.122 0.000 -9999 -9999 -9999 -9999 -9999 -9999 -9999 -9999
-9999 -9999 -9999 -9999 -9999 -9999 -9999 -9999 -9999 -9999 -9999 -9999 -9999 -9999 -9999 -9999 -9999 -9999 -9999 -9999 -9999 -9999 -9999 -9999 -9999 -9999 -9999 -9999 -9999 -9999 -9999 -9999 -9999 -9999 -9999 -9999 -9999 -9999 -9999 -9999 -9999 -9999 -9999 -9999 -9999 -9999 -9999 -9999 -9999 -9999 -9999 -9999 -9999 -9999 -9999 -9999 -9999 -9999 -9999 -9999 -9999 -9999 -9999 -9999 -9999 -9999 -9999 -9999 -9999 -9999 -9999 -9999 -9999 -9999 -9999 -9999 -9999 -9999 -9999 -9999 -9999 -9999 -9999 -9999 -9999 -9999 -9999 -9999 -9999 -9999 -9999 -9999 -9999 -9999 -9999 -9999 -9999 -9999 -9999 0.000 0.069 0.071 0.076 0.074 0.087 0.077 0.080 0.085 0.073 0.070 0.066 0.071 0.065 0.064 0.071 0.074 0.076 0.075 0.077 0.077 0.084 0.084 0.082 0.082 0.099 0.106 0.090 0.089 0.098 0.107 0.107 0.118 0.115 0.118 0.107 0.099 0.203 0.464 0.000 0.000 0.181 0.146 0.144 0.184 0.225 0.171 0.137 0.143 0.232 0.228 0.152 0.125 0.111 0.118 0.100 0.096 0.102 0.095 0.096 0.091 0.086 0.098 0.100 0.112 0.114 0.143 0.174 0.211 0.495 0.503 0.232 0.237 0.241 0.125 0.133 0.124 0.116 0.109 0.115 0.104 0.106 0.096 0.086 0.090 0.097 0.089 0.095 0.096 0.078 0.084 0.086 0.088 0.088 0.084 0.092 0.126 0.138 0.126 0.118 0.120 0.123 0.122 0.104 0.131 0.122 0.106 0.091 0.100 0.085 0.086 0.085 0.090 0.118 0.118 0.110 0.095 0.106 0.109 0.148 0.142 0.170 0.160 0.142 0.151 0.115 0.000 -9999 -9999 -9999 -9999 -9999 -9999 -9999 -9999
-9999 -9999 -9999 -9999 -9999 -9999 -9999 -9999 -9999 -9999 -9999 -9999 -9999 -9999 -9999 -9999 -9999 -9999 -9999 -9999 -9999 -9999 -9999 -9999 -9999 -9999 -9999 -9999 -9999 -9999 -9999 -9999 -9999 -9999 -9999 -9999 -9999 -9999 -9999 -9999 -9999 -9999 -9999 -9999 -9999 -9999 -9999 -9999 -9999 -9999 -9999 -9999 -9999 -9999 -9999 -9999 -9999 -9999 -9999 -9999 -9999 -9999 -9999 -9999 -9999 -9999 -9999 -9999 -9999 -9999 -9999 -9999 -9999 -9999 -9999 -9999 -9999 -9999 -9999 -9999 -9999 -9999 -9999 -9999 -9999 -9999 -9999 -9999 -9999 -9999 -9999 -9999 -9999 -9999 -9999 -9999 -9999 -9999 -9999 -9999 0.000 0.066 0.078 0.073 0.087 0.098 0.106 0.110 0.085 0.077 0.076 0.078 0.071 0.070 0.073 0.074 0.075 0.084 0.094 0.103 0.089 0.092 0.086 0.080 0.080 0.089 0.085 0.092 0.103 0.108 0.110 0.120 0.109 0.095 0.099 0.106 0.226 0.476 0.483 0.510 0.142 0.125 0.110 0.137 0.236 0.142 0.141 0.138 0.167 0.131 0.113 0.104 0.108 0.102 0.102 0.107 0.104 0.113 0.112 0.112 0.110 0.105 0.104 0.109 0.110 0.124 0.135 0.132 0.133 0.133 0.176 0.240 0.177 0.134 0.127 0.145 0.129 0.106 0.114 0.106 0.113 0.097 0.098 0.085 0.086 0.082 0.080 0.087 0.082 0.095 0.085 0.087 0.084 0.083 0.103 0.138 0.132 0.140 0.150 0.117 0.125 0.123 0.125 0.130 0.110 0.092 0.082 0.082 0.086 0.090 0.097 0.107 0.100 0.115 0.106 0.124 0.122 0.109 0.139 0.140 0.132 0.140 0.154 0.135 0.106 0.080 -9999 -9999 -9999 -9999 -9999 -9999 -9999 -9999
-9999 -9999 -9999 -9999 -9999 -9999 -9999 -9999 -9999 -9999 -9999 -9999 -9999 -9999 -9999 -9999 -9999 -9999 -9999 -9999 -9999 -9999 -9999 -9999 -9999 -9999 -9999 -9999 -9999 -9999 -9999 -9999 -9999 -9999 -9999 -9999 -9999 -9999 -9999 -9999 -9999 -9999 -9999 -9999 -9999 -9999 -9999 -9999 -9999 -9999 -9999 -9999 -9999 -9999 -9999 -9999 -9999 -9999 -9999 -9999 -9999 -9999 -9999 -9999 -9999 -9999 -9999 -9999 -9999 -9999 -9999 -9999 -9999 -9999 -9999 -9999 -9999 -9999 -9999 -9999 -9999 -9999 -9999 -9999 -9999 -9999 -9999 -9999 -9999 -9999 -9999 -9999 -9999 -9999 -9999 -9999 -9999 -9999 -9999 -9999 -9999 0.068 0.073 0.082 0.072 0.095 0.098 0.099 0.079 0.076 0.076 0.073 0.075 0.073 0.077 0.077 0.080 0.095 0.098 0.105 0.104 0.101 0.102 0.088 0.095 0.096 0.090 0.089 0.100 0.097 0.101 0.104 0.104 0.103 0.118 0.140 0.226 0.240 0.488 0.509 0.133 0.133 0.130 0.129 0.228 0.140 0.121 0.141 0.135 0.132 0.114 0.110 0.111 0.111 0.103 0.110 0.102 0.125 0.117 0.123 0.106 0.114 0.099 0.099 0.109 0.102 0.106 0.122 0.109 0.113 0.134 0.131 0.136 0.129 0.118 0.137 0.118 0.095 0.101 0.096 0.097 0.085 0.094 0.089 0.078 0.083 0.070 0.075 0.087 0.090 0.086 0.087 0.105 0.118 0.112 0.107 0.092 0.106 0.120 0.089 0.091 0.100 0.092 0.085 0.094 0.089 0.098 0.090 0.091 0.083 0.090 0.088 0.092 0.106 0.099 0.098 0.111 0.116 0.110 0.123 0.123 0.165 0.149 0.134 0.090 0.081 -9999 -9999 -9999 -9999 -9999 -9999 -9999 -9999
-9999 -9999 -9999 -9999 -9999 -9999 -9999 -9999 -9999 -9999 -9999 -9999 -9999 -9999 -9999 -9999 -9999 -9999 -9999 -9999 -9999 -9999 -9999 -9999 -9999 -9999 -9999 -9999 -9999 -9999 -9999 -9999 -9999 -9999 -9999 -9999 -9999 -9999 -9999 -9999 -9999 -9999 -9999 -9999 -9999 -9999 -9999 -9999 -9999 -9999 -9999 -9999 -9999 -9999 -9999 -9999 -9999 -9999 -9999 -9999 -9999 -9999 -9999 -9999 -9999 -9999 -9999 -9999 -9999 -9999 -9999 -9999 -9999 -9999 -9999 -9999 -9999 -9999 -9999 -9999 -9999 -9999 -9999 -9999 -9999 -9999 -9999 -9999 -9999 -9999 -9999 -9999 -9999 -9999 -9999 -9999 -9999 -9999 -9999 -9999 -9999 0.070 0.080 0.077 0.094 0.083 0.105 0.091 0.072 0.076 0.081 0.071 0.065 0.072 0.074 0.088 0.093 0.097 0.094 0.112 0.126 0.106 0.105 0.102 0.098 0.107 0.108 0.099 0.092 0.095 0.094 0.104 0.091 0.110 0.118 0.141 0.240 0.239 0.221 0.483 0.509 0.233 0.178 0.217 0.498 0.138 0.145 0.165 0.226 0.163 0.130 0.127 0.128 0.108 0.110 0.108 0.112 0.111 0.117 0.141 0.112 0.107 0.103 0.106 0.105 0.104 0.100 0.104 0.101 0.104 0.127 0.113 0.139 0.123 0.123 0.113 0.101 0.106 0.104 0.100 0.104 0.108 0.102 0.096 0.099 0.091 0.083 0.085 0.102 0.103 0.115 0.111 0.107 0.108 0.105 0.105 0.108 0.098 0.090 0.090 0.087 0.096 0.093 0.085 0.089 0.093 0.088 0.093 0.076 0.078 0.092 0.092 0.089 0.095 0.097 0.101 0.111 0.110 0.101 0.119 0.095 0.143 0.144 0.104 0.091 0.084 -9999 -9999 -9999 -9999 -9999 -9999 -9999 -9999
-9999 -9999 -9999 -9999 -9999 -9999 -9999 -9999 -9999 -9999 -9999 -9999 -9999 -9999 -9999 -9999 -9999 -9999 -9999 -9999 -9999 -9999 -9999 -9999 -9999 -9999 -9999 -9999 -9999 -9999 -9999 -9999 -9999 -9999 -9999 -9999 -9999 -9999 -9999 -9999 -9999 -9999 -9999 -9999 -9999 -9999 -9999 -9999 -9999 -9999 -9999 -9999 -9999 -9999 -9999 -9999 -9999 -9999 -9999 -9999 -9999 -9999 -9999 -9999 -9999 -9999 -9999 -9999 -9999 -9999 -9999 -9999 -9999 -9999 -9999 -9999 -9999 -9999 -9999 -9999 -9999 -9999 -9999 -9999 -9999 -9999 -9999 -9999 -9999 -9999 -9999 -9999 -9999 -9999 -9999 -9999 -9999 -9999 -9999 -9999 -9999 0.063 0.069 0.072 0.086 0.088 0.085 0.102 0.088 0.078 0.074 0.082 0.079 0.077 0.079 0.082 0.092 0.097 0.108 0.122 0.126 0.129 0.123 0.121 0.110 0.105 0.108 0.099 0.092 0.097 0.096 0.104 0.097 0.101 0.118 0.119 0.170 0.167 0.167 0.483 0.000 0.000 0.000 0.000 0.497 0.220 0.222 0.218 0.225 0.203 0.202 0.155 0.158 0.128 0.111 0.114 0.119 0.111 0.137 0.133 0.107 0.111 0.107 0.119 0.120 0.110 0.134 0.131 0.132 0.115 0.121 0.121 0.109 0.114 0.124 0.122 0.103 0.099 0.094 0.096 0.108 0.102 0.100 0.091 0.095 0.105 0.118 0.111 0.089 0.105 0.109 0.098 0.094 0.090 0.105 0.107 0.103 0.097 0.091 0.093 0.094 0.091 0.104 0.115 0.114 0.084 0.088 0.096 0.084 0.092 0.089 0.101 0.091 0.090 0.095 0.095 0.093 0.095 0.096 0.097 0.082 0.107 0.122 0.110 0.094 0.083 -9999 -9999 -9999 -9999 -9999 -9999 -9999 -9999
-9999 -9999 -9999 -9999 -9999 -9999 -9999 -9999 -9999 -9999 -9999 -9999 -9999 -9999 -9999 -9999 -9999 -9999 -9999 -9999 -9999 -9999 -9999 -9999 -9999 -9999 -9999 -9999 -9999 -9999 -9999 -9999 -9999 -9999 -9999 -9999 -9999 -9999 -9999 -9999 -9999 -9999 -9999 -9999 -9999 -9999 -9999 -9999 -9999 -9999 -9999 -9999 -9999 -9999 -9999 -9999 -9999 -9999 -9999 -9999 -9999 -9999 -9999 -9999 -9999 -9999 -9999 -9999 -9999 -9999 -9999 -9999 -9999 -9999 -9999 -9999 -9999 -9999 -9999 -9999 -9999 -9999 -9999 -9999 -9999 -9999 -9999 -9999 -9999 -9999 -9999 -9999 -9999 -9999 -9999 -9999 -9999 -9999 -9999 -9999 -9999 -9999 0.072 0.058 0.084 0.090 0.095 0.097 0.100 0.080 0.074 0.088 0.085 0.077 0.078 0.080 0.096 0.102 0.109 0.129 0.161 0.204 0.207 0.154 0.103 0.104 0.103 0.105 0.110 0.103 0.101 0.102 0.113 0.116 0.123 0.134 0.239 0.230 0.167 0.485 0.000 0.000 0.000 0.000 0.230 0.225 0.225 0.212 0.150 0.123 0.133 0.120 0.130 0.100 0.103 0.110 0.117 0.114 0.110 0.142 0.114 0.121 0.137 0.167 0.172 0.130 0.135 0.130 0.134 0.146 0.119 0.108 0.129 0.134 0.137 0.124 0.112 0.100 0.102 0.107 0.113 0.108 0.099 0.104 0.092 0.104 0.107 0.104 0.097 0.095 0.096 0.098 0.104 0.109 0.104 0.100 0.111 0.096 0.100 0.099 0.100 0.119 0.132 0.128 0.110 0.086 0.082 0.104 0.096 0.094 0.086 0.084 0.091 0.090 0.081 0.087 0.105 0.087 0.092 0.104 0.111 0.104 0.109 0.095 0.091 -9999 -9999 -9999 -9999 -9999 -9999 -9999 -9999 -9999
-9999 -9999 -9999 -9999 -9999 -9999 -9999 -9999 -9999 -9999 -9999 -9999 -9999 -9999 -9999 -9999 -9999 -9999 -9999 -9999 -9999 -9999 -9999 -9999 -9999 -9999 -9999 -9999 -9999 -9999 -9999 -9999 -9999 -9999 -9999 -9999 -9999 -9999 -9999 -9999 -9999 -9999 -9999 -9999 -9999 -9999 -9999 -9999 -9999 -9999 -9999 -9999 -9999 -9999 -9999 -9999 -9999 -9999 -9999 -9999 -9999 -9999 -9999 -9999 -9999 -9999 -9999 -9999 -9999 -9999 -9999 -9999 -9999 -9999 -9999 -9999 -9999 -9999 -9999 -9999 -9999 -9999 -9999 -9999 -9999 -9999 -9999 -9999 -9999 -9999 -9999 -9999 -9999 -9999 -9999 -9999 -9999 -9999 -9999 -9999 -9999 -9999 -9999 0.079 0.079 0.083 0.102 0.104 0.084 0.082 0.078 0.078 0.088 0.079 0.079 0.079 0.080 0.097 0.104 0.157 0.210 0.211 0.193 0.118 0.106 0.101 0.099 0.111 0.113 0.111 0.117 0.103 0.117 0.140 0.141 0.223 0.505 0.500 0.209 0.000 0.000 0.000 0.000 0.000 0.222 0.176 0.144 0.124 0.115 0.128 0.120 0.103 0.106 0.103 0.100 0.104 0.114 0.111 0.107 0.116 0.140 0.173 0.234 0.470 0.482 0.133 0.135 0.170 0.134 0.111 0.115 0.109 0.131 0.149 0.145 0.107 0.104 0.103 0.096 0.115 0.120 0.134 0.103 0.104 0.101 0.087 0.087 0.101 0.104 0.115 0.122 0.114 0.118 0.120 0.105 0.107 0.131 0.131 0.130 0.111 0.129 0.140 0.140 0.122 0.102 0.090 0.093 0.098 0.097 0.100 0.100 0.094 0.074 0.078 0.019 0.020 0.019 0.017 0.021 0.026 0.027 0.021 0.021 0.081 0.000 -9999 -9999 -9999 -9999 -9999 -9999 -9999 -9999 -9999
-9999 -9999 -9999 -9999 -9999 -9999 -9999 -9999 -9999 -9999 -9999 -9999 -9999 -9999 -9999 -9999 -9999 -9999 -9999 -9999 -9999 -9999 -9999 -9999 -9999 -9999 -9999 -9999 -9999 -9999 -9999 -9999 -9999 -9999 -9999 -9999 -9999 -9999 -9999 -9999 -9999 -9999 -9999 -9999 -9999 -9999 -9999 -9999 -9999 -9999 -9999 -9999 -9999 -9999 -9999 -9999 -9999 -9999 -9999 -9999 -9999 -9999 -9999 -9999 -9999 -9999 -9999 -9999 -9999 -9999 -9999 -9999 -9999 -9999 -9999 -9999 -9999 -9999 -9999 -9999 -9999 -9999 -9999 -9999 -9999 -9999 -9999 -9999 -9999 -9999 -9999 -9999 -9999 -9999 -9999 -9999 -9999 -9999 -9999 -9999 -9999 -9999 -9999 -9999 0.059 0.071 0.084 0.087 0.088 0.081 0.076 0.082 0.097 0.094 0.090 0.084 0.085 0.099 0.099 0.120 0.144 0.163 0.133 0.124 0.109 0.099 0.099 0.115 0.109 0.142 0.136 0.212 0.224 0.142 0.130 0.171 0.512 0.495 0.469 0.000 0.000 0.000 0.000 0.226 0.110 0.120 0.117 0.112 0.099 0.107 0.094 0.092 0.110 0.095 0.093 0.098 0.115 0.108 0.103 0.122 0.212 0.485 0.467 0.472 0.490 0.134 0.135 0.136 0.119 0.108 0.116 0.118 0.137 0.140 0.134 0.120 0.110 0.114 0.110 0.126 0.110 0.127 0.096 0.099 0.104 0.087 0.087 0.080 0.093 0.102 0.118 0.113 0.127 0.112 0.108 0.114 0.124 0.144 0.151 0.124 0.106 0.098 0.095 0.120 0.099 0.109 0.086 0.094 0.079 0.088 0.094 0.082 0.076 0.018 0.018 0.019 0.017 0.019 0.021 0.024 0.025 0.022 0.024 0.021 0.014 -9999 -9999 -9999 -9999 -9999 -9999 -9999 -9999 -9999
-9999 -9999 -9999 -9999 -9999 -9999 -9999 -9999 -9999 -9999 -9999 -9999 -9999 -9999 -9999 -9999 -9999 -9999 -9999 -9999 -9999 -9999 -9999 -9999 -9999 -9999 -9999 -9999 -9999 -9999 -9999 -9999 -9999 -9999 -9999 -9999 -9999 -9999 -9999 -9999 -9999 -9999 -9999 -9999 -9999 -9999 -9999 -9999 -9999 -9999 -9999 -9999 -9999 -9999 -9999 -9999 -9999 -9999 -9999 -9999 -9999 -9999 -9999 -9999 -9999 -9999 -9999 -9999 -9999 -9999 -9999 -9999 -9999 -9999 -9999 -9999 -9999 -9999 -9999 -9999 -9999 -9999 -9999 -9999 -9999 -9999 -9999 -9999 -9999 -9999 -9999 -9999 -9999 -9999 -9999 -9999 -9999 -9999 -9999 -9999 -9999 -9999 -9999 -9999 -9999 0.058 0.082 0.082 0.084 0.083 0.074 0.090 0.104 0.091 0.081 0.088 0.091 0.095 0.099 0.110 0.131 0.117 0.139 0.106 0.112 0.117 0.109 0.115 0.137 0.232 0.211 0.221 0.129 0.133 0.144 0.134 0.232 0.000 0.519 0.477 0.000 0.000 0.499 0.122 0.123 0.101 0.100 0.090 0.093 0.087 0.095 0.094 0.105 0.112 0.097 0.096 0.105 0.102 0.098 0.129 0.208 0.480 0.495 0.503 0.487 0.222 0.140 0.113 0.111 0.111 0.121 0.120 0.126 0.140 0.126 0.137 0.146 0.145 0.153 0.154 0.109 0.104 0.095 0.097 0.101 0.097 0.088 0.088 0.099 0.102 0.118 0.125 0.150 0.159 0.117 0.111 0.133 0.152 0.188 0.116 0.098 0.100 0.097 0.112 0.110 0.098 0.089 0.083 0.079 0.088 0.089 0.014 0.017 0.017 0.018 0.017 0.017 0.021 0.026 0.028 0.024 0.021 0.028 0.025 0.015 0.000 -9999 -9999 -9999 -9999 -9999 -9999 -9999 -9999
-9999 -9999 -9999 -9999 -9999 -9999 -9999 -9999 -9999 -9999 -9999 -9999 -9999 -9999 -9999 -9999 -9999 -9999 -9999 -9999 -9999 -9999 -9999 -9999 -9999 -9999 -9999 -9999 -9999 -9999 -9999 -9999 -9999 -9999 -9999 -9999 -9999 -9999 -9999 -9999 -9999 -9999 -9999 -9999 -9999 -9999 -9999 -9999 -9999 -9999 -9999 -9999 -9999 -9999 -9999 -9999 -9999 -9999 -9999 -9999 -9999 -9999 -9999 -9999 -9999 -9999 -9999 -9999 -9999 -9999 -9999 -9999 -9999 -9999 -9999 -9999 -9999 -9999 -9999 -9999 -9999 -9999 -9999 -9999 -9999 -9999 -9999 -9999 -9999 -9999 -9999 -9999 -9999 -9999 -9999 -9999 -9999 -9999 -9999 -9999 -9999 -9999 -9999 -9999 -9999 -9999 0.068 0.075 0.095 0.082 0.074 0.079 0.079 0.077 0.075 0.077 0.088 0.089 0.091 0.098 0.109 0.105 0.108 0.111 0.110 0.107 0.114 0.133 0.173 0.226 0.215 0.170 0.125 0.139 0.138 0.131 0.131 0.228 0.224 0.488 0.000 0.000 0.167 0.112 0.111 0.090 0.092 0.090 0.088 0.082 0.090 0.090 0.096 0.098 0.086 0.089 0.099 0.108 0.115 0.134 0.161 0.202 0.486 0.503 0.486 0.482 0.175 0.109 0.115 0.122 0.129 0.115 0.129 0.143 0.140 0.137 0.136 0.162 0.154 0.164 0.112 0.093 0.090 0.098 0.101 0.107 0.087 0.101 0.107 0.116 0.117 0.136 0.153 0.155 0.164 0.156 0.161 0.140 0.125 0.099 0.086 0.097 0.097 0.100 0.091 0.092 0.101 0.067 0.072 0.077 0.091 0.015 0.017 0.017 0.016 0.016 0.019 0.023 0.030 0.023 0.020 0.020 0.022 0.024 0.014 -9999 -9999 -9999 -9999 -9999 -9999 -9999 -9999 -9999
-9999 -9999 -9999 -9999 -9999 -9999 -9999 -9999 -9999 -9999 -9999 -9999 -9999 -9999 -9999 -9999 -9999 -9999 -9999 -9999 -9999 -9999 -9999 -9999 -9999 -9999 -9999 -9999 -9999 -9999 -9999 -9999 -9999 -9999 -9999 -9999 -9999 -9999 -9999 -9999 -9999 -9999 -9999 -9999 -9999 -9999 -9999 -9999 -9999 -9999 -9999 -9999 -9999 -9999 -9999 -9999 -9999 -9999 -9999 -9999 -9999 -9999 -9999 -9999 -9999 -9999 -9999 -9999 -9999 -9999 -9999 -9999 -9999 -9999 -9999 -9999 -9999 -9999 -9999 -9999 -9999 -9999 -9999 -9999 -9999 -9999 -9999 -9999 -9999 -9999 -9999 -9999 -9999 -9999 -9999 -9999 -9999 -9999 -9999 -9999 -9999 -9999 -9999 -9999 -9999 -9999 -9999 0.062 0.092 0.077 0.069 0.076 0.074 0.077 0.077 0.080 0.084 0.086 0.095 0.098 0.107 0.123 0.109 0.111 0.115 0.129 0.133 0.216 0.211 0.223 0.222 0.224 0.134 0.137 0.135 0.143 0.140 0.169 0.130 0.132 0.131 0.134 0.109 0.106 0.096 0.094 0.089 0.081 0.084 0.085 0.084 0.084 0.100 0.088 0.086 0.095 0.099 0.098 0.111 0.131 0.164 0.164 0.226 0.491 0.471 0.486 0.135 0.111 0.114 0.114 0.133 0.116 0.129 0.128 0.142 0.127 0.138 0.152 0.163 0.122 0.094 0.091 0.094 0.096 0.094 0.099 0.107 0.130 0.120 0.122 0.118 0.129 0.151 0.147 0.155 0.169 0.157 0.116 0.094 0.102 0.096 0.103 0.104 0.091 0.097 0.098 0.081 0.013 0.013 0.013 0.016 0.016 0.017 0.018 0.019 0.018 0.022 0.024 0.025 0.023 0.019 0.018 0.020 0.022 0.018 -9999 -9999 -9999 -9999 -9999 -9999 -9999 -9999 -9999
-9999 -9999 -9999 -9999 -9999 -9999 -9999 -9999 -9999 -9999 -9999 -9999 -9999 -9999 -9999 -9999 -9999 -9999 -9999 -9999 -9999 -9999 -9999 -9999 -9999 -9999 -9999 -9999 -9999 -9999 -9999 -9999 -9999 -9999 -9999 -9999 -9999 -9999 -9999 -9999 -9999 -9999 -9999 -9999 -9999 -9999 -9999 -9999 -9999 -9999 -9999 -9999 -9999 -9999 -9999 -9999 -9999 -9999 -9999 -9999 -9999 -9999 -9999 -9999 -9999 -9999 -9999 -9999 -9999 -9999 -9999 -9999 -9999 -9999 -9999 -9999 -9999 -9999 -9999 -9999 -9999 -9999 -9999 -9999 -9999 -9999 -9999 -9999 -9999 -9999 -9999 -9999 -9999 -9999 -9999 -9999 -9999 -9999 -9999 -9999 -9999 -9999 -9999 -9999 -9999 -9999 -9999 0.163 0.075 0.081 0.071 0.074 0.064 0.066 0.082 0.080 0.083 0.096 0.103 0.118 0.107 0.097 0.115 0.108 0.107 0.114 0.107 0.133 0.162 0.219 0.224 0.225 0.168 0.140 0.132 0.135 0.129 0.129 0.110 0.132 0.136 0.118 0.115 0.114 0.120 0.098 0.102 0.102 0.106 0.081 0.083 0.084 0.081 0.079 0.084 0.103 0.101 0.136 0.131 0.124 0.161 0.166 0.171 0.228 0.496 0.235 0.140 0.105 0.104 0.122 0.120 0.119 0.129 0.125 0.132 0.132 0.155 0.152 0.140 0.127 0.086 0.091 0.087 0.097 0.100 0.106 0.106 0.103 0.101 0.108 0.106 0.122 0.136 0.139 0.145 0.149 0.111 0.099 0.102 0.105 0.107 0.086 0.087 0.087 0.016 0.014 0.015 0.015 0.014 0.015 0.016 0.016 0.017 0.020 0.020 0.019 0.020 0.020 0.026 0.025 0.022 0.018 0.023 0.022 0.020 0.015 -9999 -9999 -9999 -9999 -9999 -9999 -9999 -9999
-9999 -9999 -9999 -9999 -9999 -9999 -9999 -9999 -9999 -9999 -9999 -9999 -9999 -9999 -9999 -9999 -9999 -9999 -9999 -9999 -9999 -9999 -9999 -9999 -9999 -9999 -9999 -9999 -9999 -9999 -9999 -9999 -9999 -9999 -9999 -9999 -9999 -9999 -9999 -9999 -9999 -9999 -9999 -9999 -9999 -9999 -9999 -9999 -9999 -9999 -9999 -9999 -9999 -9999 -9999 -9999 -9999 -9999 -9999 -9999 -9999 -9999 -9999 -9999 -9999 -9999 -9999 -9999 -9999 -9999 -9999 -9999 -9999 -9999 -9999 -9999 -9999 -9999 -9999 -9999 -9999 -9999 -9999 -9999 -9999 -9999 -9999 -9999 -9999 -9999 -9999 -9999 -9999 -9999 -9999 -9999 -9999 -9999 -9999 -9999 -9999 -9999 -9999 -9999 -9999 -9999 -9999 -9999 0.077 0.055 0.081 0.074 0.077 0.069 0.079 0.081 0.082 0.101 0.101 0.103 0.101 0.103 0.117 0.108 0.107 0.113 0.113 0.139 0.128 0.169 0.221 0.221 0.222 0.172 0.138 0.141 0.136 0.133 0.133 0.109 0.111 0.119 0.124 0.120 0.097 0.104 0.109 0.122 0.105 0.077 0.070 0.078 0.085 0.092 0.093 0.096 0.102 0.132 0.224 0.223 0.168 0.165 0.168 0.235 0.514 0.187 0.133 0.092 0.105 0.120 0.125 0.132 0.118 0.132 0.138 0.126 0.125 0.137 0.144 0.093 0.094 0.088 0.093 0.098 0.096 0.112 0.092 0.108 0.109 0.117 0.100 0.113 0.139 0.114 0.111 0.116 0.090 0.093 0.105 0.095 0.091 0.079 0.016 0.017 0.013 0.012 0.016 0.017 0.017 0.015 0.016 0.017 0.019 0.018 0.021 0.020 0.024 0.024 0.022 0.022 0.022 0.020 0.022 0.023 0.022 0.015 -9999 -9999 -9999 -9999 -9999 -9999 -9999 -9999
-9999 -9999 -9999 -9999 -9999 -9999 -9999 -9999 -9999 -9999 -9999 -9999 -9999 -9999 -9999 -9999 -9999 -9999 -9999 -9999 -9999 -9999 -9999 -9999 -9999 -9999 -9999 -9999 -9999 -9999 -9999 -9999 -9999 -9999 -9999 -9999 -9999 -9999 -9999 -9999 -9999 -9999 -9999 -9999 -9999 -9999 -9999 -9999 -9999 -9999 -9999 -9999 -9999 -9999 -9999 -9999 -9999 -9999 -9999 -9999 -9999 -9999 -9999 -9999 -9999 -9999 -9999 -9999 -9999 -9999 -9999 -9999 -9999 -9999 -9999 -9999 -9999 -9999 -9999 -9999 -9999 -9999 -9999 -9999 -9999 -9999 -9999 -9999 -9999 -9999 -9999 -9999 -9999 -9999 -9999 -9999 -9999 -9999 -9999 -9999 -9999 -9999 -9999 -9999 -9999 -9999 -9999 -9999 -9999 0.062 0.057 0.076 0.073 0.077 0.074 0.083 0.081 0.090 0.094 0.087 0.097 0.121 0.130 0.100 0.114 0.120 0.125 0.128 0.133 0.129 0.166 0.167 0.141 0.139 0.139 0.146 0.140 0.135 0.142 0.131 0.113 0.133 0.135 0.138 0.114 0.115 0.125 0.123 0.103 0.080 0.075 0.081 0.087 0.089 0.096 0.099 0.109 0.139 0.219 0.469 0.221 0.233 0.227 0.237 0.150 0.134 0.110 0.093 0.107 0.126 0.123 0.127 0.118 0.115 0.120 0.127 0.126 0.129 0.131 0.089 0.086 0.094 0.097 0.096 0.110 0.096 0.086 0.105 0.109 0.137 0.123 0.130 0.137 0.115 0.121 0.124 0.092 0.091 0.077 0.084 0.076 0.014 0.013 0.014 0.013 0.013 0.015 0.015 0.016 0.015 0.016 0.019 0.021 0.019 0.020 0.019 0.024 0.024 0.022 0.022 0.025 0.023 0.021 0.020 0.020 -9999 -9999 -9999 -9999 -9999 -9999 -9999 -9999 -9999
-9999 -9999 -9999 -9999 -9999 -9999 -9999 -9999 -9999 -9999 -9999 -9999 -9999 -9999 -9999 -9999 -9999 -9999 -9999 -9999 -9999 -9999 -9999 -9999 -9999 -9999 -9999 -9999 -9999 -9999 -9999 -9999 -9999 -9999 -9999 -9999 -9999 -9999 -9999 -9999 -9999 -9999 -9999 -9999 -9999 -9999 -9999 -9999 -9999 -9999 -9999 -9999 -9999 -9999 -9999 -9999 -9999 -9999 -9999 -9999 -9999 -9999 -9999 -9999 -9999 -9999 -9999 -9999 -9999 -9999 -9999 -9999 -9999 -9999 -9999 -9999 -9999 -9999 -9999 -9999 -9999 -9999 -9999 -9999 -9999 -9999 -9999 -9999 -9999 -9999 -9999 -9999 -9999 -9999 -9999 -9999 -9999 -9999 -9999 -9999 -9999 -9999 -9999 -9999 -9999 -9999 -9999 -9999 -9999 -9999 0.051 0.054 0.070 0.079 0.075 0.080 0.081 0.087 0.098 0.094 0.100 0.108 0.096 0.103 0.096 0.104 0.122 0.103 0.126 0.126 0.130 0.133 0.140 0.142 0.138 0.130 0.131 0.134 0.141 0.140 0.135 0.127 0.127 0.133 0.134 0.131 0.116 0.117 0.102 0.082 0.077 0.092 0.091 0.084 0.082 0.104 0.109 0.138 0.498 0.213 0.227 0.141 0.126 0.129 0.154 0.126 0.098 0.104 0.108 0.127 0.126 0.107 0.101 0.108 0.119 0.124 0.127 0.126 0.128 0.115 0.093 0.120 0.102 0.094 0.108 0.107 0.090 0.099 0.113 0.147 0.154 0.155 0.136 0.112 0.110 0.116 0.098 0.094 0.080 0.016 0.015 0.013 0.013 0.015 0.015 0.016 0.014 0.016 0.016 0.016 0.017 0.017 0.017 0.015 0.019 0.020 0.023 0.023 0.024 0.022 0.022 0.023 0.021 0.019 0.017 0.000 -9999 -9999 -9999 -9999 -9999 -9999 -9999 -9999
-9999 -9999 -9999 -9999 -9999 -9999 -9999 -9999 -9999 -9999 -9999 -9999 -9999 -9999 -9999 -9999 -9999 -9999 -9999 -9999 -9999 -9999 -9999 -9999 -9999 -9999 -9999 -9999 -9999 -9999 -9999 -9999 -9999 -9999 -9999 -9999 -9999 -9999 -9999 -9999 -9999 -9999 -9999 -9999 -9999 -9999 -9999 -9999 -9999 -9999 -9999 -9999 -9999 -9999 -9999 -9999 -9999 -9999 -9999 -9999 -9999 -9999 -9999 0.023 0.017 0.036 0.041 0.032 -9999 -9999 -9999 -9999 -9999 -9999 -9999 -9999 -9999 -9999 -9999 -9999 -9999 -9999 -9999 -9999 -9999 -9999 -9999 -9999 -9999 -9999 -9999 -9999 -9999 -9999 -9999 -9999 -9999 -9999 -9999 -9999 -9999 -9999 -9999 -9999 -9999 -9999 -9999 -9999 -9999 -9999 -9999 0.058 0.069 0.084 0.071 0.081 0.087 0.095 0.093 0.095 0.099 0.111 0.107 0.096 0.094 0.101 0.097 0.113 0.115 0.119 0.123 0.141 0.143 0.145 0.145 0.137 0.133 0.140 0.145 0.140 0.128 0.132 0.130 0.135 0.134 0.130 0.119 0.099 0.099 0.081 0.094 0.094 0.083 0.080 0.092 0.106 0.114 0.166 0.223 0.220 0.144 0.135 0.133 0.123 0.122 0.106 0.089 0.107 0.122 0.129 0.113 0.111 0.098 0.108 0.103 0.118 0.128 0.129 0.122 0.108 0.109 0.133 0.120 0.125 0.127 0.121 0.096 0.104 0.114 0.116 0.117 0.122 0.117 0.114 0.101 0.098 0.016 0.015 0.015 0.016 0.015 0.014 0.014 0.016 0.015 0.016 0.017 0.016 0.016 0.018 0.017 0.016 0.017 0.017 0.021 0.021 0.018 0.020 0.021 0.021 0.022 0.020 0.019 0.017 0.016 0.000 -9999 -9999 -9999 -9999 -9999 -9999 -9999 -9999
-9999 -9999 -9999 -9999 -9999 -9999 -9999 -9999 -9999 -9999 -9999 -9999 -9999 -9999 -9999 -9999 -9999 -9999 -9999 -9999 -9999 -9999 -9999 -9999 -9999 -9999 -9999 -9999 -9999 -9999 -9999 -9999 -9999 -9999 -9999 -9999 -9999 -9999 -9999 -9999 -9999 -9999 -9999 -9999 -9999 -9999 -9999 -9999 -9999 -9999 -9999 -9999 -9999 -9999 -9999 -9999 -9999 -9999 -9999 -9999 -9999 0.021 0.042 0.046 0.045 0.044 0.043 0.030 -9999 -9999 -9999 -9999 -9999 -9999 -9999 -9999 -9999 -9999 -9999 -9999 -9999 -9999 -9999 -9999 -9999 -9999 -9999 -9999 -9999 -9999 -9999 -9999 -9999 -9999 -9999 -9999 -9999 -9999 -9999 -9999 -9999 -9999 -9999 -9999 -9999 -9999 -9999 -9999 -9999 -9999 -9999 0.070 0.056 0.073 0.071 0.077 0.085 0.088 0.086 0.096 0.101 0.094 0.101 0.082 0.092 0.092 0.097 0.105 0.110 0.112 0.121 0.124 0.141 0.147 0.154 0.143 0.147 0.138 0.142 0.128 0.132 0.133 0.131 0.129 0.124 0.119 0.123 0.117 0.104 0.092 0.084 0.084 0.104 0.106 0.101 0.118 0.109 0.129 0.173 0.173 0.117 0.115 0.108 0.107 0.103 0.084 0.085 0.095 0.100 0.116 0.120 0.122 0.120 0.111 0.100 0.115 0.127 0.123 0.125 0.104 0.103 0.110 0.116 0.098 0.093 0.106 0.096 0.108 0.117 0.113 0.114 0.123 0.020 0.019 0.021 0.016 0.016 0.015 0.016 0.015 0.015 0.016 0.015 0.016 0.017 0.016 0.016 0.016 0.017 0.017 0.016 0.016 0.016 0.016 0.019 0.020 0.019 0.020 0.022 0.023 0.020 0.020 0.018 0.017 0.016 0.012 -9999 -9999 -9999 -9999 -9999 -9999 -9999 -9999
-9999 -9999 -9999 -9999 -9999 -9999 -9999 -9999 -9999 -9999 -9999 -9999 -9999 -9999 -9999 -9999 -9999 -9999 -9999 -9999 -9999 -9999 -9999 -9999 -9999 -9999 -9999 -9999 -9999 -9999 -9999 -9999 -9999 -9999 -9999 -9999 -9999 -9999 -9999 -9999 -9999 -9999 -9999 -9999 -9999 -9999 -9999 -9999 -9999 -9999 -9999 -9999 -9999 -9999 -9999 -9999 -9999 -9999 0.032 0.056 0.049 0.043 0.041 0.048 0.051 0.043 0.041 0.028 -9999 -9999 -9999 -9999 -9999 -9999 -9999 -9999 -9999 -9999 -9999 -9999 -9999 -9999 -9999 -9999 -9999 -9999 -9999 -9999 -9999 -9999 -9999 -9999 -9999 -9999 -9999 -9999 -9999 -9999 -9999 -9999 -9999 -9999 -9999 -9999 -9999 -9999 -9999 -9999 -9999 -9999 -9999 -9999 -9999 0.069 0.087 0.090 0.090 0.085 0.084 0.090 0.109 0.090 0.088 0.087 0.090 0.084 0.104 0.099 0.107 0.117 0.121 0.129 0.137 0.139 0.147 0.143 0.143 0.149 0.146 0.120 0.103 0.107 0.132 0.135 0.126 0.099 0.104 0.117 0.111 0.102 0.107 0.084 0.087 0.114 0.115 0.101 0.105 0.112 0.132 0.115 0.129 0.142 0.129 0.127 0.124 0.089 0.098 0.087 0.090 0.092 0.104 0.102 0.125 0.110 0.117 0.117 0.103 0.110 0.113 0.114 0.087 0.105 0.107 0.091 0.088 0.112 0.102 0.105 0.114 0.106 0.099 0.018 0.018 0.020 0.021 0.016 0.016 0.016 0.017 0.017 0.017 0.017 0.016 0.018 0.016 0.017 0.016 0.017 0.017 0.018 0.019 0.015 0.015 0.016 0.018 0.019 0.019 0.020 0.021 0.019 0.018 0.019 0.019 0.020 0.013 0.012 -9999 -9999 -9999 -9999 -9999 -9999 -9999 -9999
-9999 -9999 -9999 -9999 -9999 -9999 -9999 -9999 -9999 -9999 -9999 -9999 -9999 -9999 -9999 -9999 -9999 -9999 -9999 -9999 -9999 -9999 -9999 -9999 -9999 -9999 -9999 -9999 -9999 -9999 -9999 -9999 -9999 -9999 -9999 -9999 -9999 -9999 -9999 -9999 -9999 -9999 -9999 -9999 -9999 -9999 -9999 -9999 -9999 -9999 -9999 -9999 -9999 -9999 -9999 0.043 0.025 0.055 0.052 0.051 0.047 0.043 0.042 0.047 0.050 0.043 0.036 0.027 -9999 -9999 -9999 -9999 -9999 -9999 -9999 -9999 -9999 -9999 -9999 -9999 -9999 -9999 -9999 -9999 -9999 -9999 -9999 -9999 -9999 -9999 -9999 -9999 -9999 -9999 -9999 -9999 -9999 -9999 -9999 -9999 -9999 -9999 -9999 -9999 -9999 -9999 -9999 -9999 -9999 -9999 -9999 -9999 -9999 0.063 0.063 0.065 0.070 0.083 0.089 0.094 0.098 0.089 0.087 0.091 0.086 0.080 0.096 0.098 0.105 0.108 0.117 0.120 0.130 0.124 0.130 0.135 0.123 0.118 0.118 0.122 0.104 0.108 0.115 0.133 0.111 0.104 0.094 0.108 0.103 0.108 0.112 0.116 0.108 0.103 0.105 0.106 0.101 0.114 0.105 0.105 0.131 0.141 0.149 0.149 0.118 0.113 0.114 0.117 0.112 0.117 0.111 0.102 0.097 0.101 0.095 0.102 0.094 0.096 0.117 0.116 0.105 0.100 0.101 0.098 0.102 0.096 0.093 0.101 0.111 0.023 0.025 0.019 0.018 0.021 0.021 0.020 0.017 0.017 0.016 0.014 0.014 0.016 0.017 0.018 0.016 0.018 0.017 0.017 0.017 0.018 0.018 0.015 0.016 0.018 0.019 0.018 0.019 0.019 0.020 0.019 0.018 0.019 0.019 0.017 0.015 0.012 0.000 -9999 -9999 -9999 -9999 -9999 -9999 -9999
-9999 -9999 -9999 -9999 -9999 -9999 -9999 -9999 -9999 -9999 -9999 -9999 -9999 -9999 -9999 -9999 -9999 -9999 -9999 -9999 -9999 -9999 -9999 -9999 -9999 -9999 -9999 -9999 -9999 -9999 -9999 -9999 -9999 -9999 -9999 -9999 -9999 -9999 -9999 -9999 -9999 -9999 -9999 -9999 -9999 -9999 -9999 -9999 -9999 -9999 -9999 -9999 0.092 0.024 0.028 0.049 0.056 0.054 0.056 0.048 0.047 0.043 0.044 0.051 0.049 0.041 0.042 0.039 0.027 -9999 -9999 -9999 -9999 -9999 -9999 -9999 -9999 -9999 -9999 -9999 -9999 -9999 -9999 -9999 -9999 -9999 -9999 -9999 -9999 -9999 -9999 -9999 -9999 -9999 -9999 -9999 -9999 -9999 -9999 -9999 -9999 -9999 -9999 -9999 -9999 -9999 -9999 -9999 -9999 -9999 -9999 -9999 -9999 -9999 0.065 0.066 0.070 0.079 0.086 0.089 0.096 0.088 0.091 0.086 0.090 0.092 0.101 0.107 0.094 0.102 0.128 0.132 0.136 0.133 0.143 0.143 0.114 0.141 0.122 0.109 0.113 0.115 0.127 0.117 0.120 0.091 0.087 0.086 0.111 0.115 0.130 0.115 0.104 0.111 0.105 0.106 0.095 0.095 0.118 0.129 0.153 0.173 0.144 0.142 0.116 0.102 0.120 0.115 0.139 0.128 0.119 0.119 0.102 0.096 0.099 0.088 0.094 0.095 0.016 0.086 0.094 0.091 0.092 0.093 0.091 0.094 0.020 0.022 0.022 0.024 0.025 0.022 0.022 0.022 0.018 0.021 0.023 0.017 0.015 0.016 0.018 0.016 0.016 0.015 0.017 0.018 0.019 0.017 0.018 0.017 0.017 0.017 0.017 0.019 0.017 0.018 0.019 0.020 0.020 0.019 0.020 0.019 0.020 0.015 0.014 0.013 0.000 -9999 -9999 -9999 -9999 -9999 -9999 -9999
-9999 -9999 -9999 -9999 -9999 -9999 -9999 -9999 -9999 -9999 -9999 -9999 -9999 -9999 -9999 -9999 -9999 -9999 -9999 -9999 -9999 -9999 -9999 -9999 -9999 -9999 -9999 -9999 -9999 -9999 -9999 -9999 -9999 -9999 -9999 -9999 -9999 -9999 -9999 -9999 -9999 -9999 -9999 -9999 -9999 -9999 -9999 -9999 -9999 -9999 0.022 0.024 0.042 0.046 0.046 0.052 0.057 0.050 0.052 0.047 0.047 0.046 0.047 0.045 0.044 0.045 0.042 0.037 0.035 0.031 -9999 -9999 -9999 -9999 -9999 -9999 -9999 -9999 -9999 -9999 -9999 -9999 -9999 -9999 -9999 -9999 -9999 -9999 -9999 -9999 -9999 -9999 -9999 -9999 -9999 -9999 -9999 -9999 -9999 -9999 -9999 -9999 -9999 -9999 -9999 -9999 -9999 -9999 -9999 -9999 -9999 -9999 -9999 -9999 -9999 0.069 0.082 0.081 0.088 0.090 0.099 0.085 0.088 0.082 0.083 0.094 0.095 0.094 0.097 0.094 0.109 0.133 0.135 0.131 0.144 0.143 0.123 0.146 0.129 0.111 0.116 0.110 0.114 0.125 0.107 0.094 0.093 0.097 0.113 0.114 0.141 0.133 0.131 0.117 0.112 0.115 0.106 0.103 0.123 0.138 0.157 0.137 0.128 0.120 0.113 0.102 0.112 0.121 0.129 0.110 0.104 0.108 0.128 0.103 0.016 0.018 0.016 0.017 0.019 0.019 0.017 0.016 0.017 0.018 0.020 0.018 0.020 0.020 0.022 0.023 0.022 0.023 0.021 0.022 0.017 0.019 0.021 0.017 0.016 0.017 0.017 0.016 0.017 0.016 0.018 0.019 0.019 0.018 0.016 0.017 0.017 0.018 0.018 0.017 0.017 0.016 0.018 0.019 0.018 0.018 0.020 0.020 0.020 0.012 0.000 0.000 -9999 -9999 -9999 -9999 -9999 -9999 -9999 -9999
-9999 -9999 -9999 -9999 -9999 -9999 -9999 -9999 -9999 -9999 -9999 -9999 -9999 -9999 -9999 -9999 -9999 -9999 -9999 -9999 -9999 -9999 -9999 -9999 -9999 -9999 -9999 -9999 -9999 -9999 -9999 -9999 -9999 -9999 -9999 -9999 -9999 -9999 -9999 -9999 -9999 -9999 -9999 -9999 -9999 -9999 -9999 0.043 0.044 0.048 0.046 0.056 0.052 0.050 0.052 0.059 0.064 0.051 0.059 0.057 0.051 0.051 0.046 0.055 0.047 0.043 0.045 0.038 0.041 0.040 0.043 -9999 -9999 -9999 -9999 -9999 -9999 -9999 -9999 -9999 -9999 -9999 -9999 -9999 -9999 -9999 -9999 -9999 -9999 -9999 -9999 -9999 -9999 -9999 -9999 -9999 -9999 -9999 -9999 -9999 -9999 -9999 -9999 -9999 -9999 -9999 -9999 -9999 -9999 -9999 -9999 -9999 -9999 -9999 -9999 0.064 0.079 0.086 0.099 0.079 0.089 0.089 0.083 0.092 0.095 0.101 0.097 0.099 0.097 0.105 0.101 0.109 0.117 0.126 0.133 0.133 0.123 0.117 0.129 0.134 0.113 0.105 0.103 0.097 0.087 0.093 0.094 0.102 0.113 0.136 0.135 0.135 0.131 0.112 0.118 0.122 0.119 0.114 0.124 0.118 0.124 0.123 0.111 0.110 0.106 0.105 0.096 0.106 0.105 0.105 0.110 0.108 0.104 0.017 0.020 0.016 0.016 0.018 0.017 0.018 0.018 0.018 0.018 0.018 0.019 0.020 0.021 0.020 0.020 0.021 0.022 0.019 0.021 0.018 0.018 0.019 0.018 0.017 0.019 0.017 0.016 0.016 0.017 0.016 0.020 0.018 0.018 0.023 0.020 0.023 0.019 0.019 0.019 0.018 0.018 0.018 0.016 0.019 0.017 0.017 0.018 0.018 0.018 0.011 0.000 -9999 -9999 -9999 -9999 -9999 -9999 -9999 -9999 -9999
-9999 -9999 -9999 -9999 -9999 -9999 -9999 -9999 -9999 -9999 -9999 -9999 -9999 -9999 -9999 -9999 -9999 -9999 -9999 -9999 -9999 -9999 -9999 -9999 -9999 -9999 -9999 -9999 -9999 -9999 -9999 -9999 -9999 -9999 -9999 -9999 -9999 -9999 -9999 -9999 -9999 -9999 -9999 0.049 0.043 0.040 0.040 0.045 0.044 0.055 0.050 0.064 0.069 0.053 0.060 0.067 0.063 0.053 0.055 0.052 0.046 0.055 0.051 0.049 0.045 0.042 0.045 0.042 0.045 0.042 0.042 -9999 -9999 -9999 -9999 -9999 -9999 -9999 -9999 -9999 -9999 -9999 -9999 -9999 -9999 -9999 -9999 -9999 -9999 -9999 -9999 -9999 -9999 -9999 -9999 -9999 -9999 -9999 -9999 -9999 -9999 -9999 -9999 -9999 -9999 -9999 -9999 -9999 -9999 -9999 -9999 -9999 -9999 -9999 -9999 -9999 0.064 0.083 0.081 0.088 0.081 0.086 0.090 0.093 0.092 0.111 0.101 0.098 0.099 0.111 0.089 0.099 0.114 0.143 0.129 0.125 0.118 0.124 0.131 0.125 0.124 0.104 0.086 0.087 0.095 0.095 0.116 0.106 0.116 0.126 0.166 0.174 0.145 0.127 0.123 0.124 0.104 0.109 0.115 0.119 0.101 0.108 0.019 0.092 0.018 0.019 0.097 0.096 0.093 0.018 0.017 0.018 0.019 0.019 0.017 0.017 0.018 0.018 0.017 0.018 0.017 0.016 0.018 0.019 0.018 0.020 0.020 0.019 0.019 0.021 0.020 0.020 0.021 0.019 0.017 0.020 0.018 0.017 0.018 0.015 0.017 0.021 0.021 0.023 0.023 0.021 0.021 0.018 0.021 0.019 0.019 0.018 0.018 0.019 0.020 0.019 0.017 0.016 0.018 0.019 0.018 0.016 0.017 0.015 0.011 0.000 0.012 0.011 -9999 -9999 -9999 -9999 -9999 -9999
-9999 -9999 -9999 -9999 -9999 -9999 -9999 -9999 -9999 -9999 -9999 -9999 -9999 -9999 -9999 -9999 -9999 -9999 -9999 -9999 -9999 -9999 -9999 -9999 -9999 -9999 -9999 -9999 -9999 -9999 -9999 -9999 -9999 -9999 -9999 -9999 -9999 -9999 -9999 -9999 0.045 0.044 0.048 0.046 0.046 0.044 0.044 0.044 0.049 0.052 0.056 0.061 0.074 0.060 0.054 0.061 0.059 0.055 0.046 0.055 0.048 0.045 0.044 0.043 0.043 0.044 0.045 0.040 0.046 0.041 0.043 0.000 -9999 -9999 -9999 -9999 -9999 -9999 -9999 -9999 -9999 -9999 -9999 -9999 -9999 -9999 -9999 -9999 -9999 -9999 0.032 -9999 -9999 -9999 -9999 -9999 -9999 -9999 -9999 -9999 -9999 -9999 -9999 -9999 -9999 -9999 -9999 -9999 -9999 -9999 -9999 -9999 -9999 -9999 -9999 -9999 0.071 0.062 0.077 0.082 0.084 0.099 0.092 0.084 0.079 0.112 0.100 0.108 0.098 0.104 0.099 0.105 0.124 0.150 0.127 0.131 0.130 0.128 0.121 0.136 0.121 0.107 0.093 0.095 0.106 0.113 0.122 0.113 0.130 0.122 0.119 0.138 0.147 0.147 0.127 0.129 0.105 0.111 0.116 0.101 0.109 0.021 0.021 0.020 0.022 0.020 0.019 0.017 0.020 0.021 0.021 0.018 0.017 0.014 0.016 0.016 0.017 0.019 0.018 0.018 0.017 0.017 0.019 0.020 0.020 0.020 0.020 0.020 0.018 0.018 0.018 0.023 0.023 0.021 0.022 0.025 0.018 0.016 0.018 0.019 0.023 0.020 0.018 0.019 0.019 0.020 0.018 0.017 0.020 0.018 0.018 0.020 0.020 0.017 0.021 0.020 0.018 0.018 0.018 0.020 0.016 0.018 0.015 0.016 0.014 0.000 0.013 0.011 0.015 -9999 -9999 -9999 -9999 -9999
-9999 -9999 -9999 -9999 -9999 -9999 -9999 -9999 -9999 -9999 -9999 -9999 -9999 -9999 -9999 -9999 -9999 -9999 -9999 -9999 -9999 -9999 -9999 -9999 -9999 -9999 -9999 -9999 -9999 -9999 -9999 -9999 -9999 -9999 -9999 -9999 -9999 0.046 0.042 0.043 0.043 0.047 0.048 0.052 0.051 0.050 0.053 0.050 0.050 0.053 0.066 0.068 0.061 0.060 0.047 0.061 0.059 0.064 0.045 0.054 0.051 0.051 0.042 0.045 0.049 0.045 0.043 0.038 0.045 0.041 0.036 0.037 0.059 -9999 -9999 -9999 -9999 -9999 -9999 -9999 -9999 -9999 -9999 -9999 -9999 -9999 0.029 0.034 0.032 0.035 0.035 0.036 -9999 -9999 -9999 -9999 -9999 -9999 -9999 -9999 -9999 -9999 -9999 -9999 -9999 -9999 -9999 -9999 -9999 -9999 -9999 -9999 -9999 -9999 -9999 -9999 -9999 0.066 0.067 0.083 0.096 0.086 0.085 0.074 0.088 0.102 0.099 0.110 0.096 0.113 0.094 0.115 0.147 0.156 0.145 0.132 0.129 0.128 0.130 0.119 0.115 0.112 0.099 0.089 0.110 0.115 0.122 0.124 0.136 0.102 0.108 0.152 0.137 0.138 0.132 0.129 0.120 0.115 0.107 0.106 0.022 0.023 0.022 0.023 0.020 0.019 0.020 0.022 0.022 0.020 0.018 0.014 0.015 0.015 0.014 0.015 0.017 0.016 0.016 0.017 0.017 0.019 0.018 0.016 0.017 0.018 0.015 0.016 0.018 0.018 0.019 0.022 0.024 0.023 0.025 0.024 0.022 0.019 0.016 0.019 0.020 0.019 0.019 0.020 0.020 0.019 0.019 0.017 0.021 0.019 0.019 0.019 0.019 0.019 0.018 0.018 0.018 0.020 0.020 0.021 0.018 0.017 0.015 0.015 0.014 0.013 0.012 0.012 0.011 -9999 -9999 -9999 -9999 -9999
-9999 -9999 -9999 -9999 -9999 -9999 -9999 -9999 -9999 -9999 -9999 -9999 -9999 -9999 -9999 -9999 -9999 -9999 -9999 -9999 -9999 -9999 -9999 -9999 -9999 -9999 -9999 -9999 -9999 -9999 -9999 -9999 -9999 -9999 -9999 0.049 0.040 0.043 0.043 0.041 0.050 0.054 0.055 0.050 0.054 0.060 0.059 0.055 0.061 0.055 0.068 0.072 0.069 0.063 0.057 0.057 0.057 0.061 0.047 0.044 0.045 0.046 0.048 0.051 0.047 0.050 0.044 0.045 0.049 0.040 0.039 0.035 0.043 0.063 -9999 -9999 -9999 -9999 -9999 -9999 0.026 0.033 0.025 0.029 0.026 0.034 0.029 0.027 0.033 0.036 0.034 0.037 0.039 -9999 -9999 -9999 -9999 -9999 -9999 -9999 -9999 -9999 -9999 -9999 -9999 -9999 -9999 -9999 -9999 -9999 -9999 -9999 -9999 -9999 -9999 -9999 -9999 -9999 0.064 0.056 0.087 0.085 0.089 0.073 0.085 0.095 0.099 0.112 0.110 0.107 0.097 0.100 0.117 0.147 0.149 0.190 0.133 0.130 0.112 0.122 0.111 0.105 0.103 0.112 0.110 0.115 0.118 0.121 0.110 0.115 0.123 0.128 0.124 0.123 0.123 0.118 0.122 0.024 0.021 0.022 0.025 0.026 0.024 0.026 0.024 0.018 0.020 0.019 0.019 0.015 0.016 0.016 0.014 0.018 0.013 0.016 0.017 0.019 0.023 0.020 0.020 0.019 0.016 0.014 0.016 0.017 0.016 0.018 0.016 0.017 0.019 0.021 0.024 0.024 0.024 0.023 0.024 0.017 0.018 0.018 0.019 0.019 0.020 0.021 0.019 0.021 0.021 0.021 0.019 0.018 0.017 0.017 0.018 0.018 0.018 0.017 0.016 0.020 0.018 0.017 0.017 0.016 0.012 0.013 0.014 0.013 0.000 0.010 0.000 -9999 -9999 -9999 -9999 -9999
-9999 -9999 -9999 -9999 -9999 -9999 -9999 -9999 -9999 -9999 -9999 -9999 -9999 -9999 -9999 -9999 -9999 -9999 -9999 -9999 -9999 -9999 -9999 -9999 -9999 -9999 -9999 -9999 -9999 -9999 -9999 0.028 0.039 0.042 0.044 0.045 0.043 0.045 0.046 0.052 0.056 0.054 0.052 0.054 0.057 0.058 0.063 0.062 0.059 0.053 0.064 0.071 0.062 0.062 0.060 0.055 0.061 0.053 0.050 0.047 0.048 0.052 0.053 0.049 0.048 0.058 0.057 0.046 0.051 0.042 0.043 0.042 0.037 0.038 0.044 -9999 0.032 0.027 0.048 0.028 0.031 0.037 0.036 0.036 0.034 0.033 0.033 0.034 0.036 0.036 0.036 0.034 0.033 -9999 -9999 -9999 -9999 -9999 -9999 -9999 -9999 -9999 -9999 -9999 -9999 -9999 -9999 -9999 -9999 -9999 -9999 -9999 -9999 -9999 -9999 -9999 -9999 -9999 -9999 0.058 0.079 0.078 0.088 0.068 0.084 0.093 0.094 0.097 0.102 0.114 0.116 0.103 0.108 0.137 0.156 0.199 0.145 0.129 0.106 0.103 0.100 0.102 0.113 0.117 0.116 0.125 0.112 0.116 0.122 0.124 0.126 0.130 0.116 0.110 0.118 0.116 0.116 0.022 0.027 0.027 0.027 0.027 0.022 0.024 0.019 0.020 0.022 0.019 0.016 0.014 0.016 0.018 0.019 0.021 0.016 0.020 0.014 0.017 0.016 0.015 0.014 0.018 0.016 0.018 0.016 0.016 0.016 0.018 0.015 0.016 0.018 0.019 0.022 0.026 0.028 0.024 0.025 0.020 0.018 0.018 0.017 0.019 0.025 0.022 0.023 0.023 0.020 0.020 0.017 0.019 0.019 0.018 0.019 0.018 0.017 0.017 0.017 0.018 0.018 0.016 0.016 0.015 0.014 0.015 0.015 0.016 0.000 0.000 -9999 -9999 -9999 -9999 -9999 -9999
-9999 -9999 -9999 -9999 -9999 -9999 -9999 -9999 -9999 -9999 -9999 -9999 -9999 -9999 -9999 -9999 -9999 -9999 -9999 -9999 -9999 -9999 -9999 -9999 -9999 -9999 -9999 -9999 -9999 -9999 0.019 0.040 0.042 0.039 0.038 0.042 0.041 0.049 0.049 0.050 0.053 0.047 0.053 0.058 0.060 0.065 0.070 0.070 0.057 0.054 0.064 0.059 0.062 0.063 0.060 0.053 0.052 0.051 0.051 0.047 0.051 0.045 0.050 0.051 0.063 0.050 0.043 0.048 0.052 0.047 0.043 0.041 0.039 0.036 0.037 -9999 0.034 0.036 0.033 0.033 0.037 0.039 0.041 0.034 0.035 0.036 0.034 0.034 0.037 0.035 0.035 0.034 0.032 0.022 -9999 -9999 -9999 -9999 -9999 -9999 -9999 -9999 -9999 -9999 -9999 -9999 -9999 -9999 -9999 -9999 -9999 -9999 -9999 -9999 -9999 -9999 -9999 -9999 -9999 -9999 0.060 0.080 0.084 0.072 0.078 0.094 0.094 0.094 0.094 0.134 0.136 0.133 0.110 0.107 0.145 0.141 0.117 0.109 0.103 0.109 0.120 0.124 0.152 0.167 0.141 0.116 0.110 0.117 0.123 0.122 0.119 0.117 0.121 0.116 0.135 0.137 0.021 0.023 0.026 0.025 0.023 0.024 0.025 0.022 0.019 0.020 0.022 0.021 0.018 0.016 0.019 0.018 0.018 0.017 0.016 0.019 0.014 0.014 0.014 0.016 0.016 0.018 0.017 0.016 0.014 0.015 0.014 0.015 0.016 0.017 0.018 0.020 0.022 0.023 0.022 0.023 0.026 0.020 0.019 0.018 0.018 0.017 0.021 0.021 0.026 0.024 0.022 0.019 0.020 0.020 0.019 0.018 0.019 0.018 0.018 0.021 0.019 0.019 0.018 0.020 0.017 0.018 0.016 0.017 0.015 0.015 0.000 0.000 0.000 0.011 -9999 -9999 -9999 -9999
-9999 -9999 -9999 -9999 -9999 -9999 -9999 -9999 -9999 -9999 -9999 -9999 -9999 -9999 -9999 -9999 -9999 -9999 -9999 -9999 -9999 -9999 -9999 -9999 -9999 -9999 -9999 -9999 0.024 0.043 0.038 0.040 0.040 0.039 0.038 0.041 0.039 0.045 0.053 0.055 0.056 0.050 0.053 0.052 0.057 0.059 0.068 0.061 0.060 0.049 0.051 0.053 0.062 0.065 0.062 0.054 0.055 0.061 0.049 0.050 0.054 0.048 0.049 0.057 0.068 0.052 0.051 0.049 0.048 0.048 0.041 0.038 0.042 0.038 0.039 0.036 0.037 0.036 0.037 0.036 0.040 0.038 0.039 0.036 0.037 0.036 0.036 0.035 0.033 0.035 0.037 0.037 0.035 0.034 0.025 -9999 -9999 -9999 -9999 -9999 -9999 -9999 -9999 -9999 -9999 -9999 -9999 -9999 -9999 -9999 -9999 -9999 -9999 -9999 -9999 -9999 -9999 -9999 -9999 -9999 -9999 0.058 0.066 0.072 0.087 0.096 0.094 0.095 0.116 0.113 0.146 0.117 0.111 0.100 0.117 0.118 0.116 0.105 0.099 0.126 0.126 0.149 0.153 0.154 0.158 0.155 0.136 0.120 0.132 0.130 0.137 0.129 0.125 0.133 0.026 0.022 0.023 0.022 0.026 0.026 0.024 0.025 0.024 0.022 0.019 0.019 0.023 0.023 0.020 0.016 0.015 0.019 0.018 0.017 0.018 0.020 0.018 0.015 0.016 0.018 0.019 0.018 0.017 0.015 0.018 0.018 0.017 0.017 0.018 0.018 0.019 0.019 0.023 0.023 0.022 0.023 0.025 0.021 0.019 0.020 0.019 0.020 0.018 0.018 0.022 0.021 0.022 0.021 0.018 0.020 0.020 0.019 0.019 0.020 0.019 0.020 0.020 0.020 0.018 0.020 0.016 0.017 0.017 0.016 0.016 0.013 0.000 0.010 0.010 0.013 -9999 -9999 -9999 -9999
-9999 -9999 -9999 -9999 -9999 -9999 -9999 -9999 -9999 -9999 -9999 -9999 -9999 -9999 -9999 -9999 -9999 -9999 -9999 -9999 -9999 -9999 -9999 0.027 0.019 0.043 0.044 0.043 0.045 0.044 0.044 0.043 0.042 0.044 0.040 0.048 0.043 0.049 0.057 0.056 0.056 0.050 0.056 0.066 0.059 0.057 0.057 0.058 0.054 0.050 0.053 0.054 0.054 0.062 0.061 0.060 0.050 0.063 0.059 0.061 0.057 0.053 0.059 0.056 0.070 0.066 0.053 0.050 0.045 0.046 0.045 0.044 0.038 0.036 0.040 0.042 0.041 0.038 0.036 0.042 0.041 0.038 0.036 0.037 0.035 0.036 0.037 0.037 0.037 0.033 0.035 0.035 0.035 0.037 0.031 -9999 -9999 -9999 -9999 -9999 -9999 -9999 -9999 -9999 -9999 -9999 -9999 -9999 -9999 -9999 -9999 -9999 -9999 -9999 -9999 -9999 -9999 -9999 -9999 -9999 -9999 0.068 0.052 0.074 0.087 0.099 0.106 0.098 0.112 0.113 0.138 0.115 0.100 0.100 0.107 0.105 0.111 0.100 0.101 0.114 0.119 0.146 0.186 0.150 0.149 0.152 0.167 0.131 0.143 0.139 0.128 0.024 0.024 0.023 0.024 0.022 0.023 0.021 0.020 0.018 0.020 0.024 0.026 0.027 0.020 0.021 0.019 0.020 0.017 0.015 0.016 0.017 0.019 0.017 0.018 0.018 0.018 0.015 0.015 0.016 0.019 0.018 0.015 0.017 0.018 0.018 0.018 0.019 0.018 0.017 0.021 0.021 0.023 0.022 0.023 0.024 0.023 0.022 0.019 0.018 0.020 0.019 0.016 0.018 0.019 0.020 0.021 0.021 0.021 0.018 0.019 0.018 0.020 0.019 0.018 0.019 0.018 0.018 0.018 0.017 0.019 0.019 0.020 0.017 0.016 0.012 0.000 0.009 0.010 0.011 -9999 -9999 -9999 -9999
-9999 -9999 -9999 -9999 -9999 -9999 -9999 -9999 -9999 -9999 -9999 -9999 -9999 -9999 -9999 -9999 -9999 -9999 -9999 -9999 0.035 0.019 0.043 0.043 0.043 0.042 0.046 0.045 0.046 0.047 0.051 0.050 0.042 0.044 0.044 0.050 0.047 0.051 0.058 0.058 0.058 0.076 0.073 0.060 0.058 0.056 0.055 0.056 0.060 0.053 0.054 0.057 0.059 0.054 0.054 0.057 0.053 0.057 0.061 0.061 0.066 0.061 0.060 0.066 0.061 0.060 0.049 0.043 0.052 0.051 0.047 0.048 0.051 0.039 0.041 0.045 0.036 0.038 0.035 0.036 0.041 0.040 0.038 0.037 0.035 0.034 0.036 0.040 0.040 0.036 0.035 0.035 0.033 0.040 0.033 -9999 -9999 -9999 -9999 -9999 -9999 -9999 -9999 -9999 -9999 -9999 -9999 -9999 -9999 -9999 -9999 -9999 -9999 -9999 -9999 -9999 -9999 -9999 -9999 -9999 -9999 -9999 0.055 0.077 0.083 0.093 0.099 0.100 0.107 0.108 0.116 0.114 0.094 0.101 0.107 0.110 0.113 0.104 0.115 0.112 0.116 0.150 0.143 0.145 0.141 0.137 0.126 0.146 0.142 0.025 0.025 0.026 0.026 0.027 0.022 0.024 0.023 0.020 0.021 0.017 0.016 0.021 0.028 0.030 0.021 0.017 0.018 0.019 0.018 0.017 0.018 0.021 0.021 0.018 0.018 0.018 0.015 0.013 0.014 0.015 0.017 0.018 0.018 0.016 0.017 0.016 0.017 0.018 0.018 0.017 0.018 0.021 0.022 0.022 0.021 0.019 0.019 0.019 0.018 0.018 0.021 0.020 0.017 0.017 0.020 0.020 0.020 0.022 0.020 0.017 0.019 0.017 0.015 0.015 0.018 0.017 0.017 0.018 0.018 0.019 0.016 0.019 0.017 0.016 0.016 0.013 0.000 0.009 0.012 0.011 0.000 -9999 -9999 -9999
-9999 -9999 -9999 -9999 -9999 -9999 -9999 -9999 -9999 -9999 -9999 -9999 -9999 -9999 -9999 -9999 -9999 0.031 0.051 0.044 0.043 0.044 0.053 0.047 0.050 0.048 0.048 0.048 0.050 0.049 0.052 0.053 0.044 0.048 0.048 0.046 0.051 0.055 0.063 0.065 0.063 0.063 0.062 0.067 0.063 0.058 0.063 0.054 0.060 0.052 0.057 0.056 0.054 0.055 0.054 0.056 0.056 0.053 0.051 0.047 0.057 0.058 0.069 0.064 0.064 0.054 0.045 0.044 0.051 0.045 0.049 0.046 0.044 0.040 0.041 0.037 0.039 0.040 0.038 0.031 0.032 0.042 0.041 0.041 0.039 0.040 0.035 0.038 0.041 0.043 0.036 0.035 0.035 0.037 0.031 -9999 -9999 -9999 -9999 -9999 -9999 -9999 -9999 -9999 -9999 -9999 -9999 -9999 -9999 -9999 -9999 -9999 -9999 -9999 -9999 -9999 -9999 -9999 -9999 -9999 -9999 -9999 0.059 0.068 0.077 0.086 0.092 0.094 0.108 0.110 0.110 0.115 0.101 0.099 0.106 0.110 0.113 0.112 0.104 0.097 0.107 0.109 0.111 0.130 0.114 0.117 0.132 0.024 0.024 0.023 0.025 0.025 0.027 0.018 0.019 0.022 0.021 0.017 0.019 0.019 0.018 0.023 0.026 0.026 0.022 0.019 0.021 0.021 0.021 0.021 0.022 0.019 0.020 0.015 0.015 0.013 0.013 0.012 0.014 0.014 0.018 0.021 0.015 0.014 0.017 0.019 0.017 0.015 0.016 0.018 0.018 0.018 0.018 0.018 0.019 0.021 0.021 0.021 0.019 0.019 0.024 0.020 0.019 0.019 0.021 0.022 0.016 0.018 0.018 0.017 0.016 0.015 0.015 0.016 0.017 0.015 0.015 0.017 0.017 0.016 0.017 0.019 0.016 0.017 0.016 0.012 0.011 0.010 0.012 0.012 -9999 -9999 -9999 -9999
-9999 -9999 -9999 -9999 -9999 -9999 -9999 -9999 -9999 -9999 -9999 -9999 -9999 0.187 0.040 0.056 0.051 0.055 0.054 0.052 0.054 0.055 0.054 0.049 0.048 0.050 0.045 0.049 0.049 0.055 0.058 0.059 0.049 0.049 0.046 0.058 0.055 0.059 0.056 0.050 0.060 0.064 0.063 0.074 0.062 0.062 0.070 0.061 0.058 0.055 0.053 0.050 0.052 0.056 0.051 0.058 0.061 0.062 0.060 0.058 0.058 0.058 0.067 0.071 0.057 0.050 0.052 0.045 0.051 0.047 0.047 0.047 0.048 0.037 0.041 0.041 0.042 0.039 0.040 0.034 0.033 0.042 0.044 0.041 0.044 0.042 0.043 0.045 0.039 0.042 0.042 0.037 0.035 0.037 0.038 -9999 -9999 -9999 -9999 -9999 -9999 -9999 -9999 -9999 -9999 -9999 -9999 -9999 -9999 -9999 -9999 -9999 -9999 -9999 -9999 -9999 -9999 -9999 -9999 -9999 -9999 -9999 0.000 0.070 0.079 0.093 0.097 0.099 0.110 0.106 0.113 0.113 0.101 0.101 0.097 0.103 0.105 0.094 0.110 0.090 0.091 0.107 0.116 0.116 0.096 0.104 0.025 0.024 0.021 0.022 0.025 0.018 0.018 0.021 0.019 0.021 0.021 0.018 0.019 0.019 0.025 0.025 0.023 0.025 0.020 0.018 0.020 0.023 0.022 0.022 0.020 0.019 0.016 0.014 0.017 0.015 0.014 0.016 0.016 0.015 0.020 0.019 0.015 0.015 0.016 0.016 0.017 0.017 0.017 0.016 0.019 0.019 0.021 0.018 0.021 0.021 0.022 0.020 0.021 0.021 0.020 0.020 0.019 0.019 0.021 0.020 0.015 0.017 0.018 0.016 0.014 0.014 0.016 0.015 0.015 0.015 0.015 0.016 0.017 0.017 0.018 0.019 0.019 0.017 0.015 0.015 0.013 0.011 0.013 0.000 -9999 -9999 -9999 -9999
-9999 -9999 -9999 -9999 -9999 -9999 -9999 -9999 -9999 -9999 0.000 0.052 0.068 0.076 0.069 0.062 0.069 0.054 0.054 0.052 0.056 0.051 0.053 0.050 0.048 0.048 0.050 0.060 0.055 0.051 0.052 0.056 0.052 0.044 0.045 0.059 0.058 0.069 0.062 0.058 0.066 0.063 0.067 0.064 0.068 0.074 0.081 0.080 0.071 0.057 0.062 0.045 0.050 0.055 0.053 0.058 0.057 0.055 0.065 0.063 0.066 0.073 0.071 0.095 0.058 0.053 0.049 0.047 0.045 0.046 0.042 0.051 0.047 0.046 0.039 0.042 0.049 0.046 0.048 0.047 0.039 0.038 0.038 0.042 0.049 0.047 0.046 0.044 0.040 0.040 0.044 0.041 0.036 0.034 0.039 -9999 -9999 -9999 -9999 -9999 -9999 -9999 -9999 -9999 -9999 -9999 -9999 -9999 -9999 -9999 -9999 -9999 -9999 -9999 -9999 -9999 -9999 -9999 -9999 -9999 -9999 -9999 -9999 0.069 0.071 0.092 0.096 0.099 0.102 0.107 0.104 0.117 0.100 0.094 0.096 0.100 0.096 0.082 0.082 0.091 0.099 0.116 0.131 0.118 0.020 0.021 0.018 0.019 0.023 0.021 0.022 0.021 0.020 0.025 0.022 0.023 0.023 0.022 0.021 0.023 0.023 0.023 0.023 0.022 0.021 0.020 0.020 0.021 0.024 0.020 0.022 0.019 0.019 0.020 0.015 0.015 0.015 0.015 0.014 0.016 0.018 0.018 0.017 0.016 0.017 0.015 0.016 0.018 0.019 0.019 0.018 0.020 0.021 0.019 0.020 0.023 0.022 0.021 0.024 0.024 0.019 0.018 0.020 0.018 0.018 0.020 0.021 0.017 0.019 0.015 0.014 0.014 0.015 0.013 0.014 0.015 0.015 0.018 0.016 0.016 0.016 0.016 0.017 0.015 0.017 0.015 0.013 0.014 0.013 0.013 0.000 -9999 -9999 -9999
-9999 -9999 -9999 -9999 -9999 -9999 -9999 -9999 0.096 0.041 0.071 0.081 0.076 0.069 0.070 0.068 0.076 0.054 0.051 0.055 0.055 0.050 0.050 0.048 0.055 0.048 0.048 0.045 0.050 0.050 0.051 0.053 0.054 0.058 0.054 0.058 0.061 0.072 0.073 0.077 0.070 0.070 0.080 0.086 0.077 0.069 0.078 0.093 0.068 0.059 0.055 0.057 0.050 0.055 0.056 0.059 0.048 0.050 0.056 0.065 0.068 0.073 0.080 0.094 0.053 0.051 0.050 0.046 0.044 0.040 0.045 0.044 0.049 0.043 0.037 0.039 0.044 0.047 0.049 0.044 0.045 0.043 0.043 0.040 0.048 0.047 0.047 0.049 0.046 0.044 0.041 0.046 0.039 0.042 0.039 -9999 -9999 -9999 -9999 -9999 -9999 -9999 -9999 -9999 -9999 -9999 -9999 -9999 -9999 -9999 -9999 -9999 -9999 -9999 -9999 -9999 -9999 -9999 -9999 -9999 -9999 -9999 0.168 0.089 0.073 0.087 0.093 0.095 0.102 0.101 0.100 0.099 0.090 0.093 0.100 0.094 0.087 0.081 0.091 0.090 0.114 0.117 0.129 0.119 0.018 0.020 0.018 0.018 0.022 0.022 0.022 0.026 0.027 0.025 0.022 0.020 0.021 0.022 0.021 0.021 0.021 0.022 0.023 0.020 0.022 0.021 0.020 0.020 0.020 0.021 0.020 0.020 0.017 0.017 0.014 0.013 0.012 0.016 0.014 0.016 0.016 0.017 0.017 0.017 0.016 0.017 0.017 0.018 0.018 0.018 0.016 0.020 0.021 0.020 0.017 0.018 0.018 0.020 0.019 0.020 0.016 0.018 0.020 0.017 0.017 0.020 0.019 0.020 0.019 0.014 0.014 0.015 0.015 0.015 0.014 0.014 0.015 0.018 0.015 0.015 0.014 0.015 0.016 0.015 0.015 0.015 0.013 0.013 0.012 0.015 0.000 -9999 -9999 -9999
-9999 -9999 -9999 -9999 -9999 -9999 0.038 0.060 0.064 0.066 0.075 0.075 0.070 0.068 0.061 0.068 0.075 0.055 0.057 0.052 0.054 0.052 0.045 0.052 0.049 0.041 0.042 0.045 0.043 0.046 0.054 0.055 0.056 0.061 0.062 0.061 0.066 0.136 0.131 0.098 0.085 0.086 0.104 0.102 0.085 0.078 0.075 0.074 0.068 0.061 0.063 0.047 0.048 0.051 0.060 0.054 0.050 0.055 0.060 0.063 0.062 0.061 0.068 0.069 0.055 0.056 0.047 0.047 0.048 0.043 0.046 0.046 0.044 0.043 0.041 0.042 0.047 0.049 0.048 0.045 0.043 0.048 0.046 0.044 0.043 0.046 0.051 0.048 0.046 0.045 0.046 0.046 0.042 0.042 0.042 -9999 -9999 -9999 -9999 -9999 -9999 -9999 -9999 -9999 -9999 -9999 -9999 -9999 -9999 -9999 -9999 -9999 -9999 -9999 -9999 -9999 -9999 -9999 -9999 -9999 -9999 -9999 0.120 0.056 0.073 0.088 0.087 0.090 0.094 0.098 0.091 0.096 0.089 0.092 0.090 0.099 0.086 0.088 0.091 0.098 0.107 0.113 0.117 0.019 0.018 0.017 0.018 0.020 0.021 0.024 0.021 0.024 0.022 0.023 0.020 0.018 0.020 0.020 0.019 0.020 0.022 0.018 0.018 0.015 0.015 0.018 0.019 0.019 0.018 0.018 0.016 0.019 0.019 0.014 0.014 0.014 0.013 0.016 0.018 0.018 0.018 0.017 0.016 0.016 0.017 0.019 0.018 0.020 0.020 0.020 0.018 0.019 0.018 0.018 0.018 0.018 0.016 0.018 0.019 0.021 0.022 0.020 0.018 0.016 0.017 0.017 0.018 0.018 0.018 0.013 0.014 0.014 0.014 0.014 0.013 0.013 0.015 0.017 0.015 0.016 0.016 0.018 0.018 0.017 0.016 0.016 0.015 0.011 0.012 0.010 -9999 -9999 -9999 -9999
-9999 -9999 -9999 0.095 0.039 0.028 0.060 0.063 0.072 0.070 0.074 0.066 0.071 0.066 0.059 0.062 0.073 0.054 0.052 0.048 0.049 0.050 0.045 0.051 0.050 0.041 0.039 0.043 0.046 0.056 0.050 0.046 0.047 0.057 0.058 0.057 0.063 0.103 0.138 0.132 0.135 0.099 0.102 0.101 0.080 0.068 0.072 0.074 0.078 0.069 0.055 0.058 0.055 0.059 0.063 0.061 0.053 0.058 0.062 0.062 0.056 0.058 0.064 0.070 0.058 0.055 0.047 0.054 0.043 0.043 0.042 0.045 0.046 0.041 0.047 0.041 0.044 0.048 0.049 0.046 0.046 0.053 0.049 0.051 0.039 0.041 0.049 0.049 0.044 0.046 0.049 0.045 0.044 0.042 0.041 0.034 -9999 -9999 -9999 -9999 -9999 -9999 -9999 -9999 -9999 -9999 -9999 -9999 -9999 -9999 -9999 -9999 -9999 -9999 -9999 -9999 -9999 -9999 -9999 -9999 -9999 -9999 -9999 0.053 0.073 0.078 0.083 0.080 0.078 0.077 0.091 0.096 0.091 0.089 0.092 0.089 0.089 0.082 0.099 0.117 0.108 0.109 0.094 0.018 0.021 0.019 0.023 0.023 0.019 0.021 0.019 0.019 0.022 0.021 0.016 0.016 0.019 0.019 0.020 0.019 0.017 0.018 0.018 0.018 0.019 0.019 0.019 0.016 0.015 0.015 0.014 0.018 0.015 0.013 0.014 0.012 0.014 0.016 0.018 0.018 0.018 0.017 0.017 0.016 0.016 0.017 0.017 0.018 0.019 0.019 0.014 0.015 0.016 0.016 0.016 0.019 0.017 0.016 0.019 0.019 0.017 0.017 0.016 0.017 0.017 0.017 0.016 0.017 0.017 0.016 0.016 0.015 0.014 0.014 0.013 0.013 0.014 0.015 0.013 0.012 0.017 0.018 0.018 0.019 0.019 0.018 0.013 0.013 0.000 0.000 -9999 -9999 -9999 -9999
-9999 0.022 0.048 0.056 0.060 0.060 0.065 0.062 0.071 0.070 0.070 0.067 0.062 0.065 0.054 0.064 0.071 0.050 0.052 0.052 0.054 0.046 0.049 0.044 0.049 0.048 0.045 0.046 0.056 0.061 0.056 0.047 0.046 0.058 0.051 0.043 0.053 0.073 0.102 0.132 0.104 0.105 0.112 0.073 0.068 0.069 0.069 0.075 0.065 0.071 0.075 0.055 0.057 0.060 0.061 0.062 0.057 0.053 0.058 0.057 0.059 0.056 0.057 0.059 0.051 0.044 0.043 0.047 0.047 0.040 0.042 0.044 0.039 0.045 0.049 0.042 0.045 0.048 0.051 0.051 0.048 0.053 0.050 0.052 0.045 0.044 0.053 0.051 0.052 0.050 0.049 0.048 0.043 0.040 0.037 0.038 -9999 -9999 -9999 -9999 -9999 -9999 -9999 -9999 -9999 -9999 -9999 -9999 -9999 -9999 -9999 -9999 -9999 -9999 -9999 -9999 -9999 -9999 -9999 -9999 -9999 -9999 0.046 0.060 0.074 0.075 0.075 0.073 0.079 0.075 0.086 0.085 0.086 0.085 0.085 0.092 0.095 0.103 0.106 0.111 0.102 0.101 0.020 0.022 0.020 0.022 0.023 0.024 0.025 0.026 0.019 0.017 0.019 0.021 0.017 0.014 0.017 0.018 0.017 0.019 0.018 0.019 0.017 0.018 0.019 0.019 0.018 0.016 0.016 0.014 0.016 0.014 0.016 0.013 0.013 0.012 0.015 0.016 0.018 0.016 0.015 0.018 0.016 0.015 0.014 0.015 0.018 0.017 0.020 0.019 0.015 0.016 0.017 0.014 0.015 0.017 0.017 0.018 0.018 0.019 0.019 0.018 0.017 0.017 0.016 0.015 0.016 0.018 0.014 0.016 0.016 0.013 0.013 0.013 0.014 0.013 0.014 0.012 0.012 0.012 0.016 0.019 0.018 0.020 0.020 0.018 0.012 0.000 -9999 -9999 -9999 -9999 -9999 -9999
-9999 0.041 0.051 0.057 0.057 0.060 0.066 0.064 0.074 0.068 0.067 0.064 0.070 0.057 0.055 0.062 0.062 0.051 0.049 0.046 0.047 0.046 0.046 0.044 0.051 0.051 0.049 0.047 0.057 0.062 0.060 0.054 0.052 0.061 0.050 0.045 0.046 0.056 0.077 0.075 0.074 0.074 0.072 0.070 0.060 0.069 0.066 0.067 0.067 0.072 0.072 0.073 0.066 0.058 0.062 0.061 0.063 0.055 0.051 0.052 0.064 0.055 0.061 0.067 0.053 0.048 0.044 0.045 0.047 0.054 0.039 0.044 0.050 0.048 0.047 0.043 0.049 0.048 0.056 0.050 0.052 0.062 0.055 0.057 0.050 0.056 0.059 0.058 0.049 0.042 0.038 0.042 0.041 0.038 0.036 0.030 -9999 -9999 -9999 -9999 -9999 -9999 -9999 -9999 -9999 -9999 -9999 -9999 -9999 -9999 -9999 -9999 -9999 -9999 -9999 -9999 -9999 -9999 -9999 -9999 -9999 -9999 0.069 0.065 0.078 0.074 0.065 0.078 0.074 0.075 0.074 0.085 0.083 0.092 0.097 0.094 0.098 0.100 0.101 0.089 0.096 0.130 0.161 0.157 0.151 0.160 0.167 0.191 0.195 0.216 0.157 0.018 0.019 0.023 0.016 0.016 0.016 0.018 0.020 0.019 0.019 0.020 0.016 0.015 0.018 0.016 0.019 0.018 0.017 0.015 0.014 0.015 0.016 0.016 0.018 0.015 0.016 0.017 0.017 0.018 0.014 0.014 0.016 0.016 0.016 0.016 0.017 0.017 0.017 0.017 0.017 0.016 0.017 0.014 0.015 0.016 0.017 0.017 0.017 0.015 0.016 0.018 0.018 0.018 0.014 0.015 0.015 0.015 0.014 0.015 0.014 0.013 0.013 0.014 0.014 0.013 0.014 0.013 0.012 0.013 0.015 0.015 0.016 0.019 0.019 0.014 0.010 0.010 -9999 -9999 -9999 -9999 -9999 -9999
-9999 0.039 0.046 0.058 0.056 0.056 0.060 0.070 0.075 0.068 0.069 0.070 0.066 0.046 0.043 0.060 0.052 0.045 0.043 0.047 0.050 0.049 0.049 0.048 0.050 0.051 0.051 0.050 0.061 0.063 0.064 0.054 0.059 0.064 0.052 0.044 0.046 0.051 0.052 0.059 0.058 0.056 0.055 0.054 0.051 0.056 0.068 0.081 0.077 0.076 0.065 0.063 0.057 0.059 0.056 0.061 0.060 0.057 0.052 0.048 0.055 0.055 0.061 0.056 0.054 0.056 0.047 0.055 0.052 0.053 0.040 0.043 0.043 0.046 0.045 0.041 0.043 0.043 0.049 0.051 0.049 0.062 0.062 0.055 0.051 0.056 0.057 0.059 0.050 0.043 0.042 0.039 0.041 0.039 0.039 0.031 -9999 -9999 -9999 -9999 -9999 -9999 -9999 -9999 -9999 -9999 -9999 -9999 -9999 -9999 -9999 -9999 -9999 -9999 -9999 -9999 -9999 -9999 -9999 -9999 -9999 0.072 0.061 0.070 0.075 0.065 0.071 0.071 0.079 0.079 0.084 0.080 0.079 0.094 0.100 0.100 0.102 0.102 0.107 0.097 0.081 0.133 0.138 0.141 0.183 0.173 0.182 0.192 0.198 0.208 0.196 0.184 0.022 0.020 0.017 0.018 0.018 0.019 0.019 0.019 0.018 0.019 0.020 0.018 0.018 0.018 0.021 0.017 0.017 0.016 0.016 0.016 0.018 0.019 0.021 0.018 0.017 0.018 0.019 0.016 0.013 0.015 0.019 0.016 0.019 0.018 0.016 0.017 0.017 0.018 0.019 0.017 0.016 0.016 0.017 0.016 0.015 0.016 0.016 0.016 0.018 0.016 0.017 0.015 0.015 0.013 0.015 0.014 0.014 0.015 0.014 0.013 0.013 0.014 0.014 0.014 0.014 0.013 0.013 0.014 0.016 0.015 0.015 0.014 0.014 0.012 0.011 0.010 0.000 -9999 -9999 -9999 -9999 -9999
-9999 0.029 0.046 0.056 0.061 0.064 0.058 0.068 0.063 0.066 0.084 0.064 0.057 0.047 0.045 0.058 0.060 0.055 0.050 0.052 0.049 0.053 0.046 0.049 0.049 0.057 0.054 0.056 0.070 0.072 0.069 0.060 0.056 0.057 0.061 0.052 0.044 0.040 0.037 0.042 0.047 0.044 0.052 0.053 0.052 0.061 0.065 0.074 0.058 0.065 0.060 0.058 0.057 0.051 0.050 0.058 0.047 0.043 0.046 0.052 0.046 0.052 0.059 0.054 0.056 0.054 0.048 0.053 0.050 0.046 0.044 0.045 0.043 0.045 0.041 0.042 0.044 0.045 0.044 0.048 0.048 0.061 0.058 0.058 0.054 0.060 0.060 0.054 0.047 0.044 0.048 0.051 0.040 0.038 0.040 -9999 -9999 -9999 -9999 -9999 -9999 -9999 -9999 -9999 -9999 -9999 -9999 -9999 -9999 -9999 -9999 -9999 -9999 -9999 -9999 -9999 -9999 -9999 -9999 -9999 -9999 0.076 0.056 0.072 0.071 0.068 0.072 0.076 0.078 0.083 0.076 0.084 0.101 0.104 0.094 0.101 0.107 0.100 0.099 0.095 0.120 0.137 0.130 0.145 0.138 0.157 0.168 0.168 0.168 0.194 0.204 0.190 0.173 0.020 0.016 0.018 0.018 0.018 0.020 0.020 0.021 0.022 0.020 0.022 0.022 0.021 0.021 0.019 0.020 0.021 0.019 0.018 0.018 0.018 0.019 0.018 0.019 0.020 0.020 0.016 0.018 0.023 0.021 0.020 0.021 0.021 0.019 0.020 0.022 0.019 0.018 0.017 0.014 0.017 0.015 0.014 0.015 0.015 0.014 0.014 0.016 0.017 0.016 0.015 0.016 0.015 0.015 0.016 0.016 0.015 0.016 0.017 0.016 0.015 0.015 0.014 0.014 0.014 0.014 0.014 0.014 0.015 0.016 0.014 0.013 0.012 0.000 0.000 0.000 -9999 -9999 -9999 -9999 -9999
-9999 0.063 0.045 0.046 0.051 0.048 0.055 0.049 0.056 0.072 0.078 0.062 0.059 0.055 0.057 0.064 0.058 0.051 0.057 0.056 0.056 0.050 0.054 0.055 0.058 0.059 0.060 0.064 0.100 0.085 0.079 0.066 0.056 0.056 0.056 0.042 0.042 0.042 0.043 0.046 0.052 0.057 0.057 0.056 0.059 0.066 0.072 0.073 0.065 0.066 0.067 0.053 0.051 0.057 0.056 0.057 0.052 0.052 0.054 0.046 0.046 0.052 0.054 0.053 0.055 0.055 0.058 0.051 0.055 0.046 0.045 0.045 0.041 0.045 0.036 0.038 0.039 0.047 0.048 0.049 0.046 0.050 0.064 0.063 0.054 0.061 0.057 0.053 0.051 0.047 0.054 0.051 0.041 0.037 0.042 -9999 -9999 -9999 -9999 -9999 -9999 -9999 -9999 -9999 -9999 -9999 -9999 -9999 -9999 -9999 -9999 -9999 -9999 -9999 -9999 -9999 -9999 -9999 -9999 -9999 -9999 0.070 0.054 0.068 0.068 0.077 0.071 0.074 0.078 0.077 0.076 0.082 0.092 0.093 0.100 0.101 0.099 0.094 0.100 0.107 0.115 0.112 0.108 0.147 0.129 0.150 0.144 0.140 0.151 0.165 0.178 0.172 0.193 0.178 0.018 0.020 0.019 0.017 0.180 0.022 0.022 0.020 0.024 0.022 0.020 0.019 0.022 0.021 0.025 0.024 0.020 0.022 0.022 0.021 0.021 0.021 0.021 0.022 0.020 0.021 0.022 0.020 0.022 0.020 0.020 0.023 0.020 0.021 0.019 0.019 0.018 0.017 0.014 0.018 0.014 0.011 0.010 0.013 0.014 0.017 0.016 0.018 0.017 0.017 0.017 0.017 0.017 0.017 0.016 0.018 0.018 0.018 0.017 0.016 0.015 0.016 0.016 0.016 0.014 0.015 0.018 0.017 0.016 0.014 0.013 0.011 0.010 -9999 0.000 -9999 -9999 -9999 -9999 -9999
-9999 -9999 0.048 0.047 0.047 0.048 0.048 0.049 0.064 0.073 0.065 0.063 0.063 0.059 0.061 0.057 0.054 0.056 0.061 0.062 0.056 0.056 0.057 0.055 0.059 0.061 0.060 0.068 0.100 0.081 0.074 0.058 0.057 0.055 0.059 0.055 0.051 0.044 0.043 0.046 0.048 0.054 0.054 0.058 0.061 0.066 0.071 0.074 0.073 0.069 0.068 0.060 0.057 0.060 0.058 0.058 0.050 0.055 0.054 0.056 0.055 0.056 0.053 0.054 0.050 0.053 0.057 0.053 0.060 0.046 0.041 0.043 0.047 0.041 0.041 0.038 0.038 0.040 0.050 0.044 0.045 0.046 0.048 0.056 0.062 0.052 0.054 0.057 0.054 0.050 0.057 0.052 0.042 0.040 0.042 0.030 -9999 -9999 -9999 -9999 -9999 -9999 -9999 -9999 -9999 -9999 -9999 -9999 -9999 -9999 -9999 -9999 -9999 -9999 -9999 -9999 -9999 -9999 -9999 -9999 -9999 0.043 0.060 0.075 0.065 0.067 0.065 0.071 0.071 0.072 0.074 0.080 0.084 0.091 0.092 0.089 0.104 0.113 0.154 0.143 0.148 0.150 0.164 0.150 0.167 0.131 0.126 0.136 0.126 0.158 0.146 0.145 0.165 0.230 0.023 0.019 0.018 0.189 0.202 0.194 0.021 0.024 0.023 0.025 0.021 0.022 0.022 0.025 0.026 0.025 0.023 0.022 0.023 0.024 0.020 0.020 0.018 0.020 0.020 0.024 0.026 0.018 0.022 0.021 0.023 0.021 0.022 0.023 0.015 0.015 0.017 0.018 0.019 0.017 0.016 0.014 0.012 0.014 0.015 0.016 0.017 0.016 0.016 0.015 0.015 0.016 0.017 0.019 0.021 0.017 0.018 0.017 0.016 0.018 0.018 0.015 0.018 0.019 0.017 0.018 0.016 0.019 0.018 0.014 0.013 0.000 0.000 -9999 0.000 -9999 -9999 -9999 -9999 -9999
-9999 -9999 0.040 0.047 0.049 0.043 0.046 0.054 0.057 0.067 0.068 0.062 0.066 0.058 0.059 0.065 0.051 0.052 0.057 0.057 0.055 0.059 0.055 0.051 0.065 0.059 0.068 0.066 0.075 0.082 0.063 0.056 0.049 0.053 0.060 0.060 0.055 0.057 0.065 0.061 0.053 0.048 0.052 0.057 0.068 0.065 0.072 0.072 0.072 0.072 0.069 0.056 0.056 0.056 0.055 0.046 0.049 0.055 0.054 0.061 0.062 0.051 0.051 0.051 0.056 0.056 0.055 0.061 0.059 0.048 0.042 0.044 0.047 0.047 0.049 0.043 0.047 0.044 0.049 0.051 0.052 0.049 0.048 0.052 0.065 0.065 0.071 0.062 0.054 0.050 0.049 0.044 0.044 0.047 0.051 0.033 -9999 -9999 -9999 -9999 -9999 -9999 -9999 -9999 -9999 -9999 -9999 -9999 -9999 -9999 -9999 -9999 -9999 -9999 -9999 -9999 -9999 -9999 -9999 -9999 -9999 0.043 0.067 0.071 0.061 0.068 0.069 0.071 0.070 0.066 0.069 0.081 0.085 0.083 0.119 0.112 0.095 0.136 0.155 0.157 0.165 0.159 0.158 0.149 0.166 0.137 0.155 0.148 0.155 0.172 0.160 0.162 0.142 0.211 0.196 0.198 0.204 0.218 0.230 0.213 0.194 0.023 0.024 0.212 0.201 0.022 0.024 0.026 0.025 0.025 0.024 0.022 0.023 0.025 0.019 0.019 0.019 0.021 0.026 0.021 0.021 0.019 0.023 0.023 0.021 0.019 0.021 0.021 0.020 0.018 0.016 0.019 0.021 0.019 0.019 0.017 0.019 0.016 0.017 0.016 0.017 0.016 0.016 0.018 0.017 0.017 0.019 0.020 0.022 0.016 0.016 0.017 0.017 0.019 0.018 0.016 0.018 0.020 0.019 0.018 0.018 0.018 0.016 0.013 0.000 0.000 -9999 -9999 -9999 -9999 -9999 -9999 -9999 -9999
-9999 -9999 -9999 0.062 0.051 0.047 0.051 0.050 0.060 0.065 0.052 0.057 0.058 0.059 0.061 0.060 0.057 0.072 0.072 0.084 0.063 0.069 0.080 0.079 0.067 0.062 0.060 0.061 0.065 0.064 0.066 0.066 0.053 0.056 0.060 0.063 0.053 0.050 0.060 0.063 0.059 0.061 0.055 0.062 0.063 0.063 0.073 0.070 0.073 0.071 0.063 0.065 0.049 0.057 0.054 0.045 0.050 0.053 0.056 0.059 0.060 0.054 0.045 0.046 0.044 0.043 0.048 0.054 0.053 0.050 0.047 0.046 0.046 0.054 0.048 0.046 0.053 0.066 0.063 0.053 0.056 0.052 0.050 0.049 0.060 0.071 0.067 0.055 0.049 0.047 0.049 0.045 0.048 0.055 0.043 -9999 -9999 -9999 -9999 -9999 -9999 -9999 -9999 -9999 -9999 -9999 -9999 -9999 -9999 -9999 -9999 -9999 -9999 -9999 -9999 -9999 -9999 -9999 -9999 -9999 -9999 0.047 0.054 0.069 0.072 0.070 0.068 0.065 0.063 0.066 0.072 0.079 0.082 0.070 0.099 0.140 0.123 0.145 0.146 0.140 0.169 0.157 0.155 0.168 0.167 0.177 0.142 0.140 0.151 0.153 0.146 0.157 0.182 0.189 0.200 0.210 0.191 0.200 0.226 0.213 0.200 0.212 0.224 0.221 0.208 0.206 0.217 0.243 0.028 0.027 0.030 0.028 0.028 0.024 0.026 0.023 0.024 0.027 0.026 0.024 0.020 0.021 0.020 0.022 0.023 0.019 0.018 0.019 0.017 0.019 0.017 0.019 0.021 0.020 0.019 0.018 0.018 0.018 0.017 0.016 0.015 0.017 0.020 0.018 0.018 0.022 0.018 0.018 0.018 0.022 0.021 0.021 0.021 0.019 0.019 0.019 0.018 0.017 0.017 0.017 0.016 0.015 0.013 0.011 0.010 0.010 -9999 -9999 -9999 -9999 -9999 -9999 -9999 -9999
-9999 -9999 -9999 -9999 0.029 0.045 0.045 0.056 0.055 0.058 0.060 0.057 0.053 0.058 0.058 0.068 0.070 0.071 0.083 0.102 0.105 0.098 0.134 0.100 0.101 0.101 0.084 0.061 0.062 0.067 0.069 0.068 0.066 0.055 0.059 0.059 0.061 0.065 0.066 0.060 0.059 0.060 0.057 0.052 0.052 0.065 0.067 0.064 0.058 0.050 0.046 0.051 0.049 0.054 0.050 0.052 0.048 0.048 0.051 0.056 0.047 0.046 0.044 0.042 0.044 0.038 0.037 0.044 0.051 0.056 0.051 0.048 0.042 0.050 0.044 0.043 0.056 0.053 0.050 0.048 0.052 0.052 0.055 0.052 0.061 0.060 0.057 0.059 0.048 0.044 0.047 0.050 0.046 0.050 -9999 -9999 -9999 -9999 -9999 -9999 -9999 -9999 -9999 -9999 -9999 -9999 -9999 -9999 -9999 -9999 -9999 -9999 -9999 -9999 -9999 -9999 -9999 -9999 -9999 -9999 -9999 -9999 0.058 0.062 0.067 0.069 0.066 0.071 0.066 0.072 0.076 0.079 0.076 0.107 0.114 0.135 0.120 0.126 0.141 0.156 0.165 0.139 0.142 0.135 0.141 0.145 0.137 0.127 0.117 0.154 0.157 0.165 0.161 0.162 0.153 0.184 0.199 0.205 0.205 0.214 0.219 0.241 0.233 0.259 0.251 0.250 0.239 0.233 0.239 0.223 0.029 0.027 0.023 0.024 0.023 0.021 0.028 0.028 0.026 0.023 0.019 0.023 0.018 0.019 0.020 0.020 0.021 0.019 0.019 0.020 0.019 0.020 0.020 0.020 0.019 0.018 0.020 0.018 0.020 0.018 0.017 0.016 0.017 0.019 0.019 0.019 0.018 0.019 0.019 0.019 0.021 0.019 0.020 0.018 0.016 0.020 0.018 0.018 0.017 0.020 0.018 0.015 0.014 0.012 0.011 0.010 0.000 -9999 -9999 -9999 -9999 -9999 -9999 -9999
-9999 -9999 -9999 -9999 0.036 0.038 0.042 0.043 0.052 0.054 0.051 0.049 0.049 0.054 0.059 0.058 0.061 0.072 0.075 0.073 0.076 0.084 0.098 0.099 0.077 0.082 0.083 0.068 0.065 0.064 0.059 0.059 0.055 0.050 0.059 0.061 0.060 0.064 0.058 0.062 0.062 0.056 0.067 0.065 0.053 0.063 0.062 0.054 0.046 0.038 0.044 0.050 0.049 0.047 0.046 0.046 0.046 0.044 0.046 0.046 0.053 0.043 0.048 0.050 0.045 0.038 0.036 0.047 0.051 0.052 0.048 0.052 0.046 0.046 0.051 0.054 0.057 0.050 0.050 0.049 0.049 0.043 0.047 0.052 0.056 0.053 0.053 0.052 0.053 0.051 0.045 0.047 0.040 0.041 -9999 -9999 -9999 -9999 -9999 -9999 -9999 -9999 -9999 -9999 -9999 -9999 -9999 -9999 -9999 -9999 -9999 -9999 -9999 -9999 -9999 -9999 -9999 -9999 -9999 -9999 -9999 -9999 0.044 0.065 0.070 0.069 0.068 0.071 0.071 0.071 0.070 0.060 0.083 0.094 0.101 0.117 0.135 0.134 0.152 0.146 0.162 0.169 0.152 0.200 0.177 0.145 0.149 0.143 0.139 0.150 0.148 0.175 0.177 0.201 0.168 0.194 0.193 0.195 0.204 0.203 0.204 0.200 0.243 0.248 0.255 0.257 0.262 0.295 0.284 0.273 0.246 0.027 0.023 0.026 0.024 0.028 0.029 0.026 0.027 0.024 0.020 0.023 0.020 0.019 0.020 0.019 0.020 0.018 0.019 0.017 0.018 0.020 0.019 0.019 0.019 0.019 0.020 0.019 0.020 0.019 0.017 0.015 0.017 0.017 0.017 0.017 0.018 0.018 0.019 0.020 0.022 0.019 0.019 0.016 0.017 0.019 0.018 0.016 0.018 0.018 0.019 0.017 0.015 0.012 0.012 0.011 0.000 -9999 -9999 -9999 -9999 -9999 -9999 -9999
-9999 -9999 -9999 -9999 0.052 0.035 0.039 0.043 0.050 0.048 0.047 0.052 0.053 0.058 0.057 0.061 0.063 0.067 0.071 0.077 0.083 0.080 0.097 0.080 0.079 0.082 0.082 0.071 0.079 0.063 0.070 0.059 0.056 0.062 0.058 0.054 0.055 0.060 0.061 0.059 0.065 0.055 0.052 0.049 0.063 0.063 0.051 0.044 0.049 0.042 0.043 0.048 0.046 0.047 0.047 0.047 0.045 0.049 0.048 0.044 0.046 0.051 0.044 0.042 0.043 0.042 0.041 0.040 0.049 0.051 0.048 0.049 0.049 0.052 0.054 0.054 0.062 0.052 0.053 0.058 0.047 0.048 0.043 0.042 0.042 0.040 0.045 0.046 0.053 0.051 0.052 0.046 -9999 -9999 -9999 -9999 -9999 -9999 -9999 -9999 -9999 -9999 -9999 -9999 -9999 -9999 -9999 -9999 -9999 -9999 -9999 -9999 -9999 -9999 -9999 -9999 -9999 -9999 -9999 -9999 -9999 -9999 0.043 0.066 0.070 0.069 0.069 0.059 0.074 0.072 0.071 0.072 0.097 0.092 0.098 0.111 0.124 0.143 0.159 0.150 0.129 0.150 0.184 0.226 0.186 0.159 0.152 0.147 0.167 0.160 0.163 0.175 0.184 0.199 0.175 0.201 0.202 0.204 0.200 0.215 0.226 0.259 0.219 0.260 0.251 0.272 0.254 0.276 0.322 0.307 0.234 0.224 0.028 0.026 0.023 0.024 0.023 0.018 0.028 0.025 0.022 0.021 0.024 0.022 0.020 0.018 0.018 0.021 0.021 0.021 0.022 0.022 0.021 0.022 0.021 0.019 0.020 0.019 0.018 0.020 0.020 0.017 0.016 0.017 0.017 0.015 0.017 0.021 0.023 0.022 0.025 0.021 0.017 0.016 0.018 0.018 0.019 0.020 0.021 0.021 0.021 0.018 0.018 0.013 0.011 0.000 -9999 -9999 -9999 -9999 -9999 -9999 -9999 -9999
-9999 -9999 -9999 -9999 0.186 0.032 0.041 0.048 0.042 0.045 0.054 0.051 0.052 0.051 0.058 0.058 0.071 0.085 0.086 0.067 0.070 0.070 0.076 0.079 0.080 0.082 0.082 0.081 0.082 0.066 0.059 0.058 0.061 0.064 0.058 0.062 0.054 0.056 0.063 0.052 0.055 0.052 0.042 0.059 0.053 0.054 0.041 0.037 0.042 0.031 0.034 0.038 0.048 0.043 0.041 0.045 0.048 0.050 0.050 0.054 0.044 0.044 0.044 0.049 0.040 0.044 0.037 0.036 0.042 0.046 0.045 0.055 0.057 0.059 0.052 0.048 0.053 0.047 0.041 0.053 0.046 0.047 0.058 0.046 0.048 0.042 0.045 0.045 0.041 0.042 0.048 0.047 -9999 -9999 -9999 -9999 -9999 -9999 -9999 -9999 -9999 -9999 -9999 -9999 -9999 -9999 -9999 -9999 -9999 -9999 -9999 -9999 -9999 -9999 -9999 -9999 -9999 -9999 -9999 -9999 -9999 -9999 0.061 0.078 0.079 0.076 0.082 0.082 0.086 0.083 0.062 0.059 0.084 0.098 0.092 0.113 0.123 0.141 0.145 0.162 0.171 0.174 0.176 0.223 0.213 0.181 0.192 0.180 0.161 0.171 0.172 0.181 0.214 0.193 0.191 0.202 0.217 0.215 0.229 0.229 0.258 0.252 0.243 0.260 0.264 0.293 0.250 0.244 0.289 0.263 0.234 0.231 0.204 0.023 0.025 0.022 0.019 0.022 0.027 0.023 0.024 0.023 0.021 0.020 0.020 0.021 0.018 0.021 0.020 0.023 0.025 0.025 0.021 0.022 0.023 0.019 0.018 0.019 0.018 0.020 0.019 0.017 0.016 0.016 0.019 0.017 0.019 0.021 0.024 0.024 0.020 0.018 0.019 0.018 0.020 0.019 0.019 0.020 0.024 0.020 0.021 0.017 0.015 0.012 0.000 -9999 -9999 -9999 -9999 -9999 -9999 -9999 -9999 -9999
-9999 -9999 -9999 -9999 0.022 0.034 0.035 0.035 0.038 0.042 0.052 0.046 0.048 0.053 0.062 0.063 0.064 0.071 0.073 0.070 0.062 0.074 0.077 0.059 0.059 0.063 0.061 0.062 0.075 0.083 0.070 0.056 0.065 0.062 0.062 0.061 0.052 0.048 0.059 0.058 0.055 0.040 0.056 0.112 0.003 0.113 0.115 0.038 0.037 0.038 0.037 0.038 0.037 0.033 0.034 0.034 0.035 0.042 0.042 0.049 0.043 0.041 0.042 0.044 0.042 0.041 0.038 0.035 0.036 0.048 0.048 0.051 0.056 0.058 0.058 0.055 0.044 0.049 0.048 0.041 0.044 0.047 0.049 0.050 0.050 0.046 0.043 0.042 0.042 0.040 0.054 0.049 -9999 -9999 -9999 -9999 -9999 -9999 -9999 -9999 -9999 -9999 -9999 -9999 -9999 -9999 -9999 -9999 -9999 -9999 -9999 -9999 -9999 -9999 -9999 -9999 -9999 -9999 -9999 -9999 -9999 -9999 0.065 0.075 0.079 0.076 0.083 0.082 0.084 0.093 0.095 0.096 0.107 0.114 0.121 0.119 0.118 0.148 0.160 0.177 0.198 0.168 0.175 0.229 0.222 0.206 0.199 0.205 0.210 0.197 0.223 0.229 0.217 0.248 0.237 0.197 0.193 0.208 0.208 0.231 0.253 0.276 0.231 0.244 0.251 0.285 0.255 0.233 0.229 0.241 0.207 0.220 0.211 0.204 0.201 0.197 0.022 0.024 0.024 0.023 0.025 0.023 0.020 0.021 0.024 0.021 0.020 0.021 0.023 0.022 0.022 0.022 0.021 0.020 0.022 0.020 0.018 0.018 0.020 0.020 0.018 0.018 0.016 0.016 0.017 0.017 0.018 0.020 0.022 0.020 0.019 0.018 0.019 0.019 0.019 0.019 0.021 0.020 0.020 0.023 0.018 0.014 0.011 0.012 -9999 -9999 -9999 -9999 -9999 -9999 -9999 -9999 -9999 -9999
-9999 -9999 -9999 -9999 0.022 0.016 0.028 0.034 0.037 0.032 0.038 0.042 0.040 0.044 0.053 0.052 0.067 0.074 0.062 0.063 0.062 0.055 0.053 0.052 0.057 0.054 0.052 0.058 0.064 0.059 0.056 0.043 0.054 0.055 0.047 0.047 0.045 0.040 0.044 0.049 0.041 0.042 0.000 -9999 -9999 -9999 -9999 -9999 0.033 0.031 0.037 0.033 0.036 0.035 0.029 0.036 0.044 0.036 0.036 0.043 0.043 0.037 0.040 0.041 0.038 0.034 0.033 0.038 0.037 0.046 0.050 0.047 0.054 0.057 0.061 0.053 0.049 0.045 0.049 0.041 0.042 0.043 0.043 0.049 0.043 0.044 0.044 0.046 0.039 0.047 0.052 0.050 0.033 -9999 -9999 -9999 -9999 -9999 -9999 -9999 -9999 -9999 -9999 -9999 -9999 -9999 -9999 -9999 -9999 -9999 -9999 -9999 -9999 -9999 -9999 -9999 -9999 -9999 -9999 -9999 -9999 0.080 0.063 0.070 0.085 0.081 0.081 0.083 0.083 0.093 0.090 0.101 0.101 0.102 0.113 0.116 0.134 0.155 0.167 0.191 0.191 0.192 0.193 0.219 0.229 0.222 0.214 0.230 0.218 0.223 0.229 0.214 0.233 0.246 0.208 0.229 0.222 0.197 0.239 0.238 0.249 0.214 0.221 0.222 0.199 0.239 0.286 0.255 0.226 0.207 0.194 0.206 0.245 0.227 0.195 0.188 0.210 0.025 0.025 0.022 0.024 0.021 0.022 0.021 0.023 0.023 0.021 0.022 0.024 0.021 0.021 0.020 0.018 0.020 0.023 0.020 0.018 0.017 0.021 0.021 0.019 0.018 0.017 0.017 0.016 0.016 0.020 0.021 0.021 0.018 0.018 0.016 0.019 0.020 0.017 0.018 0.018 0.019 0.017 0.016 0.016 0.013 0.012 0.011 -9999 -9999 -9999 -9999 -9999 -9999 -9999 -9999 -9999 -9999
-9999 -9999 -9999 -9999 -9999 0.007 0.028 0.029 0.029 0.034 0.208 0.038 0.103 0.058 0.072 0.061 0.049 0.053 0.060 0.054 0.045 0.045 0.045 0.039 0.041 0.112 0.232 0.117 0.081 0.119 0.003 0.051 0.049 0.049 0.059 0.065 0.120 0.003 0.046 0.041 0.042 0.055 0.052 0.060 0.231 -9999 -9999 -9999 0.032 0.027 0.028 0.037 0.034 0.029 0.027 0.032 0.034 0.030 0.036 0.039 0.041 0.035 0.037 0.040 0.039 0.037 0.037 0.033 0.034 0.037 0.041 0.048 0.053 0.054 0.047 0.050 0.048 0.049 0.041 0.045 0.044 0.041 0.044 0.044 0.043 0.049 0.052 0.044 0.040 0.048 0.044 0.050 -9999 -9999 -9999 -9999 -9999 -9999 -9999 -9999 -9999 -9999 -9999 -9999 -9999 -9999 -9999 -9999 -9999 -9999 -9999 -9999 -9999 -9999 -9999 -9999 -9999 -9999 -9999 -9999 -9999 0.077 0.066 0.078 0.087 0.085 0.079 0.081 0.082 0.084 0.093 0.100 0.109 0.104 0.113 0.124 0.139 0.168 0.164 0.191 0.164 0.172 0.165 0.203 0.211 0.190 0.243 0.229 0.235 0.245 0.221 0.201 0.230 0.238 0.233 0.286 0.291 0.239 0.234 0.182 0.217 0.195 0.215 0.203 0.217 0.220 0.256 0.233 0.213 0.197 0.216 0.239 0.238 0.239 0.209 0.208 0.230 0.181 0.182 0.023 0.021 0.020 0.020 0.022 0.023 0.025 0.026 0.025 0.024 0.019 0.021 0.024 0.021 0.021 0.023 0.018 0.018 0.017 0.019 0.021 0.018 0.014 0.016 0.017 0.016 0.017 0.018 0.019 0.022 0.020 0.018 0.018 0.022 0.023 0.018 0.019 0.018 0.017 0.017 0.014 0.012 0.011 0.011 0.000 -9999 -9999 -9999 -9999 -9999 -9999 -9999 -9999 -9999 -9999
-9999 -9999 -9999 -9999 -9999 0.008 0.031 0.037 0.032 0.031 0.027 0.028 0.031 0.031 0.054 0.000 0.105 0.107 0.049 0.039 0.035 0.034 0.034 0.050 0.061 0.044 0.000 -9999 0.000 0.055 0.055 0.069 0.000 -9999 -9999 -9999 -9999 -9999 -9999 -9999 -9999 -9999 0.000 0.063 0.062 0.225 0.000 0.036 0.028 0.035 0.034 0.031 0.032 0.031 0.029 0.034 0.034 0.031 0.038 0.039 0.043 0.037 0.035 0.034 0.042 0.037 0.036 0.035 0.034 0.036 0.042 0.048 0.044 0.047 0.052 0.052 0.049 0.047 0.044 0.044 0.045 0.045 0.046 0.040 0.038 0.038 0.041 0.048 0.052 0.053 0.050 0.044 -9999 -9999 -9999 -9999 -9999 -9999 -9999 -9999 -9999 -9999 -9999 -9999 -9999 -9999 -9999 -9999 -9999 -9999 -9999 -9999 -9999 -9999 -9999 -9999 -9999 -9999 -9999 -9999 -9999 0.062 0.063 0.081 0.085 0.082 0.080 0.081 0.083 0.088 0.098 0.103 0.109 0.106 0.130 0.126 0.131 0.137 0.159 0.181 0.180 0.178 0.194 0.204 0.219 0.196 0.230 0.243 0.249 0.233 0.232 0.233 0.242 0.244 0.264 0.223 0.264 0.279 0.293 0.228 0.203 0.201 0.206 0.226 0.229 0.191 0.212 0.238 0.302 0.219 0.216 0.227 0.239 0.267 0.251 0.220 0.220 0.237 0.234 0.201 0.022 0.023 0.023 0.023 0.022 0.022 0.024 0.027 0.025 0.024 0.026 0.025 0.021 0.022 0.020 0.017 0.018 0.020 0.020 0.021 0.020 0.017 0.022 0.017 0.017 0.017 0.019 0.019 0.020 0.020 0.016 0.018 0.021 0.021 0.019 0.018 0.018 0.019 0.016 0.013 0.012 0.011 0.000 -9999 -9999 -9999 -9999 -9999 -9999 -9999 -9999 -9999 -9999 -9999
-9999 -9999 -9999 -9999 -9999 0.009 0.031 0.030 0.036 0.039 0.034 0.037 0.037 0.043 0.040 0.035 0.036 0.045 0.206 0.218 0.059 0.000 0.072 0.033 0.030 0.031 0.034 0.035 0.031 0.032 0.030 0.043 0.055 -9999 0.079 0.054 0.054 0.052 0.000 -9999 -9999 -9999 -9999 0.050 0.034 0.034 0.028 0.027 0.036 0.040 0.042 0.037 0.041 0.037 0.034 0.030 0.027 0.029 0.030 0.036 0.035 0.037 0.038 0.033 0.038 0.039 0.038 0.038 0.041 0.036 0.036 0.035 0.042 0.048 0.055 0.056 0.052 0.044 0.044 0.044 0.044 0.045 0.043 0.043 0.043 0.042 0.037 0.042 0.049 0.052 0.043 -9999 -9999 -9999 -9999 -9999 -9999 -9999 -9999 -9999 -9999 -9999 -9999 -9999 -9999 -9999 -9999 -9999 -9999 -9999 -9999 -9999 -9999 -9999 -9999 -9999 -9999 -9999 -9999 -9999 -9999 0.061 0.061 0.080 0.081 0.082 0.078 0.080 0.087 0.094 0.100 0.105 0.115 0.120 0.134 0.130 0.149 0.152 0.178 0.178 0.181 0.198 0.199 0.213 0.197 0.193 0.233 0.256 0.256 0.250 0.243 0.229 0.189 0.245 0.228 0.251 0.217 0.224 0.260 0.217 0.220 0.228 0.224 0.227 0.213 0.205 0.215 0.253 0.295 0.238 0.223 0.244 0.244 0.262 0.269 0.225 0.222 0.227 0.214 0.196 0.020 0.022 0.025 0.023 0.023 0.023 0.027 0.027 0.024 0.023 0.025 0.023 0.021 0.022 0.020 0.018 0.018 0.020 0.021 0.021 0.020 0.018 0.018 0.019 0.020 0.018 0.022 0.018 0.021 0.020 0.018 0.020 0.022 0.022 0.018 0.017 0.017 0.018 0.016 0.015 0.011 0.000 -9999 -9999 -9999 -9999 -9999 -9999 -9999 -9999 -9999 -9999 -9999 -9999
-9999 -9999 -9999 -9999 -9999 0.011 0.036 0.035 0.034 0.034 0.039 0.040 0.041 0.043 0.041 0.040 0.039 0.041 0.044 0.053 0.031 0.032 0.032 0.051 0.028 0.033 0.041 0.045 0.043 0.047 0.037 0.034 0.043 0.037 0.036 0.044 0.056 0.048 0.039 0.041 0.037 0.035 0.036 0.035 0.043 0.037 0.036 0.036 0.037 0.040 0.042 0.038 0.042 0.041 0.039 0.037 0.032 0.036 0.032 0.030 0.040 0.041 0.035 0.032 0.030 0.034 0.034 0.036 0.033 0.030 0.035 0.038 0.036 0.048 0.047 0.052 0.054 0.043 0.044 0.043 0.041 0.043 0.047 0.047 0.044 0.039 0.042 0.035 0.043 0.043 -9999 -9999 -9999 -9999 -9999 -9999 -9999 -9999 -9999 -9999 -9999 -9999 -9999 -9999 -9999 -9999 -9999 -9999 -9999 -9999 -9999 -9999 -9999 -9999 -9999 -9999 -9999 -9999 -9999 -9999 -9999 0.067 0.076 0.072 0.076 0.079 0.077 0.080 0.084 0.091 0.100 0.107 0.121 0.139 0.167 0.163 0.161 0.170 0.177 0.195 0.191 0.175 0.175 0.181 0.180 0.226 0.248 0.271 0.264 0.271 0.239 0.208 0.206 0.221 0.198 0.283 0.236 0.244 0.244 0.237 0.237 0.231 0.244 0.233 0.245 0.242 0.264 0.255 0.263 0.272 0.247 0.249 0.258 0.246 0.228 0.257 0.233 0.284 0.250 0.230 0.212 0.199 0.188 0.023 0.021 0.020 0.022 0.024 0.024 0.025 0.024 0.025 0.021 0.022 0.017 0.019 0.018 0.020 0.020 0.020 0.019 0.020 0.018 0.019 0.018 0.017 0.020 0.019 0.021 0.020 0.019 0.023 0.021 0.020 0.019 0.020 0.017 0.014 0.014 0.013 0.013 -9999 -9999 -9999 -9999 -9999 -9999 -9999 -9999 -9999 -9999 -9999 -9999 -9999
-9999 -9999 -9999 -9999 -9999 0.011 0.031 0.033 0.037 0.032 0.034 0.032 0.039 0.038 0.041 0.040 0.041 0.043 0.041 0.038 0.030 0.000 0.048 0.031 0.029 0.038 0.040 0.042 0.040 0.041 0.042 0.042 0.046 0.039 0.036 0.038 0.041 0.045 0.052 0.051 0.053 0.043 0.030 0.035 0.041 0.042 0.041 0.039 0.038 0.035 0.042 0.042 0.040 0.043 0.037 0.040 0.037 0.038 0.036 0.034 0.037 0.043 0.040 0.033 0.028 0.026 0.026 0.031 0.032 0.035 0.036 0.034 0.040 0.049 0.049 0.048 0.050 0.047 0.048 0.047 0.042 0.045 0.040 0.044 0.040 0.039 0.041 0.039 0.029 -9999 -9999 -9999 -9999 -9999 -9999 -9999 -9999 -9999 -9999 -9999 -9999 -9999 -9999 -9999 -9999 -9999 -9999 -9999 -9999 -9999 -9999 -9999 -9999 -9999 -9999 -9999 -9999 -9999 -9999 -9999 -9999 0.063 0.070 0.072 0.075 0.082 0.090 0.093 0.092 0.096 0.109 0.123 0.127 0.134 0.161 0.166 0.159 0.168 0.172 0.183 0.186 0.179 0.196 0.202 0.202 0.183 0.202 0.238 0.258 0.222 0.239 0.205 0.210 0.197 0.231 0.276 0.257 0.263 0.272 0.237 0.248 0.247 0.279 0.287 0.257 0.231 0.253 0.242 0.282 0.291 0.274 0.249 0.219 0.236 0.280 0.255 0.244 0.228 0.228 0.229 0.254 0.231 0.220 0.204 0.024 0.024 0.023 0.023 0.027 0.026 0.024 0.024 0.022 0.023 0.020 0.021 0.020 0.018 0.021 0.021 0.020 0.018 0.021 0.020 0.019 0.018 0.018 0.017 0.017 0.019 0.019 0.022 0.020 0.021 0.019 0.018 0.017 0.014 0.013 0.011 -9999 -9999 -9999 -9999 -9999 -9999 -9999 -9999 -9999 -9999 -9999 -9999 -9999 -9999
-9999 -9999 -9999 -9999 -9999 0.010 0.031 0.033 0.031 0.033 0.031 0.039 0.037 0.035 0.038 0.040 0.041 0.040 0.040 0.040 0.036 0.045 0.028 0.029 0.033 0.040 0.043 0.043 0.040 0.038 0.038 0.040 0.044 0.042 0.042 0.041 0.040 0.044 0.036 0.036 0.038 0.034 0.033 0.041 0.039 0.036 0.036 0.039 0.040 0.042 0.043 0.043 0.047 0.043 0.048 0.044 0.040 0.036 0.037 0.038 0.034 0.032 0.035 0.036 0.032 0.033 0.031 0.025 0.029 0.032 0.037 0.042 0.043 0.048 0.051 0.047 0.048 0.044 0.041 0.043 0.041 0.039 0.040 0.039 0.038 0.040 0.042 0.043 -9999 -9999 -9999 -9999 -9999 -9999 -9999 -9999 -9999 -9999 -9999 -9999 -9999 -9999 -9999 -9999 -9999 -9999 -9999 -9999 -9999 -9999 -9999 -9999 -9999 -9999 -9999 -9999 -9999 -9999 -9999 -9999 -9999 0.060 0.078 0.082 0.086 0.105 0.096 0.096 0.093 0.106 0.110 0.126 0.104 0.149 0.174 0.131 0.147 0.149 0.161 0.178 0.183 0.178 0.173 0.183 0.171 0.183 0.211 0.202 0.208 0.225 0.247 0.257 0.288 0.236 0.240 0.251 0.287 0.251 0.261 0.225 0.237 0.253 0.282 0.267 0.262 0.254 0.242 0.273 0.309 0.320 0.264 0.266 0.236 0.230 0.246 0.216 0.243 0.210 0.233 0.266 0.261 0.242 0.223 0.234 0.220 0.022 0.023 0.023 0.023 0.023 0.023 0.023 0.023 0.021 0.022 0.021 0.020 0.020 0.020 0.021 0.020 0.019 0.021 0.020 0.020 0.018 0.017 0.017 0.020 0.020 0.020 0.022 0.020 0.021 0.018 0.017 0.015 0.013 0.012 0.000 -9999 -9999 -9999 -9999 -9999 -9999 -9999 -9999 -9999 -9999 -9999 -9999 -9999 -9999
-9999 -9999 -9999 -9999 -9999 0.010 0.032 0.031 0.031 0.033 0.036 0.033 0.037 0.038 0.035 0.036 0.043 0.040 0.038 0.036 0.030 0.031 0.031 0.035 0.039 0.044 0.042 0.039 0.040 0.036 0.034 0.036 0.036 0.036 0.037 0.034 0.040 0.041 0.043 0.039 0.036 0.038 0.038 0.042 0.038 0.040 0.047 0.047 0.047 0.046 0.049 0.049 0.050 0.045 0.047 0.045 0.041 0.038 0.037 0.037 0.036 0.036 0.032 0.034 0.034 0.035 0.030 0.029 0.025 0.031 0.042 0.041 0.041 0.044 0.046 0.056 0.055 0.044 0.054 0.051 0.053 0.042 0.037 0.039 0.042 0.044 0.049 0.039 0.043 -9999 -9999 -9999 -9999 -9999 -9999 -9999 -9999 -9999 -9999 -9999 -9999 -9999 -9999 -9999 -9999 -9999 -9999 -9999 -9999 -9999 -9999 -9999 -9999 -9999 -9999 -9999 -9999 -9999 -9999 -9999 -9999 0.058 0.077 0.068 0.083 0.100 0.090 0.100 0.101 0.114 0.117 0.114 0.153 0.135 0.156 0.157 0.136 0.134 0.136 0.148 0.174 0.167 0.169 0.188 0.174 0.202 0.217 0.214 0.210 0.205 0.222 0.236 0.248 0.274 0.314 0.330 0.281 0.268 0.236 0.217 0.250 0.247 0.260 0.279 0.271 0.246 0.226 0.288 0.282 0.305 0.271 0.256 0.250 0.215 0.229 0.216 0.201 0.185 0.193 0.200 0.217 0.209 0.218 0.247 0.261 0.024 0.024 0.022 0.021 0.020 0.021 0.020 0.022 0.021 0.022 0.023 0.023 0.020 0.022 0.020 0.019 0.022 0.023 0.023 0.022 0.020 0.021 0.022 0.018 0.018 0.025 0.021 0.020 0.018 0.018 0.015 0.013 0.011 0.000 -9999 -9999 -9999 -9999 -9999 -9999 -9999 -9999 -9999 -9999 -9999 -9999 -9999 -9999 -9999
-9999 -9999 -9999 -9999 -9999 0.010 0.032 0.027 0.031 0.032 0.039 0.037 0.032 0.032 0.034 0.032 0.035 0.039 0.033 0.029 0.026 0.026 0.032 0.032 0.033 0.043 0.040 0.035 0.034 0.033 0.034 0.033 0.031 0.037 0.034 0.044 0.047 0.045 0.042 0.039 0.041 0.038 0.042 0.056 0.055 0.056 0.058 0.044 0.040 0.044 0.047 0.049 0.047 0.050 0.049 0.048 0.047 0.045 0.041 0.041 0.043 0.041 0.036 0.033 0.031 0.033 0.031 0.028 0.027 0.028 0.031 0.039 0.041 0.044 0.050 0.054 0.048 0.044 0.052 0.048 0.047 0.044 0.038 0.039 0.042 0.046 0.041 0.046 0.051 0.056 0.059 -9999 -9999 -9999 -9999 -9999 -9999 -9999 -9999 -9999 -9999 -9999 -9999 -9999 -9999 -9999 -9999 -9999 -9999 -9999 -9999 -9999 -9999 -9999 -9999 -9999 -9999 -9999 -9999 -9999 -9999 0.062 0.080 0.080 0.092 0.096 0.096 0.085 0.097 0.101 0.098 0.142 0.158 0.153 0.160 0.149 0.143 0.160 0.162 0.167 0.197 0.156 0.203 0.199 0.196 0.231 0.208 0.204 0.201 0.206 0.221 0.261 0.242 0.263 0.295 0.286 0.256 0.233 0.235 0.255 0.250 0.240 0.271 0.274 0.264 0.259 0.218 0.262 0.281 0.292 0.297 0.263 0.261 0.231 0.220 0.237 0.194 0.200 0.229 0.183 0.188 0.177 0.164 0.211 0.267 0.227 0.022 0.022 0.022 0.020 0.019 0.020 0.022 0.024 0.022 0.023 0.023 0.019 0.018 0.020 0.021 0.022 0.022 0.021 0.022 0.022 0.020 0.018 0.018 0.016 0.020 0.023 0.019 0.019 0.017 0.013 0.010 -9999 -9999 -9999 -9999 -9999 -9999 -9999 -9999 -9999 -9999 -9999 -9999 -9999 -9999 -9999 -9999 -9999
-9999 -9999 -9999 -9999 -9999 0.020 0.031 0.028 0.030 0.035 0.034 0.039 0.038 0.039 0.009 0.011 0.009 0.031 0.026 0.006 0.007 0.007 0.006 0.007 0.007 0.030 0.036 0.038 0.032 0.033 0.033 0.033 0.030 0.035 0.034 0.031 0.037 0.037 0.034 0.035 0.042 0.037 0.045 0.082 0.078 0.077 0.112 0.115 0.080 0.081 0.083 0.070 0.060 0.052 0.053 0.046 0.048 0.047 0.039 0.045 0.041 0.041 0.038 0.034 0.032 0.033 0.031 0.029 0.038 0.031 0.029 0.038 0.045 0.047 0.041 0.041 0.045 0.045 0.046 0.045 0.043 0.041 0.046 0.049 0.048 0.052 0.048 0.051 0.048 0.050 0.053 -9999 -9999 -9999 -9999 -9999 -9999 -9999 -9999 -9999 -9999 -9999 -9999 -9999 -9999 -9999 -9999 -9999 -9999 -9999 -9999 -9999 -9999 -9999 -9999 -9999 -9999 -9999 -9999 -9999 -9999 0.074 0.075 0.090 0.087 0.086 0.097 0.102 0.106 0.106 0.102 0.145 0.166 0.148 0.153 0.154 0.165 0.195 0.214 0.216 0.225 0.218 0.217 0.207 0.244 0.276 0.227 0.218 0.209 0.225 0.241 0.234 0.289 0.268 0.262 0.279 0.280 0.237 0.251 0.225 0.222 0.231 0.263 0.268 0.244 0.227 0.237 0.273 0.304 0.302 0.295 0.278 0.256 0.307 0.219 0.218 0.209 0.200 0.217 0.201 0.200 0.203 0.192 0.182 0.263 0.238 0.024 0.023 0.020 0.021 0.021 0.020 0.022 0.024 0.023 0.026 0.023 0.017 0.018 0.019 0.021 0.022 0.020 0.020 0.022 0.019 0.021 0.019 0.017 0.019 0.020 0.021 0.019 0.015 0.013 0.011 0.000 -9999 -9999 -9999 -9999 -9999 -9999 -9999 -9999 -9999 -9999 -9999 -9999 -9999 -9999 -9999 -9999 -9999
-9999 -9999 -9999 -9999 -9999 -9999 -9999 -9999 -9999 -9999 -9999 -9999 -9999 -9999 -9999 -9999 -9999 0.007 0.006 -9999 -9999 -9999 -9999 -9999 0.011 0.029 0.031 0.035 0.033 0.033 0.033 0.034 0.030 0.031 0.035 0.033 0.031 0.040 0.038 0.033 0.033 0.051 0.071 0.109 0.113 0.115 0.109 0.111 0.112 0.121 0.116 0.084 0.070 0.060 0.060 0.072 0.055 0.047 0.039 0.039 0.042 0.033 0.034 0.034 0.032 0.031 0.032 0.031 0.031 0.032 0.025 0.031 0.042 0.036 0.033 0.044 0.042 0.045 0.045 0.040 0.040 0.043 0.040 0.048 0.049 0.052 0.050 0.048 0.047 0.051 0.056 0.037 -9999 -9999 -9999 -9999 -9999 -9999 -9999 -9999 -9999 -9999 -9999 -9999 -9999 -9999 -9999 -9999 -9999 -9999 -9999 -9999 -9999 -9999 -9999 -9999 -9999 -9999 -9999 -9999 0.049 0.065 0.077 0.086 0.086 0.077 0.084 0.091 0.098 0.110 0.103 0.142 0.148 0.176 0.165 0.172 0.193 0.196 0.220 0.219 0.241 0.254 0.245 0.208 0.257 0.242 0.246 0.231 0.251 0.229 0.228 0.242 0.246 0.276 0.264 0.293 0.269 0.267 0.265 0.260 0.246 0.235 0.320 0.322 0.318 0.237 0.177 0.189 0.225 0.221 0.234 0.229 0.218 0.213 0.193 0.214 0.210 0.197 0.204 0.203 0.208 0.197 0.200 0.184 0.241 0.275 0.193 0.022 0.021 0.020 0.019 0.020 0.021 0.021 0.021 0.026 0.019 0.017 0.018 0.018 0.021 0.020 0.022 0.019 0.020 0.021 0.020 0.021 0.020 0.020 0.019 0.019 0.016 0.012 0.000 0.000 -9999 -9999 -9999 -9999 -9999 -9999 -9999 -9999 -9999 -9999 -9999 -9999 -9999 -9999 -9999 -9999 -9999 -9999
-9999 -9999 -9999 -9999 -9999 -9999 -9999 -9999 -9999 -9999 -9999 -9999 -9999 -9999 -9999 -9999 -9999 -9999 -9999 -9999 -9999 -9999 -9999 -9999 -9999 0.008 0.027 0.030 0.030 0.030 0.031 0.032 0.031 0.028 0.027 0.030 0.029 0.036 0.040 0.053 0.111 0.109 0.112 0.108 0.220 0.224 0.107 0.112 0.108 0.221 0.113 0.116 0.117 0.078 0.084 0.080 0.080 0.081 0.046 0.037 0.039 0.036 0.035 0.033 0.031 0.031 0.025 0.030 0.034 0.033 0.033 0.024 0.029 0.037 0.035 0.033 0.031 0.038 0.044 0.042 0.045 0.039 0.037 0.046 0.051 0.052 0.052 0.047 0.045 0.055 0.054 0.046 -9999 -9999 -9999 -9999 -9999 -9999 -9999 -9999 -9999 -9999 -9999 -9999 -9999 -9999 -9999 -9999 -9999 -9999 -9999 -9999 -9999 -9999 -9999 -9999 -9999 -9999 0.080 0.079 0.065 0.060 0.075 0.086 0.096 0.094 0.096 0.092 0.095 0.121 0.144 0.144 0.178 0.203 0.218 0.175 0.175 0.207 0.225 0.223 0.243 0.203 0.232 0.232 0.227 0.240 0.245 0.245 0.233 0.253 0.250 0.267 0.268 0.249 0.274 0.280 0.260 0.308 0.253 0.250 0.209 0.243 0.289 0.333 0.347 0.293 0.230 0.275 0.279 0.225 0.197 0.228 0.213 0.205 0.223 0.198 0.190 0.211 0.200 0.212 0.199 0.191 0.192 0.176 0.226 0.291 0.224 0.021 0.022 0.020 0.019 0.021 0.020 0.019 0.020 0.019 0.023 0.021 0.021 0.019 0.023 0.020 0.019 0.019 0.019 0.017 0.017 0.017 0.016 0.017 0.017 0.016 0.014 0.010 0.000 -9999 -9999 -9999 -9999 -9999 -9999 -9999 -9999 -9999 -9999 -9999 -9999 -9999 -9999 -9999 -9999 -9999 -9999 -9999
-9999 -9999 -9999 -9999 -9999 -9999 -9999 -9999 -9999 -9999 -9999 -9999 -9999 -9999 -9999 -9999 -9999 -9999 -9999 -9999 -9999 -9999 -9999 -9999 -9999 -9999 0.017 0.026 0.024 0.027 0.029 0.026 0.026 0.026 0.027 0.031 0.031 0.031 0.038 0.068 0.104 0.108 0.110 0.212 0.110 0.212 0.104 0.220 0.219 0.217 0.227 0.222 0.229 0.108 0.112 0.112 0.114 0.115 0.043 0.042 0.039 0.043 0.041 0.038 0.032 0.032 0.027 0.029 0.034 0.033 0.033 0.031 0.025 0.024 0.025 0.036 0.034 0.038 0.038 0.048 0.050 0.048 0.047 0.046 0.050 0.049 0.049 0.048 0.048 0.053 0.056 -9999 -9999 -9999 -9999 -9999 -9999 -9999 -9999 -9999 -9999 -9999 -9999 -9999 -9999 -9999 -9999 -9999 -9999 -9999 -9999 -9999 0.093 0.098 0.087 0.069 0.080 0.084 0.092 0.090 0.084 0.081 0.087 0.090 0.103 0.113 0.109 0.111 0.126 0.133 0.147 0.168 0.202 0.202 0.195 0.171 0.200 0.203 0.264 0.257 0.233 0.196 0.212 0.187 0.201 0.216 0.253 0.265 0.239 0.262 0.253 0.239 0.277 0.274 0.253 0.240 0.275 0.269 0.241 0.251 0.205 0.203 0.232 0.350 0.305 0.279 0.276 0.310 0.279 0.195 0.192 0.220 0.246 0.209 0.274 0.208 0.189 0.195 0.203 0.189 0.218 0.249 0.270 0.180 0.181 0.214 0.230 0.186 0.020 0.022 0.020 0.020 0.018 0.018 0.020 0.020 0.022 0.022 0.022 0.016 0.021 0.018 0.020 0.019 0.019 0.017 0.017 0.016 0.017 0.016 0.017 0.013 0.010 0.009 0.000 -9999 -9999 -9999 -9999 -9999 -9999 -9999 -9999 -9999 -9999 -9999 -9999 -9999 -9999 -9999 -9999 -9999 -9999 -9999
-9999 -9999 -9999 -9999 -9999 -9999 -9999 -9999 -9999 -9999 -9999 -9999 -9999 -9999 -9999 -9999 -9999 -9999 -9999 -9999 -9999 -9999 -9999 -9999 -9999 -9999 -9999 -9999 0.008 0.005 0.005 0.023 0.022 0.022 0.023 0.025 0.026 0.026 0.032 0.035 0.055 0.071 0.107 0.104 0.104 0.206 0.211 0.213 0.221 0.229 0.211 0.216 0.216 0.216 0.218 0.220 0.114 0.115 0.042 0.036 0.036 0.042 0.037 0.039 0.036 0.033 0.032 0.033 0.034 0.036 0.042 0.038 0.033 0.029 0.025 0.039 0.042 0.039 0.039 0.048 0.051 0.060 0.057 0.057 0.044 0.052 0.049 0.051 0.051 0.054 0.054 -9999 -9999 -9999 -9999 -9999 -9999 -9999 -9999 -9999 -9999 -9999 -9999 -9999 -9999 -9999 -9999 -9999 -9999 -9999 -9999 0.100 0.104 0.103 0.088 0.078 0.092 0.089 0.088 0.089 0.086 0.086 0.092 0.092 0.104 0.112 0.114 0.117 0.122 0.135 0.151 0.135 0.181 0.209 0.183 0.197 0.210 0.201 0.198 0.201 0.199 0.210 0.232 0.192 0.198 0.217 0.219 0.255 0.233 0.244 0.254 0.263 0.308 0.283 0.228 0.247 0.242 0.254 0.238 0.208 0.241 0.230 0.200 0.299 0.278 0.273 0.269 0.255 0.265 0.190 0.184 0.200 0.210 0.208 0.197 0.165 0.185 0.192 0.200 0.264 0.276 0.292 0.280 0.213 0.210 0.231 0.239 0.233 0.020 0.020 0.019 0.019 0.017 0.020 0.018 0.019 0.020 0.020 0.020 0.018 0.018 0.021 0.019 0.017 0.017 0.018 0.019 0.017 0.016 0.014 0.015 0.011 0.009 0.000 -9999 -9999 -9999 -9999 -9999 -9999 -9999 -9999 -9999 -9999 -9999 -9999 -9999 -9999 -9999 -9999 -9999 -9999 -9999 -9999
-9999 -9999 -9999 -9999 -9999 -9999 -9999 -9999 -9999 -9999 -9999 -9999 -9999 -9999 -9999 -9999 -9999 -9999 -9999 -9999 -9999 -9999 -9999 -9999 -9999 -9999 -9999 -9999 -9999 -9999 -9999 -9999 -9999 0.005 0.022 0.021 0.023 0.023 0.026 0.030 0.047 0.057 0.068 0.101 0.101 0.216 0.202 0.206 0.206 0.212 0.219 0.211 0.210 0.214 0.217 0.219 0.110 0.112 0.039 0.039 0.039 0.037 0.045 0.039 0.036 0.041 0.035 0.031 0.032 0.040 0.043 0.042 0.040 0.039 0.029 0.036 0.047 0.045 0.047 0.052 0.054 0.053 0.061 0.054 0.061 0.052 0.049 0.053 0.052 0.051 0.056 0.051 -9999 -9999 -9999 -9999 -9999 -9999 -9999 -9999 -9999 -9999 -9999 -9999 -9999 -9999 -9999 -9999 -9999 -9999 0.107 0.104 0.107 0.100 0.090 0.089 0.088 0.086 0.088 0.089 0.089 0.093 0.095 0.099 0.113 0.125 0.119 0.132 0.143 0.144 0.151 0.153 0.160 0.170 0.197 0.187 0.230 0.219 0.195 0.209 0.274 0.207 0.196 0.185 0.175 0.236 0.260 0.241 0.255 0.204 0.259 0.292 0.263 0.296 0.253 0.258 0.266 0.275 0.247 0.257 0.200 0.188 0.189 0.211 0.307 0.283 0.273 0.289 0.211 0.188 0.202 0.212 0.202 0.185 0.187 0.171 0.160 0.181 0.216 0.263 0.196 0.191 0.270 0.236 0.225 0.230 0.217 0.233 0.019 0.019 0.018 0.019 0.018 0.018 0.019 0.021 0.019 0.021 0.020 0.019 0.019 0.024 0.021 0.019 0.018 0.022 0.021 0.017 0.012 0.013 0.013 0.009 0.009 0.000 -9999 -9999 -9999 -9999 -9999 -9999 -9999 -9999 -9999 -9999 -9999 -9999 -9999 -9999 -9999 -9999 -9999 -9999 -9999 -9999
-9999 -9999 -9999 -9999 -9999 -9999 -9999 -9999 -9999 -9999 -9999 -9999 -9999 -9999 -9999 -9999 -9999 -9999 -9999 -9999 -9999 -9999 -9999 -9999 -9999 -9999 -9999 -9999 -9999 -9999 -9999 -9999 -9999 -9999 -9999 0.021 0.020 0.022 0.026 0.024 0.046 0.046 0.056 0.065 0.102 0.202 0.103 0.203 0.104 0.211 0.210 0.105 0.209 0.202 0.202 0.107 0.108 0.078 0.049 0.040 0.039 0.036 0.041 0.044 0.041 0.042 0.038 0.035 0.035 0.040 0.036 0.036 0.036 0.042 0.039 0.032 0.042 0.049 0.048 0.052 0.058 0.058 0.057 0.057 0.066 0.066 0.065 0.055 0.052 0.053 0.055 0.060 0.057 0.069 -9999 -9999 -9999 -9999 -9999 -9999 -9999 -9999 -9999 -9999 -9999 -9999 -9999 -9999 -9999 -9999 0.112 0.118 0.107 0.092 0.097 0.098 0.094 0.102 0.096 0.092 0.092 0.102 0.111 0.104 0.105 0.105 0.107 0.127 0.144 0.129 0.165 0.183 0.216 0.169 0.201 0.207 0.172 0.226 0.248 0.254 0.225 0.254 0.210 0.199 0.204 0.264 0.249 0.247 0.222 0.245 0.252 0.283 0.272 0.269 0.268 0.261 0.255 0.209 0.220 0.225 0.192 0.237 0.210 0.192 0.214 0.217 0.249 0.177 0.175 0.189 0.200 0.199 0.191 0.188 0.195 0.171 0.171 0.192 0.171 0.171 0.223 0.186 0.267 0.269 0.226 0.211 0.205 0.192 0.018 0.019 0.020 0.017 0.018 0.021 0.020 0.020 0.019 0.019 0.020 0.019 0.019 0.020 0.018 0.017 0.018 0.018 0.018 0.015 0.000 0.011 0.010 0.010 0.000 -9999 -9999 -9999 -9999 -9999 -9999 -9999 -9999 -9999 -9999 -9999 -9999 -9999 -9999 -9999 -9999 -9999 -9999 -9999 -9999 -9999
-9999 -9999 -9999 -9999 -9999 -9999 -9999 -9999 -9999 -9999 -9999 -9999 -9999 -9999 -9999 -9999 -9999 -9999 -9999 -9999 -9999 -9999 -9999 -9999 -9999 -9999 -9999 -9999 -9999 -9999 -9999 -9999 -9999 -9999 -9999 0.007 0.021 0.018 0.021 0.024 0.028 0.034 0.047 0.056 0.103 0.106 0.106 0.107 0.103 0.106 0.103 0.109 0.105 0.200 0.206 0.103 0.105 0.060 0.036 0.036 0.038 0.034 0.041 0.041 0.045 0.044 0.043 0.042 0.045 0.045 0.039 0.036 0.037 0.044 0.041 0.031 0.035 0.048 0.052 0.054 0.055 0.061 0.058 0.053 0.058 0.058 0.063 0.057 0.059 0.053 0.053 0.068 0.069 0.066 0.052 -9999 -9999 -9999 -9999 -9999 -9999 -9999 -9999 -9999 -9999 -9999 -9999 -9999 -9999 0.100 0.128 0.114 0.109 0.115 0.122 0.107 0.105 0.098 0.105 0.102 0.098 0.101 0.103 0.119 0.128 0.107 0.114 0.144 0.133 0.148 0.162 0.202 0.163 0.164 0.201 0.215 0.205 0.202 0.208 0.250 0.255 0.208 0.235 0.262 0.240 0.258 0.269 0.263 0.235 0.241 0.279 0.273 0.271 0.248 0.220 0.216 0.223 0.224 0.223 0.209 0.213 0.222 0.192 0.284 0.245 0.197 0.169 0.173 0.180 0.190 0.192 0.184 0.233 0.190 0.219 0.229 0.280 0.214 0.228 0.183 0.215 0.242 0.253 0.278 0.242 0.225 0.201 0.176 0.018 0.018 0.021 0.018 0.019 0.021 0.020 0.024 0.024 0.023 0.027 0.024 0.018 0.018 0.016 0.017 0.018 0.014 0.015 0.011 0.000 0.010 0.010 -9999 -9999 -9999 -9999 -9999 -9999 -9999 -9999 -9999 -9999 -9999 -9999 -9999 -9999 -9999 -9999 -9999 -9999 -9999 -9999 -9999 -9999 -9999
-9999 -9999 -9999 -9999 -9999 -9999 -9999 -9999 -9999 -9999 -9999 -9999 -9999 -9999 -9999 -9999 -9999 -9999 -9999 -9999 -9999 -9999 -9999 -9999 -9999 -9999 -9999 -9999 -9999 -9999 -9999 -9999 -9999 -9999 -9999 -9999 -9999 0.005 0.018 0.021 0.023 0.022 0.030 0.031 0.054 0.066 0.068 0.066 0.065 0.067 0.069 0.103 0.108 0.105 0.109 0.105 0.050 0.035 0.040 0.035 0.040 0.038 0.037 0.040 0.041 0.035 0.042 0.039 0.044 0.045 0.032 0.030 0.039 0.047 0.046 0.037 0.034 0.038 0.050 0.049 0.057 0.060 0.061 0.059 0.060 0.059 0.059 0.059 0.057 0.059 0.063 0.068 0.072 0.076 0.069 -9999 -9999 -9999 -9999 -9999 -9999 -9999 -9999 -9999 -9999 -9999 -9999 -9999 -9999 0.094 0.113 0.134 0.133 0.125 0.128 0.124 0.118 0.108 0.102 0.102 0.108 0.109 0.104 0.126 0.134 0.113 0.112 0.138 0.149 0.171 0.166 0.195 0.174 0.178 0.182 0.196 0.198 0.213 0.232 0.231 0.261 0.212 0.198 0.219 0.215 0.233 0.251 0.263 0.220 0.274 0.257 0.241 0.245 0.212 0.210 0.218 0.223 0.213 0.207 0.216 0.216 0.174 0.212 0.195 0.198 0.182 0.173 0.172 0.254 0.226 0.227 0.272 0.178 0.208 0.326 0.276 0.248 0.253 0.247 0.210 0.197 0.236 0.243 0.276 0.264 0.253 0.235 0.192 0.020 0.017 0.019 0.019 0.020 0.020 0.021 0.025 0.025 0.026 0.022 0.025 0.020 0.018 0.016 0.016 0.017 0.013 0.000 0.000 0.000 -9999 -9999 -9999 -9999 -9999 -9999 -9999 -9999 -9999 -9999 -9999 -9999 -9999 -9999 -9999 -9999 -9999 -9999 -9999 -9999 -9999 -9999 -9999 -9999 -9999
-9999 -9999 -9999 -9999 -9999 -9999 -9999 -9999 -9999 -9999 -9999 -9999 -9999 -9999 -9999 -9999 -9999 -9999 -9999 -9999 -9999 -9999 -9999 -9999 -9999 -9999 -9999 -9999 -9999 -9999 -9999 -9999 -9999 -9999 -9999 -9999 -9999 0.005 0.021 0.023 0.027 0.026 0.030 0.007 0.016 0.019 0.050 0.050 0.042 0.043 0.070 0.072 0.105 0.104 0.105 0.048 0.038 0.037 0.038 0.039 0.039 0.041 0.036 0.033 0.034 0.034 0.035 0.035 0.040 0.044 0.041 0.040 0.032 0.034 0.037 0.035 0.043 0.039 0.035 0.046 0.053 0.061 0.064 0.074 0.075 0.077 0.056 0.054 0.052 0.048 0.052 0.060 0.062 0.064 0.072 0.065 -9999 -9999 -9999 -9999 -9999 -9999 -9999 -9999 -9999 -9999 -9999 -9999 -9999 0.084 0.096 0.107 0.139 0.134 0.101 0.118 0.121 0.110 0.112 0.115 0.108 0.116 0.121 0.129 0.128 0.131 0.148 0.157 0.169 0.186 0.201 0.215 0.209 0.213 0.219 0.234 0.215 0.213 0.201 0.219 0.168 0.178 0.195 0.243 0.235 0.211 0.196 0.239 0.224 0.229 0.256 0.279 0.309 0.234 0.210 0.215 0.200 0.220 0.193 0.205 0.212 0.193 0.196 0.185 0.235 0.278 0.196 0.248 0.268 0.267 0.269 0.228 0.188 0.276 0.273 0.278 0.239 0.230 0.222 0.189 0.198 0.203 0.231 0.230 0.242 0.270 0.211 0.185 0.195 0.021 0.019 0.018 0.018 0.020 0.020 0.023 0.027 0.025 0.019 0.022 0.020 0.016 0.014 0.015 0.014 0.012 0.010 0.011 0.010 0.000 -9999 -9999 -9999 -9999 -9999 -9999 -9999 -9999 -9999 -9999 -9999 -9999 -9999 -9999 -9999 -9999 -9999 -9999 -9999 -9999 -9999 -9999 -9999 -9999
-9999 -9999 -9999 -9999 -9999 -9999 -9999 -9999 -9999 -9999 -9999 -9999 -9999 -9999 -9999 -9999 -9999 -9999 -9999 -9999 -9999 -9999 -9999 -9999 -9999 -9999 -9999 -9999 -9999 -9999 -9999 -9999 -9999 -9999 -9999 -9999 -9999 -9999 -9999 0.000 0.053 0.024 0.025 0.055 0.106 0.000 0.109 0.027 0.017 0.043 0.059 0.068 0.107 0.108 0.110 0.043 0.036 0.040 0.039 0.039 0.040 0.042 0.038 0.031 0.032 0.036 0.033 0.033 0.036 0.041 0.043 0.040 0.187 0.210 0.249 0.232 0.227 0.237 0.235 0.041 0.048 0.056 0.061 0.071 0.078 0.080 0.062 0.063 0.057 0.072 0.081 0.058 0.063 0.070 0.078 0.075 0.059 -9999 -9999 -9999 -9999 -9999 -9999 -9999 -9999 -9999 -9999 -9999 -9999 0.089 0.102 0.107 0.098 0.119 0.106 0.106 0.110 0.109 0.094 0.092 0.104 0.111 0.112 0.134 0.138 0.157 0.148 0.177 0.178 0.191 0.207 0.213 0.225 0.236 0.295 0.248 0.260 0.219 0.238 0.210 0.187 0.204 0.222 0.201 0.230 0.241 0.214 0.243 0.222 0.239 0.250 0.273 0.257 0.255 0.248 0.250 0.219 0.206 0.184 0.210 0.208 0.205 0.186 0.181 0.279 0.279 0.274 0.230 0.236 0.289 0.280 0.276 0.265 0.219 0.253 0.277 0.241 0.236 0.221 0.207 0.165 0.181 0.200 0.234 0.270 0.251 0.200 0.189 0.215 0.017 0.019 0.020 0.021 0.019 0.019 0.021 0.023 0.025 0.019 0.017 0.019 0.015 0.015 0.016 0.013 0.014 0.010 0.011 0.009 0.000 -9999 -9999 -9999 -9999 -9999 -9999 -9999 -9999 -9999 -9999 -9999 -9999 -9999 -9999 -9999 -9999 -9999 -9999 -9999 -9999 -9999 -9999 -9999 -9999
-9999 -9999 -9999 -9999 -9999 -9999 -9999 -9999 -9999 -9999 -9999 -9999 -9999 -9999 -9999 -9999 -9999 -9999 -9999 -9999 -9999 -9999 -9999 -9999 -9999 -9999 -9999 -9999 -9999 -9999 -9999 -9999 -9999 -9999 -9999 -9999 -9999 -9999 -9999 -9999 -9999 -9999 -9999 -9999 -9999 -9999 -9999 -9999 0.000 0.109 0.062 0.069 0.070 0.075 0.078 0.039 0.036 0.038 0.040 0.051 0.049 0.041 0.043 0.038 0.034 0.032 0.036 0.032 0.032 0.033 0.037 0.227 0.227 0.229 0.281 0.319 0.265 0.282 0.247 0.247 0.044 0.048 0.060 0.064 0.070 0.064 0.063 0.064 0.070 0.057 0.061 0.064 0.059 0.059 0.062 0.067 0.067 0.067 0.074 -9999 -9999 -9999 -9999 -9999 -9999 -9999 -9999 -9999 0.091 0.100 0.113 0.096 0.088 0.114 0.129 0.125 0.119 0.112 0.081 0.081 0.097 0.114 0.119 0.143 0.145 0.138 0.144 0.164 0.183 0.178 0.209 0.216 0.243 0.254 0.292 0.293 0.288 0.269 0.296 0.296 0.226 0.187 0.172 0.170 0.286 0.232 0.210 0.208 0.220 0.205 0.218 0.219 0.239 0.236 0.229 0.273 0.206 0.184 0.189 0.175 0.176 0.196 0.216 0.239 0.292 0.284 0.251 0.232 0.246 0.279 0.287 0.263 0.218 0.239 0.243 0.265 0.262 0.258 0.231 0.206 0.176 0.168 0.190 0.234 0.259 0.221 0.216 0.221 0.200 0.138 0.018 0.020 0.018 0.015 0.017 0.017 0.019 0.020 0.018 0.017 0.018 0.018 0.018 0.016 0.016 0.014 0.011 0.009 0.008 -9999 -9999 -9999 -9999 -9999 -9999 -9999 -9999 -9999 -9999 -9999 -9999 -9999 -9999 -9999 -9999 -9999 -9999 -9999 -9999 -9999 -9999 -9999 -9999 -9999
-9999 -9999 -9999 -9999 -9999 -9999 -9999 -9999 -9999 -9999 -9999 -9999 -9999 -9999 -9999 -9999 -9999 -9999 -9999 -9999 -9999 -9999 -9999 -9999 -9999 -9999 -9999 -9999 -9999 -9999 -9999 -9999 -9999 -9999 -9999 -9999 -9999 -9999 -9999 -9999 -9999 -9999 -9999 -9999 -9999 -9999 -9999 -9999 -9999 -9999 -9999 0.000 0.030 0.048 0.060 0.044 0.045 0.043 0.047 0.048 0.045 0.041 0.045 0.049 0.041 0.034 0.035 0.037 0.033 0.030 0.163 0.234 0.267 0.293 0.276 0.290 0.309 0.284 0.269 0.285 0.042 0.039 0.057 0.060 0.062 0.058 0.054 0.066 0.066 0.069 0.066 0.059 0.060 0.061 0.061 0.064 0.070 0.073 0.071 -9999 -9999 -9999 -9999 -9999 -9999 -9999 0.118 0.112 0.117 0.115 0.114 0.115 0.089 0.103 0.128 0.132 0.135 0.132 0.122 0.099 0.104 0.116 0.110 0.130 0.135 0.151 0.151 0.159 0.170 0.208 0.213 0.246 0.268 0.269 0.270 0.323 0.302 0.263 0.256 0.286 0.301 0.294 0.173 0.193 0.267 0.275 0.235 0.215 0.222 0.187 0.211 0.204 0.211 0.230 0.213 0.236 0.203 0.191 0.195 0.184 0.200 0.220 0.298 0.292 0.261 0.196 0.265 0.267 0.248 0.262 0.283 0.262 0.228 0.239 0.250 0.253 0.256 0.289 0.240 0.230 0.172 0.168 0.216 0.245 0.239 0.211 0.220 0.214 0.176 0.134 0.018 0.018 0.016 0.018 0.018 0.020 0.018 0.020 0.019 0.019 0.017 0.017 0.017 0.015 0.014 0.013 0.011 0.009 0.000 -9999 -9999 -9999 -9999 -9999 -9999 -9999 -9999 -9999 -9999 -9999 -9999 -9999 -9999 -9999 -9999 -9999 -9999 -9999 -9999 -9999 -9999 -9999 -9999 -9999
-9999 -9999 -9999 -9999 -9999 -9999 -9999 -9999 -9999 -9999 -9999 -9999 -9999 -9999 -9999 -9999 -9999 -9999 -9999 -9999 -9999 -9999 -9999 -9999 -9999 -9999 -9999 -9999 -9999 -9999 -9999 -9999 -9999 -9999 -9999 -9999 -9999 -9999 -9999 -9999 -9999 -9999 -9999 -9999 -9999 -9999 -9999 -9999 -9999 -9999 -9999 -9999 -9999 0.058 0.022 0.038 0.049 0.042 0.045 0.052 0.046 0.040 0.039 0.040 0.038 0.035 0.033 0.037 0.033 0.036 0.170 0.236 0.298 0.314 0.373 0.338 0.346 0.315 0.305 0.307 0.298 0.052 0.051 0.054 0.044 0.054 0.055 0.058 0.050 0.060 0.068 0.063 0.074 0.073 0.071 0.067 0.069 0.069 0.081 0.076 0.135 -9999 -9999 -9999 -9999 -9999 0.094 0.125 0.106 0.123 0.123 0.143 0.128 0.112 0.108 0.146 0.157 0.144 0.143 0.136 0.120 0.107 0.094 0.120 0.161 0.181 0.185 0.164 0.187 0.189 0.185 0.246 0.256 0.312 0.286 0.300 0.294 0.232 0.236 0.277 0.295 0.247 0.201 0.173 0.181 0.232 0.182 0.217 0.197 0.188 0.199 0.203 0.180 0.202 0.196 0.270 0.201 0.198 0.175 0.202 0.252 0.285 0.290 0.268 0.293 0.252 0.231 0.274 0.248 0.240 0.320 0.320 0.329 0.315 0.325 0.315 0.321 0.260 0.245 0.256 0.204 0.221 0.218 0.171 0.157 0.171 0.205 0.200 0.174 0.127 0.016 0.016 0.016 0.017 0.018 0.017 0.019 0.016 0.017 0.017 0.017 0.016 0.015 0.014 0.014 0.012 0.000 -9999 -9999 -9999 -9999 -9999 -9999 -9999 -9999 -9999 -9999 -9999 -9999 -9999 -9999 -9999 -9999 -9999 -9999 -9999 -9999 -9999 -9999 -9999 -9999 -9999 -9999 -9999
-9999 -9999 -9999 -9999 -9999 -9999 -9999 -9999 -9999 -9999 -9999 -9999 -9999 -9999 -9999 -9999 -9999 -9999 -9999 -9999 -9999 -9999 -9999 -9999 -9999 -9999 -9999 -9999 -9999 -9999 -9999 -9999 -9999 -9999 -9999 -9999 -9999 -9999 -9999 -9999 -9999 -9999 -9999 -9999 -9999 -9999 -9999 -9999 -9999 -9999 -9999 -9999 -9999 -9999 0.010 0.029 0.037 0.041 0.051 0.047 0.049 0.043 0.039 0.035 0.037 0.039 0.040 0.038 0.038 0.039 0.207 0.245 0.309 0.337 0.385 0.379 0.366 0.326 0.313 0.325 0.318 0.281 0.277 0.061 0.270 0.044 0.049 0.056 0.046 0.057 0.066 0.077 0.080 0.085 0.079 0.074 0.076 0.073 0.077 0.079 0.057 -9999 -9999 -9999 -9999 -9999 -9999 0.097 0.107 0.123 0.120 0.127 0.140 0.135 0.128 0.121 0.122 0.134 0.133 0.122 0.099 0.100 0.117 0.130 0.162 0.177 0.200 0.199 0.187 0.205 0.204 0.249 0.261 0.311 0.328 0.298 0.276 0.242 0.237 0.270 0.284 0.264 0.212 0.255 0.184 0.190 0.181 0.201 0.205 0.195 0.190 0.203 0.191 0.184 0.184 0.275 0.224 0.237 0.181 0.223 0.277 0.280 0.278 0.261 0.242 0.244 0.250 0.242 0.232 0.240 0.290 0.366 0.333 0.341 0.320 0.298 0.263 0.287 0.249 0.220 0.193 0.186 0.192 0.144 0.147 0.187 0.189 0.149 0.134 0.016 0.015 0.016 0.016 0.017 0.015 0.017 0.016 0.016 0.015 0.018 0.016 0.014 0.013 0.012 0.011 0.000 -9999 -9999 -9999 -9999 -9999 -9999 -9999 -9999 -9999 -9999 -9999 -9999 -9999 -9999 -9999 -9999 -9999 -9999 -9999 -9999 -9999 -9999 -9999 -9999 -9999 -9999 -9999 -9999
-9999 -9999 -9999 -9999 -9999 -9999 -9999 -9999 -9999 -9999 -9999 -9999 -9999 -9999 -9999 -9999 -9999 -9999 -9999 -9999 -9999 -9999 -9999 -9999 -9999 -9999 -9999 -9999 -9999 -9999 -9999 -9999 -9999 -9999 -9999 -9999 -9999 -9999 -9999 -9999 -9999 -9999 -9999 -9999 -9999 -9999 -9999 -9999 -9999 -9999 -9999 -9999 -9999 -9999 0.011 0.023 0.026 0.033 0.049 0.038 0.040 0.034 0.030 0.040 0.043 0.041 0.044 0.038 0.036 0.231 0.229 0.237 0.300 0.355 0.388 0.364 0.368 0.342 0.340 0.323 0.317 0.298 0.290 0.355 0.380 0.270 0.041 0.043 0.042 0.048 0.060 0.072 0.076 0.078 0.085 0.086 0.068 0.077 0.071 0.075 0.078 0.058 -9999 -9999 -9999 -9999 -9999 -9999 0.101 0.102 0.125 0.122 0.141 0.148 0.128 0.134 0.142 0.154 0.140 0.137 0.113 0.116 0.131 0.133 0.164 0.178 0.223 0.193 0.225 0.239 0.237 0.234 0.230 0.292 0.294 0.290 0.283 0.270 0.300 0.252 0.209 0.204 0.268 0.250 0.220 0.175 0.193 0.184 0.190 0.177 0.198 0.197 0.202 0.203 0.189 0.196 0.202 0.263 0.182 0.178 0.246 0.259 0.263 0.257 0.239 0.222 0.248 0.239 0.216 0.225 0.272 0.284 0.338 0.335 0.314 0.301 0.264 0.237 0.250 0.249 0.208 0.195 0.203 0.155 0.146 0.200 0.158 0.157 0.130 0.016 0.016 0.015 0.015 0.015 0.016 0.016 0.017 0.015 0.015 0.013 0.013 0.011 0.000 0.011 0.000 -9999 -9999 -9999 -9999 -9999 -9999 -9999 -9999 -9999 -9999 -9999 -9999 -9999 -9999 -9999 -9999 -9999 -9999 -9999 -9999 -9999 -9999 -9999 -9999 -9999 -9999 -9999 -9999 -9999
-9999 -9999 -9999 -9999 -9999 -9999 -9999 -9999 -9999 -9999 -9999 -9999 -9999 -9999 -9999 -9999 -9999 -9999 -9999 -9999 -9999 -9999 -9999 -9999 -9999 -9999 -9999 -9999 -9999 -9999 -9999 -9999 -9999 -9999 -9999 -9999 -9999 -9999 -9999 -9999 -9999 -9999 -9999 -9999 -9999 -9999 -9999 -9999 -9999 -9999 -9999 -9999 -9999 -9999 -9999 -9999 -9999 -9999 0.011 -9999 0.049 0.037 0.035 0.044 0.040 0.042 0.041 0.039 0.212 0.236 0.269 0.310 0.327 0.331 0.409 0.396 0.388 0.371 0.355 0.336 0.327 0.308 0.322 0.355 0.379 0.277 0.233 0.198 0.205 0.047 0.052 0.052 0.054 0.066 0.079 0.082 0.079 0.078 0.070 0.075 0.084 0.068 -9999 -9999 -9999 -9999 -9999 -9999 -9999 0.102 0.111 0.118 0.134 0.148 0.140 0.156 0.153 0.153 0.146 0.138 0.151 0.160 0.129 0.164 0.189 0.197 0.203 0.222 0.260 0.262 0.239 0.244 0.231 0.248 0.219 0.220 0.282 0.281 0.239 0.227 0.229 0.236 0.209 0.170 0.171 0.164 0.158 0.199 0.172 0.200 0.198 0.209 0.198 0.194 0.191 0.191 0.166 0.209 0.176 0.167 0.248 0.175 0.213 0.262 0.224 0.241 0.225 0.229 0.222 0.231 0.220 0.257 0.300 0.312 0.316 0.291 0.280 0.232 0.250 0.233 0.182 0.173 0.179 0.188 0.165 0.167 0.164 0.152 0.131 0.015 0.015 0.016 0.015 0.015 0.014 0.014 0.015 0.013 0.013 0.012 0.011 0.000 -9999 -9999 -9999 -9999 -9999 -9999 -9999 -9999 -9999 -9999 -9999 -9999 -9999 -9999 -9999 -9999 -9999 -9999 -9999 -9999 -9999 -9999 -9999 -9999 -9999 -9999 -9999 -9999 -9999 -9999 -9999 -9999
-9999 -9999 -9999 -9999 -9999 -9999 -9999 -9999 -9999 -9999 -9999 -9999 -9999 -9999 -9999 -9999 -9999 -9999 -9999 -9999 -9999 -9999 -9999 -9999 -9999 -9999 -9999 -9999 -9999 -9999 -9999 -9999 -9999 -9999 -9999 -9999 -9999 -9999 -9999 -9999 -9999 -9999 -9999 -9999 -9999 -9999 -9999 -9999 -9999 -9999 -9999 -9999 -9999 -9999 -9999 -9999 -9999 -9999 -9999 -9999 0.052 0.050 0.038 0.041 0.043 0.042 0.039 0.037 0.255 0.242 0.305 0.284 0.339 0.348 0.378 0.372 0.393 0.369 0.342 0.355 0.413 0.363 0.358 0.323 0.270 0.281 0.306 0.282 0.292 0.270 0.278 0.327 0.052 0.059 0.066 0.068 0.069 0.078 0.077 0.072 0.096 0.078 0.087 0.096 -9999 -9999 -9999 -9999 -9999 0.119 0.126 0.130 0.136 0.151 0.147 0.155 0.158 0.166 0.145 0.164 0.167 0.177 0.155 0.185 0.196 0.215 0.199 0.194 0.226 0.252 0.223 0.237 0.301 0.247 0.278 0.239 0.216 0.236 0.293 0.258 0.212 0.261 0.216 0.179 0.170 0.146 0.160 0.179 0.166 0.180 0.184 0.198 0.191 0.181 0.182 0.173 0.171 0.182 0.183 0.184 0.232 0.161 0.183 0.260 0.222 0.231 0.229 0.238 0.216 0.227 0.211 0.212 0.281 0.275 0.265 0.272 0.204 0.220 0.233 0.206 0.189 0.172 0.184 0.184 0.211 0.144 0.150 0.163 0.138 0.128 0.014 0.015 0.014 0.014 0.011 0.011 0.012 0.012 0.011 0.000 -9999 -9999 -9999 -9999 -9999 -9999 -9999 -9999 -9999 -9999 -9999 -9999 -9999 -9999 -9999 -9999 -9999 -9999 -9999 -9999 -9999 -9999 -9999 -9999 -9999 -9999 -9999 -9999 -9999 -9999 -9999 -9999 -9999 -9999
-9999 -9999 -9999 -9999 -9999 -9999 -9999 -9999 -9999 -9999 -9999 -9999 -9999 -9999 -9999 -9999 -9999 -9999 -9999 -9999 -9999 -9999 -9999 -9999 -9999 -9999 -9999 -9999 -9999 -9999 -9999 -9999 -9999 -9999 -9999 -9999 -9999 -9999 -9999 -9999 -9999 -9999 -9999 -9999 -9999 -9999 -9999 -9999 -9999 -9999 -9999 -9999 -9999 -9999 -9999 -9999 -9999 -9999 -9999 0.019 0.055 0.050 0.043 0.041 0.041 0.040 0.033 0.042 0.262 0.262 0.338 0.309 0.332 0.354 0.355 0.371 0.372 0.367 0.360 0.381 0.397 0.328 0.289 0.305 0.285 0.270 0.290 0.303 0.371 0.382 0.292 0.282 0.304 0.271 0.058 0.062 0.073 0.078 0.070 0.075 0.086 0.091 0.090 0.101 0.113 0.082 0.081 -9999 -9999 0.126 0.118 0.157 0.156 0.159 0.154 0.151 0.151 0.160 0.175 0.159 0.165 0.171 0.202 0.228 0.226 0.239 0.204 0.207 0.243 0.244 0.220 0.247 0.336 0.255 0.272 0.289 0.219 0.178 0.193 0.202 0.244 0.182 0.170 0.163 0.156 0.148 0.153 0.163 0.187 0.183 0.193 0.212 0.210 0.159 0.174 0.207 0.202 0.197 0.174 0.163 0.192 0.190 0.254 0.260 0.220 0.172 0.192 0.219 0.207 0.205 0.216 0.178 0.209 0.209 0.229 0.250 0.212 0.197 0.143 0.149 0.193 0.190 0.203 0.178 0.201 0.131 0.137 0.128 0.131 0.137 0.016 0.014 0.013 0.011 0.010 0.010 0.011 0.000 -9999 -9999 -9999 -9999 -9999 -9999 -9999 -9999 -9999 -9999 -9999 -9999 -9999 -9999 -9999 -9999 -9999 -9999 -9999 -9999 -9999 -9999 -9999 -9999 -9999 -9999 -9999 -9999 -9999 -9999 -9999 -9999 -9999 -9999 -9999 -9999
-9999 -9999 -9999 -9999 -9999 -9999 -9999 -9999 -9999 -9999 -9999 -9999 -9999 -9999 -9999 -9999 -9999 -9999 -9999 -9999 -9999 -9999 -9999 -9999 -9999 -9999 -9999 -9999 -9999 -9999 -9999 -9999 -9999 -9999 -9999 -9999 -9999 -9999 -9999 -9999 -9999 -9999 -9999 -9999 -9999 -9999 -9999 -9999 -9999 -9999 -9999 -9999 -9999 -9999 -9999 -9999 -9999 -9999 -9999 0.045 0.043 0.044 0.046 0.045 0.040 0.043 0.033 0.222 0.272 0.291 0.320 0.347 0.336 0.350 0.379 0.382 0.369 0.392 0.473 0.380 0.380 0.346 0.284 0.233 0.282 0.273 0.325 0.359 0.400 0.412 0.412 0.371 0.313 0.280 0.144 0.058 0.064 0.082 0.074 0.079 0.085 0.092 0.084 0.091 0.094 0.088 0.100 -9999 -9999 0.136 0.120 0.141 0.173 0.192 0.155 0.148 0.142 0.142 0.150 0.141 0.164 0.212 0.236 0.211 0.242 0.215 0.224 0.227 0.289 0.237 0.217 0.268 0.252 0.240 0.205 0.223 0.226 0.203 0.172 0.169 0.182 0.163 0.152 0.144 0.147 0.139 0.142 0.161 0.166 0.175 0.193 0.191 0.188 0.163 0.168 0.210 0.220 0.257 0.250 0.167 0.168 0.166 0.175 0.220 0.190 0.176 0.201 0.208 0.208 0.210 0.219 0.197 0.195 0.162 0.166 0.205 0.181 0.145 0.127 0.126 0.121 0.149 0.148 0.158 0.157 0.134 0.131 0.125 0.137 0.140 0.114 0.014 0.012 0.011 0.000 0.000 -9999 -9999 -9999 -9999 -9999 -9999 -9999 -9999 -9999 -9999 -9999 -9999 -9999 -9999 -9999 -9999 -9999 -9999 -9999 -9999 -9999 -9999 -9999 -9999 -9999 -9999 -9999 -9999 -9999 -9999 -9999 -9999 -9999 -9999 -9999 -9999 -9999 -9999
-9999 -9999 -9999 -9999 -9999 -9999 -9999 -9999 -9999 -9999 -9999 -9999 -9999 -9999 -9999 -9999 -9999 -9999 -9999 -9999 -9999 -9999 -9999 -9999 -9999 -9999 -9999 -9999 -9999 -9999 -9999 -9999 -9999 -9999 -9999 -9999 -9999 -9999 -9999 -9999 -9999 -9999 -9999 -9999 -9999 -9999 -9999 -9999 -9999 -9999 -9999 -9999 -9999 -9999 -9999 -9999 -9999 0.009 0.008 0.039 0.037 0.040 0.043 0.036 0.044 0.045 0.050 0.243 0.265 0.281 0.332 0.344 0.352 0.354 0.394 0.399 0.347 0.435 0.439 0.396 0.378 0.382 0.300 0.264 0.251 0.316 0.380 0.389 0.479 0.506 0.480 0.425 0.411 0.442 0.198 0.165 0.133 0.142 0.071 0.069 0.084 0.096 0.085 0.093 0.097 0.099 0.104 -9999 -9999 0.123 0.159 0.159 0.186 0.192 0.182 0.168 0.151 0.140 0.140 0.133 0.141 0.188 0.240 0.218 0.225 0.231 0.223 0.213 0.234 0.228 0.230 0.248 0.226 0.219 0.215 0.205 0.233 0.216 0.213 0.186 0.205 0.181 0.159 0.135 0.139 0.129 0.120 0.145 0.154 0.191 0.215 0.237 0.203 0.209 0.194 0.222 0.221 0.221 0.228 0.270 0.236 0.242 0.156 0.146 0.144 0.149 0.191 0.225 0.206 0.221 0.213 0.145 0.137 0.134 0.141 0.138 0.146 0.135 0.128 0.133 0.133 0.158 0.146 0.151 0.147 0.148 0.124 0.126 0.116 0.114 0.114 0.118 0.012 0.011 0.010 -9999 -9999 -9999 -9999 -9999 -9999 -9999 -9999 -9999 -9999 -9999 -9999 -9999 -9999 -9999 -9999 -9999 -9999 -9999 -9999 -9999 -9999 -9999 -9999 -9999 -9999 -9999 -9999 -9999 -9999 -9999 -9999 -9999 -9999 -9999 -9999 -9999 -9999 -9999
-9999 -9999 -9999 -9999 -9999 -9999 -9999 -9999 -9999 -9999 -9999 -9999 -9999 -9999 -9999 -9999 -9999 -9999 -9999 -9999 -9999 -9999 -9999 -9999 -9999 -9999 -9999 -9999 -9999 -9999 -9999 -9999 -9999 -9999 -9999 -9999 -9999 -9999 -9999 -9999 -9999 -9999 -9999 -9999 -9999 -9999 -9999 -9999 -9999 -9999 -9999 -9999 -9999 -9999 -9999 -9999 -9999 0.006 0.029 0.033 0.037 0.038 0.044 0.044 0.050 0.047 0.267 0.253 0.291 0.285 0.326 0.372 0.362 0.391 0.472 0.382 0.392 0.447 0.380 0.387 0.358 0.368 0.295 0.304 0.321 0.341 0.402 0.412 0.462 0.433 0.431 0.427 0.438 0.207 0.185 0.188 0.202 0.212 0.139 0.070 0.078 0.090 0.085 0.098 0.109 0.098 0.091 -9999 -9999 0.123 0.154 0.158 0.206 0.207 0.179 0.190 0.186 0.167 0.143 0.132 0.138 0.168 0.242 0.234 0.231 0.207 0.223 0.215 0.240 0.225 0.231 0.285 0.299 0.251 0.273 0.212 0.289 0.295 0.193 0.222 0.186 0.176 0.174 0.170 0.136 0.151 0.139 0.136 0.154 0.200 0.231 0.213 0.213 0.219 0.194 0.196 0.233 0.245 0.220 0.233 0.215 0.245 0.153 0.129 0.141 0.142 0.144 0.137 0.174 0.199 0.199 0.146 0.149 0.124 0.127 0.153 0.153 0.154 0.141 0.141 0.137 0.143 0.161 0.156 0.143 0.145 0.123 0.128 0.115 0.114 0.085 0.094 0.012 0.000 -9999 -9999 -9999 -9999 -9999 -9999 -9999 -9999 -9999 -9999 -9999 -9999 -9999 -9999 -9999 -9999 -9999 -9999 -9999 -9999 -9999 -9999 -9999 -9999 -9999 -9999 -9999 -9999 -9999 -9999 -9999 -9999 -9999 -9999 -9999 -9999 -9999 -9999 -9999 -9999
-9999 -9999 -9999 -9999 -9999 -9999 -9999 -9999 -9999 -9999 -9999 -9999 -9999 -9999 -9999 -9999 -9999 -9999 -9999 -9999 -9999 -9999 -9999 -9999 -9999 -9999 -9999 -9999 -9999 -9999 -9999 -9999 -9999 -9999 -9999 -9999 -9999 -9999 -9999 -9999 -9999 -9999 -9999 -9999 -9999 -9999 -9999 -9999 -9999 -9999 -9999 -9999 -9999 -9999 -9999 -9999 -9999 -9999 0.005 0.029 0.037 0.038 0.041 0.042 0.046 0.045 0.259 0.239 0.281 0.299 0.318 0.363 0.390 0.371 0.364 0.363 0.355 0.366 0.362 0.353 0.420 0.419 0.446 0.416 0.371 0.390 0.435 0.485 0.492 0.407 0.461 0.481 0.212 0.225 0.186 0.188 0.219 0.217 0.168 0.155 0.068 0.076 0.087 0.089 0.090 0.097 0.079 -9999 -9999 -9999 0.143 0.178 0.188 0.191 0.202 0.201 0.195 0.193 0.163 0.145 0.161 0.233 0.250 0.247 0.246 0.244 0.241 0.211 0.206 0.232 0.240 0.242 0.297 0.290 0.280 0.281 0.268 0.197 0.188 0.259 0.174 0.159 0.188 0.193 0.165 0.164 0.152 0.145 0.161 0.190 0.223 0.218 0.188 0.196 0.192 0.210 0.238 0.213 0.191 0.226 0.164 0.156 0.166 0.186 0.138 0.151 0.160 0.136 0.130 0.132 0.184 0.145 0.157 0.134 0.137 0.137 0.150 0.152 0.154 0.143 0.140 0.137 0.136 0.134 0.137 0.130 0.117 0.111 0.086 0.087 0.077 0.090 0.000 -9999 -9999 -9999 -9999 -9999 -9999 -9999 -9999 -9999 -9999 -9999 -9999 -9999 -9999 -9999 -9999 -9999 -9999 -9999 -9999 -9999 -9999 -9999 -9999 -9999 -9999 -9999 -9999 -9999 -9999 -9999 -9999 -9999 -9999 -9999 -9999 -9999 -9999 -9999 -9999 -9999
-9999 -9999 -9999 -9999 -9999 -9999 -9999 -9999 -9999 -9999 -9999 -9999 -9999 -9999 -9999 -9999 -9999 -9999 -9999 -9999 -9999 -9999 -9999 -9999 -9999 -9999 -9999 -9999 -9999 -9999 -9999 -9999 -9999 -9999 -9999 -9999 -9999 -9999 -9999 -9999 -9999 -9999 -9999 -9999 -9999 -9999 -9999 -9999 -9999 -9999 -9999 -9999 -9999 -9999 -9999 -9999 -9999 -9999 -9999 0.029 0.035 0.036 0.042 0.049 0.227 0.253 0.300 0.297 0.305 0.322 0.348 0.322 0.326 0.358 0.377 0.366 0.394 0.402 0.378 0.405 0.423 0.413 0.460 0.419 0.356 0.378 0.412 0.418 0.442 0.428 0.197 0.198 0.206 0.208 0.200 0.215 0.210 0.221 0.201 0.170 0.163 0.064 0.081 0.083 0.102 -9999 -9999 -9999 -9999 0.222 0.146 0.184 0.185 0.184 0.179 0.183 0.169 0.151 0.157 0.157 0.161 0.210 0.250 0.246 0.257 0.237 0.229 0.212 0.246 0.232 0.245 0.256 0.218 0.254 0.244 0.270 0.218 0.208 0.230 0.186 0.208 0.148 0.145 0.184 0.196 0.126 0.132 0.144 0.165 0.196 0.220 0.204 0.217 0.220 0.204 0.194 0.187 0.196 0.185 0.210 0.202 0.254 0.220 0.169 0.139 0.153 0.163 0.171 0.137 0.153 0.155 0.149 0.134 0.142 0.130 0.144 0.150 0.133 0.148 0.144 0.134 0.106 0.102 0.115 0.103 0.109 0.119 0.098 0.087 0.086 0.079 0.000 -9999 -9999 -9999 -9999 -9999 -9999 -9999 -9999 -9999 -9999 -9999 -9999 -9999 -9999 -9999 -9999 -9999 -9999 -9999 -9999 -9999 -9999 -9999 -9999 -9999 -9999 -9999 -9999 -9999 -9999 -9999 -9999 -9999 -9999 -9999 -9999 -9999 -9999 -9999 -9999 -9999 -9999
-9999 -9999 -9999 -9999 -9999 -9999 -9999 -9999 -9999 -9999 -9999 -9999 -9999 -9999 -9999 -9999 -9999 -9999 -9999 -9999 -9999 -9999 -9999 -9999 -9999 -9999 -9999 -9999 -9999 -9999 -9999 -9999 -9999 -9999 -9999 -9999 -9999 -9999 -9999 -9999 -9999 -9999 -9999 -9999 -9999 -9999 -9999 -9999 -9999 -9999 -9999 -9999 -9999 -9999 -9999 -9999 -9999 -9999 -9999 0.007 0.038 0.038 0.042 0.240 0.245 0.234 0.278 0.280 0.268 0.305 0.319 0.337 0.315 0.310 0.387 0.400 0.417 0.446 0.420 0.403 0.467 0.482 0.483 0.534 0.484 0.383 0.458 0.422 0.217 0.211 0.206 0.211 0.200 0.198 0.219 0.214 0.219 0.214 0.217 0.213 0.163 0.065 0.070 0.099 0.107 0.072 -9999 -9999 -9999 -9999 0.190 0.172 0.183 0.196 0.181 0.191 0.187 0.167 0.161 0.162 0.184 0.212 0.230 0.232 0.268 0.245 0.245 0.223 0.240 0.224 0.218 0.246 0.259 0.250 0.245 0.206 0.266 0.149 0.158 0.154 0.177 0.233 0.189 0.183 0.221 0.141 0.128 0.146 0.162 0.145 0.126 0.142 0.194 0.205 0.197 0.177 0.171 0.179 0.181 0.168 0.202 0.211 0.190 0.141 0.147 0.140 0.136 0.148 0.142 0.129 0.137 0.128 0.129 0.124 0.139 0.130 0.140 0.117 0.121 0.126 0.106 0.096 0.101 0.095 0.101 0.111 0.097 0.086 0.000 0.000 0.000 -9999 -9999 -9999 -9999 -9999 -9999 -9999 -9999 -9999 -9999 -9999 -9999 -9999 -9999 -9999 -9999 -9999 -9999 -9999 -9999 -9999 -9999 -9999 -9999 -9999 -9999 -9999 -9999 -9999 -9999 -9999 -9999 -9999 -9999 -9999 -9999 -9999 -9999 -9999 -9999 -9999 -9999 -9999
-9999 -9999 -9999 -9999 -9999 -9999 -9999 -9999 -9999 -9999 -9999 -9999 -9999 -9999 -9999 -9999 -9999 -9999 -9999 -9999 -9999 -9999 -9999 -9999 -9999 -9999 -9999 -9999 -9999 -9999 -9999 -9999 -9999 -9999 -9999 -9999 -9999 -9999 -9999 -9999 -9999 -9999 -9999 -9999 -9999 -9999 -9999 -9999 -9999 -9999 -9999 -9999 -9999 -9999 -9999 -9999 -9999 -9999 -9999 -9999 0.034 0.041 0.039 0.216 0.251 0.219 0.223 0.266 0.240 0.276 0.275 0.306 0.296 0.265 0.350 0.396 0.402 0.433 0.438 0.511 0.487 0.504 0.466 0.504 0.537 0.375 0.405 0.464 0.224 0.208 0.207 0.214 0.199 0.202 0.199 0.230 0.223 0.221 0.209 0.216 0.190 0.141 0.067 0.074 0.094 0.096 0.067 0.077 0.063 0.097 0.140 0.146 0.163 0.227 0.202 0.199 0.163 0.174 0.188 0.180 0.201 0.221 0.254 0.257 0.259 0.229 0.244 0.229 0.234 0.220 0.266 0.265 0.262 0.260 0.267 0.242 0.233 0.184 0.176 0.192 0.216 0.226 0.228 0.172 0.139 0.129 0.117 0.138 0.206 0.153 0.118 0.130 0.171 0.194 0.178 0.164 0.164 0.165 0.158 0.173 0.210 0.207 0.166 0.135 0.136 0.137 0.139 0.124 0.129 0.134 0.135 0.134 0.122 0.129 0.129 0.126 0.124 0.104 0.100 0.098 0.114 0.154 0.091 0.091 0.090 0.000 0.000 -9999 -9999 -9999 -9999 -9999 -9999 -9999 -9999 -9999 -9999 -9999 -9999 -9999 -9999 -9999 -9999 -9999 -9999 -9999 -9999 -9999 -9999 -9999 -9999 -9999 -9999 -9999 -9999 -9999 -9999 -9999 -9999 -9999 -9999 -9999 -9999 -9999 -9999 -9999 -9999 -9999 -9999 -9999 -9999 -9999 -9999 -9999
-9999 -9999 -9999 -9999 -9999 -9999 -9999 -9999 -9999 -9999 -9999 -9999 -9999 -9999 -9999 -9999 -9999 -9999 -9999 -9999 -9999 -9999 -9999 -9999 -9999 -9999 -9999 -9999 -9999 -9999 -9999 -9999 -9999 -9999 -9999 -9999 -9999 -9999 -9999 -9999 -9999 -9999 -9999 -9999 -9999 -9999 -9999 -9999 -9999 -9999 -9999 -9999 -9999 -9999 -9999 -9999 -9999 -9999 -9999 -9999 0.007 0.038 0.039 0.219 0.192 0.225 0.230 0.252 0.242 0.250 0.241 0.272 0.253 0.267 0.330 0.339 0.377 0.412 0.437 0.474 0.494 0.439 0.483 0.472 0.479 0.343 0.371 0.178 0.193 0.215 0.194 0.216 0.197 0.199 0.207 0.213 0.238 0.220 0.210 0.218 0.206 0.155 0.068 0.071 0.085 0.092 0.071 0.081 0.065 0.084 0.185 0.137 0.154 0.203 0.193 0.191 0.179 0.175 0.163 0.161 0.183 0.208 0.187 0.242 0.236 0.242 0.230 0.221 0.248 0.231 0.234 0.259 0.232 0.270 0.242 0.254 0.265 0.231 0.217 0.249 0.240 0.230 0.182 0.185 0.136 0.129 0.119 0.144 0.164 0.168 0.152 0.117 0.143 0.171 0.159 0.191 0.156 0.139 0.145 0.185 0.193 0.173 0.155 0.131 0.127 0.132 0.124 0.130 0.139 0.144 0.139 0.145 0.128 0.108 0.128 0.119 0.103 0.108 0.092 0.089 0.115 0.000 0.000 -9999 -9999 -9999 -9999 -9999 -9999 -9999 -9999 -9999 -9999 -9999 -9999 -9999 -9999 -9999 -9999 -9999 -9999 -9999 -9999 -9999 -9999 -9999 -9999 -9999 -9999 -9999 -9999 -9999 -9999 -9999 -9999 -9999 -9999 -9999 -9999 -9999 -9999 -9999 -9999 -9999 -9999 -9999 -9999 -9999 -9999 -9999 -9999 -9999 -9999 -9999
-9999 -9999 -9999 -9999 -9999 -9999 -9999 -9999 -9999 -9999 -9999 -9999 -9999 -9999 -9999 -9999 -9999 -9999 -9999 -9999 -9999 -9999 -9999 -9999 -9999 -9999 -9999 -9999 -9999 -9999 -9999 -9999 -9999 -9999 -9999 -9999 -9999 -9999 -9999 -9999 -9999 -9999 -9999 -9999 -9999 -9999 -9999 -9999 -9999 -9999 -9999 -9999 -9999 -9999 -9999 -9999 -9999 -9999 -9999 -9999 0.006 0.034 0.033 0.186 0.193 0.238 0.235 0.233 0.237 0.245 0.266 0.279 0.256 0.294 0.330 0.340 0.370 0.420 0.404 0.423 0.426 0.399 0.423 0.408 0.420 0.342 0.328 0.173 0.172 0.176 0.211 0.227 0.207 0.179 0.187 0.229 0.235 0.215 0.221 0.218 0.202 0.193 0.059 0.061 0.081 0.093 0.077 0.088 0.068 0.093 0.206 0.137 0.168 0.201 0.180 0.182 0.172 0.174 0.184 0.179 0.176 0.187 0.174 0.180 0.219 0.210 0.243 0.232 0.241 0.224 0.206 0.220 0.217 0.258 0.229 0.248 0.261 0.206 0.209 0.232 0.192 0.197 0.198 0.178 0.131 0.136 0.127 0.138 0.142 0.130 0.115 0.117 0.122 0.167 0.147 0.161 0.155 0.149 0.160 0.179 0.189 0.160 0.151 0.133 0.132 0.131 0.126 0.116 0.091 0.095 0.104 0.117 0.112 0.104 0.113 0.101 0.101 0.093 0.000 0.000 -9999 -9999 -9999 -9999 -9999 -9999 -9999 -9999 -9999 -9999 -9999 -9999 -9999 -9999 -9999 -9999 -9999 -9999 -9999 -9999 -9999 -9999 -9999 -9999 -9999 -9999 -9999 -9999 -9999 -9999 -9999 -9999 -9999 -9999 -9999 -9999 -9999 -9999 -9999 -9999 -9999 -9999 -9999 -9999 -9999 -9999 -9999 -9999 -9999 -9999 -9999 -9999 -9999 -9999
-9999 -9999 -9999 -9999 -9999 -9999 -9999 -9999 -9999 -9999 -9999 -9999 -9999 -9999 -9999 -9999 -9999 -9999 -9999 -9999 -9999 -9999 -9999 -9999 -9999 -9999 -9999 -9999 -9999 -9999 -9999 -9999 -9999 -9999 -9999 -9999 -9999 -9999 -9999 -9999 -9999 -9999 -9999 -9999 -9999 -9999 -9999 -9999 -9999 -9999 -9999 -9999 -9999 -9999 -9999 -9999 -9999 -9999 -9999 -9999 -9999 0.033 0.163 0.187 0.227 0.204 0.229 0.240 0.252 0.201 0.212 0.238 0.283 0.301 0.376 0.395 0.380 0.410 0.397 0.386 0.396 0.398 0.467 0.407 0.405 0.332 0.372 0.158 0.158 0.206 0.208 0.211 0.206 0.178 0.175 0.200 0.203 0.232 0.229 0.228 0.228 0.226 0.163 0.065 0.071 0.103 0.067 0.067 0.067 0.092 0.169 0.144 0.160 0.183 0.168 0.177 0.175 0.174 0.186 0.198 0.189 0.183 0.189 0.229 0.227 0.247 0.245 0.225 0.242 0.250 0.277 0.208 0.274 0.254 0.243 0.243 0.244 0.204 0.207 0.232 0.222 0.203 0.176 0.189 0.136 0.151 0.140 0.125 0.123 0.109 0.105 0.109 0.119 0.117 0.120 0.134 0.128 0.132 0.136 0.149 0.131 0.153 0.136 0.132 0.124 0.130 0.123 0.104 0.101 0.000 0.096 0.114 0.096 0.107 0.092 0.088 -9999 -9999 -9999 -9999 -9999 -9999 -9999 -9999 -9999 -9999 -9999 -9999 -9999 -9999 -9999 -9999 -9999 -9999 -9999 -9999 -9999 -9999 -9999 -9999 -9999 -9999 -9999 -9999 -9999 -9999 -9999 -9999 -9999 -9999 -9999 -9999 -9999 -9999 -9999 -9999 -9999 -9999 -9999 -9999 -9999 -9999 -9999 -9999 -9999 -9999 -9999 -9999 -9999 -9999 -9999 -9999 -9999 -9999
-9999 -9999 -9999 -9999 -9999 -9999 -9999 -9999 -9999 -9999 -9999 -9999 -9999 -9999 -9999 -9999 -9999 -9999 -9999 -9999 -9999 -9999 -9999 -9999 -9999 -9999 -9999 -9999 -9999 -9999 -9999 -9999 -9999 -9999 -9999 -9999 -9999 -9999 -9999 -9999 -9999 -9999 -9999 -9999 -9999 -9999 -9999 -9999 -9999 -9999 -9999 -9999 -9999 -9999 -9999 -9999 -9999 -9999 -9999 -9999 -9999 0.036 0.183 0.231 0.208 0.207 0.232 0.195 0.224 0.204 0.196 0.226 0.284 0.331 0.354 0.358 0.369 0.365 0.384 0.392 0.375 0.399 0.440 0.466 0.445 0.390 0.373 0.167 0.173 0.220 0.218 0.218 0.201 0.163 0.173 0.174 0.197 0.207 0.225 0.233 0.220 0.225 0.212 0.064 0.066 0.088 0.060 0.068 0.064 0.075 0.191 0.121 0.139 0.186 0.173 0.150 0.133 0.158 0.162 0.185 0.185 0.193 0.195 0.191 0.187 0.212 0.254 0.248 0.235 0.233 0.293 0.249 0.234 0.285 0.267 0.245 0.214 0.179 0.212 0.225 0.237 0.201 0.194 0.185 0.135 0.140 0.142 0.129 0.120 0.115 0.116 0.114 0.102 0.117 0.121 0.108 0.110 0.103 0.134 0.133 0.144 0.147 0.135 0.130 0.113 0.116 0.126 0.094 0.093 0.098 0.083 0.000 -9999 -9999 -9999 -9999 -9999 -9999 -9999 -9999 -9999 -9999 -9999 -9999 -9999 -9999 -9999 -9999 -9999 -9999 -9999 -9999 -9999 -9999 -9999 -9999 -9999 -9999 -9999 -9999 -9999 -9999 -9999 -9999 -9999 -9999 -9999 -9999 -9999 -9999 -9999 -9999 -9999 -9999 -9999 -9999 -9999 -9999 -9999 -9999 -9999 -9999 -9999 -9999 -9999 -9999 -9999 -9999 -9999 -9999 -9999 -9999 -9999 -9999
-9999 -9999 -9999 -9999 -9999 -9999 -9999 -9999 -9999 -9999 -9999 -9999 -9999 -9999 -9999 -9999 -9999 -9999 -9999 -9999 -9999 -9999 -9999 -9999 -9999 -9999 -9999 -9999 -9999 -9999 -9999 -9999 -9999 -9999 -9999 -9999 -9999 -9999 -9999 -9999 -9999 -9999 -9999 -9999 -9999 -9999 -9999 -9999 -9999 -9999 -9999 -9999 -9999 -9999 -9999 -9999 -9999 -9999 -9999 -9999 -9999 0.010 0.169 0.186 0.197 0.200 0.214 0.177 0.196 0.216 0.193 0.229 0.268 0.315 0.325 0.337 0.439 0.432 0.433 0.374 0.376 0.409 0.448 0.483 0.473 0.463 0.177 0.170 0.153 0.203 0.203 0.228 0.199 0.190 0.181 0.179 0.179 0.208 0.225 0.199 0.219 0.221 0.210 0.147 0.066 0.076 0.071 0.073 0.077 0.087 0.180 0.122 0.145 0.159 0.164 0.139 0.132 0.168 0.174 0.171 0.190 0.202 0.190 0.182 0.204 0.208 0.208 0.225 0.208 0.229 0.259 0.257 0.232 0.260 0.274 0.254 0.219 0.200 0.212 0.232 0.226 0.221 0.211 0.216 0.165 0.145 0.139 0.117 0.117 0.106 0.108 0.110 0.100 0.105 0.116 0.116 0.108 0.093 0.114 0.148 0.141 0.134 0.132 0.121 0.117 0.119 0.105 0.096 0.087 0.000 0.000 -9999 -9999 -9999 -9999 -9999 -9999 -9999 -9999 -9999 -9999 -9999 -9999 -9999 -9999 -9999 -9999 -9999 -9999 -9999 -9999 -9999 -9999 -9999 -9999 -9999 -9999 -9999 -9999 -9999 -9999 -9999 -9999 -9999 -9999 -9999 -9999 -9999 -9999 -9999 -9999 -9999 -9999 -9999 -9999 -9999 -9999 -9999 -9999 -9999 -9999 -9999 -9999 -9999 -9999 -9999 -9999 -9999 -9999 -9999 -9999 -9999 -9999 -9999
-9999 -9999 -9999 -9999 -9999 -9999 -9999 -9999 -9999 -9999 -9999 -9999 -9999 -9999 -9999 -9999 -9999 -9999 -9999 -9999 -9999 -9999 -9999 -9999 -9999 -9999 -9999 -9999 -9999 -9999 -9999 -9999 -9999 -9999 -9999 -9999 -9999 -9999 -9999 -9999 -9999 -9999 -9999 -9999 -9999 -9999 -9999 -9999 -9999 -9999 -9999 -9999 -9999 -9999 -9999 -9999 -9999 -9999 -9999 -9999 -9999 0.137 0.177 0.175 0.197 0.188 0.201 0.165 0.153 0.207 0.210 0.234 0.285 0.320 0.342 0.381 0.427 0.411 0.445 0.431 0.479 0.500 0.462 0.474 0.509 0.509 0.182 0.166 0.164 0.190 0.178 0.209 0.221 0.220 0.206 0.186 0.201 0.203 0.196 0.213 0.219 0.197 0.208 0.176 0.056 0.070 0.073 0.065 0.063 0.071 0.158 0.123 0.141 0.180 0.169 0.167 0.168 0.191 0.176 0.178 0.182 0.182 0.171 0.179 0.219 0.226 0.231 0.212 0.183 0.201 0.229 0.233 0.253 0.214 0.225 0.255 0.230 0.188 0.170 0.189 0.197 0.194 0.201 0.192 0.176 0.140 0.141 0.130 0.122 0.121 0.105 0.103 0.125 0.140 0.113 0.116 0.118 0.116 0.138 0.135 0.152 0.138 0.145 0.134 0.134 0.112 0.087 0.000 -9999 -9999 -9999 -9999 -9999 -9999 -9999 -9999 -9999 -9999 -9999 -9999 -9999 -9999 -9999 -9999 -9999 -9999 -9999 -9999 -9999 -9999 -9999 -9999 -9999 -9999 -9999 -9999 -9999 -9999 -9999 -9999 -9999 -9999 -9999 -9999 -9999 -9999 -9999 -9999 -9999 -9999 -9999 -9999 -9999 -9999 -9999 -9999 -9999 -9999 -9999 -9999 -9999 -9999 -9999 -9999 -9999 -9999 -9999 -9999 -9999 -9999 -9999 -9999 -9999 -9999
-9999 -9999 -9999 -9999 -9999 -9999 -9999 -9999 -9999 -9999 -9999 -9999 -9999 -9999 -9999 -9999 -9999 -9999 -9999 -9999 -9999 -9999 -9999 -9999 -9999 -9999 -9999 -9999 -9999 -9999 -9999 -9999 -9999 -9999 -9999 -9999 -9999 -9999 -9999 -9999 -9999 -9999 -9999 -9999 -9999 -9999 -9999 -9999 -9999 -9999 -9999 -9999 -9999 -9999 -9999 -9999 -9999 -9999 -9999 -9999 0.050 0.140 0.207 0.200 0.205 0.196 0.200 0.173 0.156 0.191 0.221 0.232 0.274 0.266 0.319 0.322 0.405 0.405 0.420 0.474 0.455 0.478 0.424 0.464 0.445 0.442 0.197 0.170 0.176 0.199 0.183 0.188 0.222 0.212 0.211 0.209 0.226 0.195 0.203 0.226 0.217 0.220 0.194 0.183 0.154 0.066 0.075 0.077 0.075 0.069 0.169 0.113 0.144 0.186 0.166 0.182 0.171 0.173 0.175 0.185 0.181 0.182 0.187 0.185 0.226 0.221 0.225 0.226 0.201 0.185 0.185 0.207 0.235 0.240 0.209 0.200 0.209 0.183 0.147 0.157 0.161 0.169 0.184 0.167 0.147 0.147 0.146 0.146 0.135 0.140 0.136 0.103 0.143 0.130 0.130 0.126 0.119 0.123 0.124 0.130 0.142 0.133 0.117 0.123 0.106 0.000 -9999 -9999 -9999 -9999 -9999 -9999 -9999 -9999 -9999 -9999 -9999 -9999 -9999 -9999 -9999 -9999 -9999 -9999 -9999 -9999 -9999 -9999 -9999 -9999 -9999 -9999 -9999 -9999 -9999 -9999 -9999 -9999 -9999 -9999 -9999 -9999 -9999 -9999 -9999 -9999 -9999 -9999 -9999 -9999 -9999 -9999 -9999 -9999 -9999 -9999 -9999 -9999 -9999 -9999 -9999 -9999 -9999 -9999 -9999 -9999 -9999 -9999 -9999 -9999 -9999 -9999 -9999 -9999
-9999 -9999 -9999 -9999 -9999 -9999 -9999 -9999 -9999 -9999 -9999 -9999 -9999 -9999 -9999 -9999 -9999 -9999 -9999 -9999 -9999 -9999 -9999 -9999 -9999 -9999 -9999 -9999 -9999 -9999 -9999 -9999 -9999 -9999 -9999 -9999 -9999 -9999 -9999 -9999 -9999 -9999 -9999 -9999 -9999 -9999 -9999 -9999 -9999 -9999 -9999 -9999 -9999 -9999 -9999 -9999 -9999 -9999 -9999 -9999 0.152 0.126 0.144 0.175 0.164 0.192 0.196 0.184 0.195 0.221 0.221 0.250 0.269 0.256 0.320 0.311 0.339 0.408 0.438 0.474 0.417 0.380 0.405 0.426 0.439 0.435 0.203 0.179 0.176 0.184 0.193 0.203 0.217 0.217 0.222 0.209 0.218 0.190 0.210 0.220 0.217 0.212 0.189 0.201 0.180 0.056 0.071 0.079 0.077 0.068 0.070 0.117 0.148 0.177 0.176 0.180 0.188 0.180 0.183 0.183 0.177 0.201 0.199 0.178 0.182 0.214 0.242 0.258 0.219 0.157 0.155 0.167 0.228 0.224 0.227 0.220 0.164 0.155 0.141 0.136 0.140 0.148 0.134 0.149 0.132 0.140 0.136 0.151 0.146 0.132 0.133 0.101 0.124 0.127 0.122 0.124 0.131 0.127 0.131 0.136 0.120 0.111 0.102 0.000 -9999 -9999 -9999 -9999 -9999 -9999 -9999 -9999 -9999 -9999 -9999 -9999 -9999 -9999 -9999 -9999 -9999 -9999 -9999 -9999 -9999 -9999 -9999 -9999 -9999 -9999 -9999 -9999 -9999 -9999 -9999 -9999 -9999 -9999 -9999 -9999 -9999 -9999 -9999 -9999 -9999 -9999 -9999 -9999 -9999 -9999 -9999 -9999 -9999 -9999 -9999 -9999 -9999 -9999 -9999 -9999 -9999 -9999 -9999 -9999 -9999 -9999 -9999 -9999 -9999 -9999 -9999 -9999 -9999 -9999
-9999 -9999 -9999 -9999 -9999 -9999 -9999 -9999 -9999 -9999 -9999 -9999 -9999 -9999 -9999 -9999 -9999 -9999 -9999 -9999 -9999 -9999 -9999 -9999 -9999 -9999 -9999 -9999 -9999 -9999 -9999 -9999 -9999 -9999 -9999 -9999 -9999 -9999 -9999 -9999 -9999 -9999 -9999 -9999 -9999 -9999 -9999 -9999 -9999 -9999 -9999 -9999 -9999 -9999 -9999 -9999 -9999 -9999 -9999 -9999 0.030 0.134 0.145 0.163 0.176 0.173 0.209 0.226 0.220 0.227 0.241 0.248 0.289 0.258 0.320 0.310 0.337 0.369 0.430 0.443 0.436 0.375 0.386 0.421 0.447 0.196 0.184 0.182 0.190 0.196 0.216 0.210 0.207 0.227 0.220 0.214 0.207 0.197 0.184 0.192 0.212 0.215 0.207 0.192 0.146 0.134 0.062 0.076 0.080 0.074 0.062 0.123 0.161 0.191 0.181 0.165 0.178 0.178 0.197 0.169 0.179 0.180 0.188 0.191 0.197 0.183 0.197 0.221 0.153 0.128 0.130 0.124 0.133 0.155 0.157 0.167 0.166 0.144 0.149 0.151 0.143 0.140 0.137 0.143 0.153 0.146 0.135 0.129 0.130 0.129 0.134 0.143 0.132 0.132 0.129 0.121 0.135 0.139 0.138 0.143 0.000 0.000 -9999 -9999 -9999 -9999 -9999 -9999 -9999 -9999 -9999 -9999 -9999 -9999 -9999 -9999 -9999 -9999 -9999 -9999 -9999 -9999 -9999 -9999 -9999 -9999 -9999 -9999 -9999 -9999 -9999 -9999 -9999 -9999 -9999 -9999 -9999 -9999 -9999 -9999 -9999 -9999 -9999 -9999 -9999 -9999 -9999 -9999 -9999 -9999 -9999 -9999 -9999 -9999 -9999 -9999 -9999 -9999 -9999 -9999 -9999 -9999 -9999 -9999 -9999 -9999 -9999 -9999 -9999 -9999 -9999 -9999 -9999 -9999
-9999 -9999 -9999 -9999 -9999 -9999 -9999 -9999 -9999 -9999 -9999 -9999 -9999 -9999 -9999 -9999 -9999 -9999 -9999 -9999 -9999 -9999 -9999 -9999 -9999 -9999 -9999 -9999 -9999 -9999 -9999 -9999 -9999 -9999 -9999 -9999 -9999 -9999 -9999 -9999 -9999 -9999 -9999 -9999 -9999 -9999 -9999 -9999 -9999 -9999 -9999 -9999 -9999 -9999 -9999 -9999 -9999 -9999 -9999 -9999 -9999 0.043 0.157 0.180 0.209 0.164 0.190 0.219 0.241 0.232 0.236 0.257 0.249 0.263 0.323 0.342 0.336 0.368 0.440 0.433 0.400 0.380 0.389 0.410 0.426 0.194 0.201 0.173 0.203 0.224 0.217 0.240 0.213 0.224 0.217 0.195 0.173 0.183 0.194 0.188 0.216 0.206 0.199 0.183 0.190 0.127 0.058 0.061 0.069 0.074 0.138 0.141 0.183 0.185 0.175 0.183 0.187 0.170 0.174 0.176 0.162 0.190 0.182 0.173 0.162 0.147 0.165 0.151 0.165 0.132 0.122 0.132 0.131 0.128 0.152 0.151 0.142 0.142 0.147 0.153 0.145 0.143 0.142 0.144 0.148 0.151 0.144 0.144 0.140 0.150 0.146 0.134 0.142 0.129 0.121 0.111 0.121 0.114 0.114 0.000 -9999 -9999 -9999 -9999 -9999 -9999 -9999 -9999 -9999 -9999 -9999 -9999 -9999 -9999 -9999 -9999 -9999 -9999 -9999 -9999 -9999 -9999 -9999 -9999 -9999 -9999 -9999 -9999 -9999 -9999 -9999 -9999 -9999 -9999 -9999 -9999 -9999 -9999 -9999 -9999 -9999 -9999 -9999 -9999 -9999 -9999 -9999 -9999 -9999 -9999 -9999 -9999 -9999 -9999 -9999 -9999 -9999 -9999 -9999 -9999 -9999 -9999 -9999 -9999 -9999 -9999 -9999 -9999 -9999 -9999 -9999 -9999 -9999 -9999
-9999 -9999 -9999 -9999 -9999 -9999 -9999 -9999 -9999 -9999 -9999 -9999 -9999 -9999 -9999 -9999 -9999 -9999 -9999 -9999 -9999 -9999 -9999 -9999 -9999 -9999 -9999 -9999 -9999 -9999 -9999 -9999 -9999 -9999 -9999 -9999 -9999 -9999 -9999 -9999 -9999 -9999 -9999 -9999 -9999 -9999 -9999 -9999 -9999 -9999 -9999 -9999 -9999 -9999 -9999 -9999 -9999 -9999 -9999 -9999 -9999 0.085 0.157 0.191 0.187 0.165 0.204 0.219 0.232 0.220 0.229 0.242 0.240 0.284 0.338 0.349 0.322 0.362 0.425 0.416 0.407 0.453 0.416 0.392 0.385 0.188 0.197 0.202 0.174 0.199 0.212 0.225 0.220 0.216 0.222 0.196 0.190 0.173 0.169 0.182 0.182 0.186 0.186 0.190 0.190 0.171 0.142 0.058 0.061 0.069 0.131 0.146 0.182 0.171 0.163 0.167 0.184 0.172 0.162 0.184 0.157 0.155 0.152 0.146 0.151 0.157 0.180 0.165 0.167 0.140 0.149 0.150 0.158 0.149 0.153 0.190 0.167 0.134 0.117 0.136 0.146 0.143 0.139 0.140 0.147 0.148 0.154 0.148 0.145 0.141 0.130 0.151 0.142 0.138 0.122 0.108 0.000 -9999 -9999 -9999 -9999 -9999 -9999 -9999 -9999 -9999 -9999 -9999 -9999 -9999 -9999 -9999 -9999 -9999 -9999 -9999 -9999 -9999 -9999 -9999 -9999 -9999 -9999 -9999 -9999 -9999 -9999 -9999 -9999 -9999 -9999 -9999 -9999 -9999 -9999 -9999 -9999 -9999 -9999 -9999 -9999 -9999 -9999 -9999 -9999 -9999 -9999 -9999 -9999 -9999 -9999 -9999 -9999 -9999 -9999 -9999 -9999 -9999 -9999 -9999 -9999 -9999 -9999 -9999 -9999 -9999 -9999 -9999 -9999 -9999 -9999 -9999 -9999 -9999
-9999 -9999 -9999 -9999 -9999 -9999 -9999 -9999 -9999 -9999 -9999 -9999 -9999 -9999 -9999 -9999 -9999 -9999 -9999 -9999 -9999 -9999 -9999 -9999 -9999 -9999 -9999 -9999 -9999 -9999 -9999 -9999 -9999 -9999 -9999 -9999 -9999 -9999 -9999 -9999 -9999 -9999 -9999 -9999 -9999 -9999 -9999 -9999 -9999 -9999 -9999 -9999 -9999 -9999 -9999 -9999 -9999 -9999 -9999 -9999 -9999 0.128 0.153 0.182 0.176 0.170 0.192 0.204 0.208 0.242 0.279 0.248 0.251 0.288 0.314 0.333 0.330 0.357 0.432 0.411 0.410 0.443 0.439 0.457 0.468 0.179 0.194 0.202 0.213 0.191 0.219 0.214 0.221 0.213 0.202 0.209 0.197 0.175 0.172 0.178 0.188 0.177 0.178 0.178 0.174 0.167 0.165 0.131 0.054 0.058 0.065 0.115 0.163 0.157 0.150 0.173 0.192 0.171 0.169 0.146 0.147 0.162 0.186 0.188 0.170 0.175 0.183 0.197 0.144 0.154 0.167 0.164 0.167 0.170 0.173 0.169 0.175 0.151 0.131 0.136 0.139 0.165 0.136 0.142 0.137 0.142 0.137 0.127 0.118 0.113 0.121 0.147 0.134 0.118 0.000 -9999 -9999 -9999 -9999 -9999 -9999 -9999 -9999 -9999 -9999 -9999 -9999 -9999 -9999 -9999 -9999 -9999 -9999 -9999 -9999 -9999 -9999 -9999 -9999 -9999 -9999 -9999 -9999 -9999 -9999 -9999 -9999 -9999 -9999 -9999 -9999 -9999 -9999 -9999 -9999 -9999 -9999 -9999 -9999 -9999 -9999 -9999 -9999 -9999 -9999 -9999 -9999 -9999 -9999 -9999 -9999 -9999 -9999 -9999 -9999 -9999 -9999 -9999 -9999 -9999 -9999 -9999 -9999 -9999 -9999 -9999 -9999 -9999 -9999 -9999 -9999 -9999 -9999 -9999
-9999 -9999 -9999 -9999 -9999 -9999 -9999 -9999 -9999 -9999 -9999 -9999 -9999 -9999 -9999 -9999 -9999 -9999 -9999 -9999 -9999 -9999 -9999 -9999 -9999 -9999 -9999 -9999 -9999 -9999 -9999 -9999 -9999 -9999 -9999 -9999 -9999 -9999 -9999 -9999 -9999 -9999 -9999 -9999 -9999 -9999 -9999 -9999 -9999 -9999 -9999 -9999 -9999 -9999 -9999 -9999 -9999 -9999 -9999 -9999 -9999 0.121 0.149 0.188 0.169 0.160 0.181 0.210 0.218 0.213 0.245 0.285 0.262 0.267 0.322 0.324 0.336 0.404 0.413 0.402 0.423 0.406 0.458 0.457 0.434 0.376 0.192 0.205 0.206 0.180 0.200 0.232 0.209 0.215 0.207 0.207 0.184 0.187 0.193 0.177 0.171 0.169 0.170 0.161 0.214 0.184 0.198 0.156 0.155 0.149 0.126 0.134 0.155 0.180 0.150 0.142 0.147 0.144 0.142 0.167 0.169 0.164 0.171 0.191 0.184 0.188 0.201 0.186 0.180 0.135 0.153 0.154 0.165 0.158 0.165 0.155 0.141 0.160 0.136 0.145 0.153 0.141 0.141 0.140 0.128 0.129 0.122 0.110 0.104 0.105 0.124 0.117 0.119 -9999 -9999 -9999 -9999 -9999 -9999 -9999 -9999 -9999 -9999 -9999 -9999 -9999 -9999 -9999 -9999 -9999 -9999 -9999 -9999 -9999 -9999 -9999 -9999 -9999 -9999 -9999 -9999 -9999 -9999 -9999 -9999 -9999 -9999 -9999 -9999 -9999 -9999 -9999 -9999 -9999 -9999 -9999 -9999 -9999 -9999 -9999 -9999 -9999 -9999 -9999 -9999 -9999 -9999 -9999 -9999 -9999 -9999 -9999 -9999 -9999 -9999 -9999 -9999 -9999 -9999 -9999 -9999 -9999 -9999 -9999 -9999 -9999 -9999 -9999 -9999 -9999 -9999 -9999 -9999 -9999
-9999 -9999 -9999 -9999 -9999 -9999 -9999 -9999 -9999 -9999 -9999 -9999 -9999 -9999 -9999 -9999 -9999 -9999 -9999 -9999 -9999 -9999 -9999 -9999 -9999 -9999 -9999 -9999 -9999 -9999 -9999 -9999 -9999 -9999 -9999 -9999 -9999 -9999 -9999 -9999 -9999 -9999 -9999 -9999 -9999 -9999 -9999 -9999 -9999 -9999 -9999 -9999 -9999 -9999 -9999 -9999 -9999 -9999 -9999 -9999 -9999 0.126 0.134 0.192 0.162 0.169 0.205 0.212 0.220 0.259 0.280 0.280 0.308 0.324 0.344 0.340 0.344 0.409 0.429 0.407 0.422 0.421 0.436 0.450 0.472 0.468 0.194 0.201 0.216 0.167 0.194 0.209 0.197 0.219 0.211 0.203 0.182 0.188 0.209 0.212 0.187 0.187 0.252 0.163 0.183 0.186 0.192 0.168 0.162 0.149 0.145 0.120 0.136 0.151 0.146 0.153 0.146 0.147 0.141 0.156 0.182 0.165 0.173 0.204 0.196 0.165 0.190 0.209 0.173 0.122 0.122 0.157 0.160 0.143 0.145 0.134 0.115 0.113 0.115 0.155 0.158 0.141 0.150 0.142 0.134 0.119 0.114 0.110 0.115 0.108 0.114 0.000 -9999 -9999 -9999 -9999 -9999 -9999 -9999 -9999 -9999 -9999 -9999 -9999 -9999 -9999 -9999 -9999 -9999 -9999 -9999 -9999 -9999 -9999 -9999 -9999 -9999 -9999 -9999 -9999 -9999 -9999 -9999 -9999 -9999 -9999 -9999 -9999 -9999 -9999 -9999 -9999 -9999 -9999 -9999 -9999 -9999 -9999 -9999 -9999 -9999 -9999 -9999 -9999 -9999 -9999 -9999 -9999 -9999 -9999 -9999 -9999 -9999 -9999 -9999 -9999 -9999 -9999 -9999 -9999 -9999 -9999 -9999 -9999 -9999 -9999 -9999 -9999 -9999 -9999 -9999 -9999 -9999 -9999
-9999 -9999 -9999 -9999 -9999 -9999 -9999 -9999 -9999 -9999 -9999 -9999 -9999 -9999 -9999 -9999 -9999 -9999 -9999 -9999 -9999 -9999 -9999 -9999 -9999 -9999 -9999 -9999 -9999 -9999 -9999 -9999 -9999 -9999 -9999 -9999 -9999 -9999 -9999 -9999 -9999 -9999 -9999 -9999 -9999 -9999 -9999 -9999 -9999 -9999 -9999 -9999 -9999 -9999 -9999 -9999 -9999 -9999 -9999 -9999 0.108 0.113 0.143 0.190 0.175 0.180 0.214 0.229 0.255 0.272 0.279 0.304 0.333 0.344 0.333 0.346 0.367 0.363 0.360 0.333 0.357 0.389 0.464 0.425 0.478 0.213 0.192 0.205 0.219 0.164 0.175 0.193 0.190 0.230 0.213 0.215 0.161 0.180 0.188 0.211 0.195 0.180 0.227 0.175 0.178 0.187 0.183 0.167 0.156 0.161 0.147 0.114 0.105 0.148 0.159 0.164 0.184 0.163 0.146 0.167 0.174 0.170 0.165 0.189 0.209 0.152 0.167 0.192 0.181 0.166 0.157 0.124 0.128 0.131 0.134 0.142 0.118 0.136 0.137 0.167 0.156 0.151 0.152 0.139 0.116 0.124 0.132 0.148 0.116 0.107 0.000 -9999 -9999 -9999 -9999 -9999 -9999 -9999 -9999 -9999 -9999 -9999 -9999 -9999 -9999 -9999 -9999 -9999 -9999 -9999 -9999 -9999 -9999 -9999 -9999 -9999 -9999 -9999 -9999 -9999 -9999 -9999 -9999 -9999 -9999 -9999 -9999 -9999 -9999 -9999 -9999 -9999 -9999 -9999 -9999 -9999 -9999 -9999 -9999 -9999 -9999 -9999 -9999 -9999 -9999 -9999 -9999 -9999 -9999 -9999 -9999 -9999 -9999 -9999 -9999 -9999 -9999 -9999 -9999 -9999 -9999 -9999 -9999 -9999 -9999 -9999 -9999 -9999 -9999 -9999 -9999 -9999 -9999 -9999
-9999 -9999 -9999 -9999 -9999 -9999 -9999 -9999 -9999 -9999 -9999 -9999 -9999 -9999 -9999 -9999 -9999 -9999 -9999 -9999 -9999 -9999 -9999 -9999 -9999 -9999 -9999 -9999 -9999 -9999 -9999 -9999 -9999 -9999 -9999 -9999 -9999 -9999 -9999 -9999 -9999 -9999 -9999 -9999 -9999 -9999 -9999 -9999 -9999 -9999 -9999 -9999 -9999 -9999 -9999 -9999 -9999 -9999 -9999 -9999 0.110 0.130 0.160 0.151 0.192 0.179 0.221 0.234 0.271 0.254 0.248 0.279 0.326 0.336 0.326 0.346 0.345 0.434 0.357 0.362 0.339 0.367 0.356 0.426 0.455 0.211 0.186 0.209 0.207 0.172 0.188 0.193 0.180 0.212 0.196 0.188 0.157 0.161 0.185 0.190 0.203 0.196 0.162 0.174 0.165 0.177 0.156 0.156 0.148 0.148 0.146 0.130 0.132 0.114 0.141 0.171 0.184 0.178 0.143 0.183 0.167 0.151 0.168 0.186 0.186 0.156 0.179 0.147 0.151 0.171 0.159 0.167 0.158 0.141 0.138 0.141 0.134 0.163 0.150 0.180 0.159 0.160 0.150 0.142 0.128 0.151 0.143 0.138 0.125 0.111 -9999 -9999 -9999 -9999 -9999 -9999 -9999 -9999 -9999 -9999 -9999 -9999 -9999 -9999 -9999 -9999 -9999 -9999 -9999 -9999 -9999 -9999 -9999 -9999 -9999 -9999 -9999 -9999 -9999 -9999 -9999 -9999 -9999 -9999 -9999 -9999 -9999 -9999 -9999 -9999 -9999 -9999 -9999 -9999 -9999 -9999 -9999 -9999 -9999 -9999 -9999 -9999 -9999 -9999 -9999 -9999 -9999 -9999 -9999 -9999 -9999 -9999 -9999 -9999 -9999 -9999 -9999 -9999 -9999 -9999 -9999 -9999 -9999 -9999 -9999 -9999 -9999 -9999 -9999 -9999 -9999 -9999 -9999 -9999
-9999 -9999 -9999 -9999 -9999 -9999 -9999 -9999 -9999 -9999 -9999 -9999 -9999 -9999 -9999 -9999 -9999 -9999 -9999 -9999 -9999 -9999 -9999 -9999 -9999 -9999 -9999 -9999 -9999 -9999 -9999 -9999 -9999 -9999 -9999 -9999 -9999 -9999 -9999 -9999 -9999 -9999 -9999 -9999 -9999 -9999 -9999 -9999 -9999 -9999 -9999 -9999 -9999 -9999 -9999 -9999 -9999 -9999 -9999 -9999 0.113 0.172 0.183 0.164 0.177 0.193 0.210 0.244 0.256 0.245 0.276 0.299 0.334 0.348 0.361 0.406 0.425 0.425 0.349 0.354 0.316 0.364 0.375 0.382 0.387 0.470 0.412 0.205 0.182 0.161 0.175 0.177 0.174 0.196 0.196 0.170 0.168 0.158 0.170 0.170 0.196 0.207 0.174 0.184 0.172 0.175 0.169 0.153 0.156 0.154 0.136 0.156 0.130 0.115 0.120 0.140 0.154 0.134 0.137 0.163 0.131 0.128 0.191 0.186 0.156 0.166 0.179 0.161 0.170 0.176 0.164 0.169 0.161 0.151 0.126 0.149 0.148 0.150 0.149 0.161 0.167 0.151 0.124 0.106 0.124 0.129 0.154 0.148 0.117 -9999 -9999 -9999 -9999 -9999 -9999 -9999 -9999 -9999 -9999 -9999 -9999 -9999 -9999 -9999 -9999 -9999 -9999 -9999 -9999 -9999 -9999 -9999 -9999 -9999 -9999 -9999 -9999 -9999 -9999 -9999 -9999 -9999 -9999 -9999 -9999 -9999 -9999 -9999 -9999 -9999 -9999 -9999 -9999 -9999 -9999 -9999 -9999 -9999 -9999 -9999 -9999 -9999 -9999 -9999 -9999 -9999 -9999 -9999 -9999 -9999 -9999 -9999 -9999 -9999 -9999 -9999 -9999 -9999 -9999 -9999 -9999 -9999 -9999 -9999 -9999 -9999 -9999 -9999 -9999 -9999 -9999 -9999 -9999 -9999
-9999 -9999 -9999 -9999 -9999 -9999 -9999 -9999 -9999 -9999 -9999 -9999 -9999 -9999 -9999 -9999 -9999 -9999 -9999 -9999 -9999 -9999 -9999 -9999 -9999 -9999 -9999 -9999 -9999 -9999 -9999 -9999 -9999 -9999 -9999 -9999 -9999 -9999 -9999 -9999 -9999 -9999 -9999 -9999 -9999 -9999 -9999 -9999 -9999 -9999 -9999 -9999 -9999 -9999 -9999 -9999 -9999 -9999 -9999 -9999 0.142 0.165 0.174 0.156 0.168 0.187 0.196 0.244 0.248 0.264 0.282 0.276 0.292 0.337 0.344 0.503 0.410 0.398 0.425 0.388 0.335 0.360 0.394 0.376 0.344 0.351 0.407 0.446 0.175 0.170 0.171 0.174 0.175 0.189 0.216 0.174 0.173 0.168 0.166 0.189 0.188 0.210 0.189 0.168 0.163 0.161 0.151 0.156 0.155 0.152 0.160 0.170 0.145 0.120 0.122 0.124 0.117 0.128 0.131 0.136 0.128 0.152 0.191 0.181 0.160 0.173 0.166 0.164 0.171 0.181 0.160 0.164 0.155 0.131 0.139 0.149 0.161 0.142 0.130 0.139 0.131 0.119 0.126 0.095 0.115 0.127 0.135 0.115 -9999 -9999 -9999 -9999 -9999 -9999 -9999 -9999 -9999 -9999 -9999 -9999 -9999 -9999 -9999 -9999 -9999 -9999 -9999 -9999 -9999 -9999 -9999 -9999 -9999 -9999 -9999 -9999 -9999 -9999 -9999 -9999 -9999 -9999 -9999 -9999 -9999 -9999 -9999 -9999 -9999 -9999 -9999 -9999 -9999 -9999 -9999 -9999 -9999 -9999 -9999 -9999 -9999 -9999 -9999 -9999 -9999 -9999 -9999 -9999 -9999 -9999 -9999 -9999 -9999 -9999 -9999 -9999 -9999 -9999 -9999 -9999 -9999 -9999 -9999 -9999 -9999 -9999 -9999 -9999 -9999 -9999 -9999 -9999 -9999 -9999
-9999 -9999 -9999 -9999 -9999 -9999 -9999 -9999 -9999 -9999 -9999 -9999 -9999 -9999 -9999 -9999 -9999 -9999 -9999 -9999 -9999 -9999 -9999 -9999 -9999 -9999 -9999 -9999 -9999 -9999 -9999 -9999 -9999 -9999 -9999 -9999 -9999 -9999 -9999 -9999 -9999 -9999 -9999 -9999 -9999 -9999 -9999 -9999 -9999 -9999 -9999 -9999 -9999 -9999 -9999 -9999 -9999 -9999 -9999 0.143 0.157 0.168 0.153 0.142 0.154 0.187 0.223 0.236 0.234 0.264 0.289 0.280 0.299 0.309 0.333 0.403 0.509 0.416 0.417 0.379 0.342 0.366 0.352 0.404 0.386 0.386 0.414 0.422 0.188 0.177 0.171 0.183 0.176 0.201 0.220 0.189 0.182 0.157 0.190 0.234 0.204 0.194 0.216 0.160 0.175 0.160 0.150 0.184 0.186 0.173 0.174 0.219 0.205 0.163 0.106 0.122 0.115 0.116 0.091 0.105 0.125 0.142 0.138 0.146 0.132 0.139 0.129 0.132 0.180 0.155 0.147 0.139 0.133 0.151 0.176 0.157 0.151 0.138 0.137 0.147 0.143 0.127 0.138 0.096 0.000 0.110 0.000 0.000 -9999 -9999 -9999 -9999 -9999 -9999 -9999 -9999 -9999 -9999 -9999 -9999 -9999 -9999 -9999 -9999 -9999 -9999 -9999 -9999 -9999 -9999 -9999 -9999 -9999 -9999 -9999 -9999 -9999 -9999 -9999 -9999 -9999 -9999 -9999 -9999 -9999 -9999 -9999 -9999 -9999 -9999 -9999 -9999 -9999 -9999 -9999 -9999 -9999 -9999 -9999 -9999 -9999 -9999 -9999 -9999 -9999 -9999 -9999 -9999 -9999 -9999 -9999 -9999 -9999 -9999 -9999 -9999 -9999 -9999 -9999 -9999 -9999 -9999 -9999 -9999 -9999 -9999 -9999 -9999 -9999 -9999 -9999 -9999 -9999 -9999
-9999 -9999 -9999 -9999 -9999 -9999 -9999 -9999 -9999 -9999 -9999 -9999 -9999 -9999 -9999 -9999 -9999 -9999 -9999 -9999 -9999 -9999 -9999 -9999 -9999 -9999 -9999 -9999 -9999 -9999 -9999 -9999 -9999 -9999 -9999 -9999 -9999 -9999 -9999 -9999 -9999 -9999 -9999 -9999 -9999 -9999 -9999 -9999 -9999 -9999 -9999 -9999 -9999 -9999 -9999 -9999 -9999 -9999 -9999 0.224 0.146 0.149 0.180 0.161 0.151 0.186 0.209 0.216 0.240 0.243 0.283 0.289 0.300 0.310 0.374 0.388 0.401 0.408 0.439 0.356 0.362 0.353 0.353 0.368 0.388 0.388 0.428 0.426 0.151 0.162 0.160 0.168 0.182 0.193 0.196 0.195 0.168 0.188 0.196 0.198 0.235 0.226 0.198 0.152 0.174 0.143 0.178 0.245 0.174 0.170 0.184 0.206 0.202 0.191 0.165 0.138 0.097 0.093 0.095 0.119 0.126 0.122 0.130 0.124 0.131 0.150 0.133 0.132 0.142 0.142 0.136 0.144 0.150 0.156 0.159 0.139 0.136 0.148 0.134 0.153 0.149 0.133 0.118 0.106 0.000 0.105 -9999 -9999 -9999 -9999 -9999 -9999 -9999 -9999 -9999 -9999 -9999 -9999 -9999 -9999 -9999 -9999 -9999 -9999 -9999 -9999 -9999 -9999 -9999 -9999 -9999 -9999 -9999 -9999 -9999 -9999 -9999 -9999 -9999 -9999 -9999 -9999 -9999 -9999 -9999 -9999 -9999 -9999 -9999 -9999 -9999 -9999 -9999 -9999 -9999 -9999 -9999 -9999 -9999 -9999 -9999 -9999 -9999 -9999 -9999 -9999 -9999 -9999 -9999 -9999 -9999 -9999 -9999 -9999 -9999 -9999 -9999 -9999 -9999 -9999 -9999 -9999 -9999 -9999 -9999 -9999 -9999 -9999 -9999 -9999 -9999 -9999 -9999 -9999
-9999 -9999 -9999 -9999 -9999 -9999 -9999 -9999 -9999 -9999 -9999 -9999 -9999 -9999 -9999 -9999 -9999 -9999 -9999 -9999 -9999 -9999 -9999 -9999 -9999 -9999 -9999 -9999 -9999 -9999 -9999 -9999 -9999 -9999 -9999 -9999 -9999 -9999 -9999 -9999 -9999 -9999 -9999 -9999 -9999 -9999 -9999 -9999 -9999 -9999 -9999 -9999 -9999 -9999 -9999 -9999 -9999 -9999 -9999 -9999 0.147 0.152 0.207 0.191 0.169 0.170 0.201 0.193 0.222 0.239 0.282 0.362 0.445 1.069 1.111 1.137 0.405 0.402 0.429 0.350 0.334 0.358 0.346 0.370 0.365 0.391 0.402 0.406 0.164 0.162 0.146 0.160 0.166 0.158 0.183 0.167 0.196 0.191 0.187 0.201 0.214 0.219 0.151 0.169 0.163 0.156 0.210 0.203 0.235 0.192 0.187 0.251 0.206 0.202 0.186 0.181 0.159 0.136 0.134 0.100 0.114 0.127 0.129 0.124 0.134 0.135 0.139 0.147 0.156 0.156 0.160 0.142 0.140 0.144 0.173 0.162 0.125 0.125 0.137 0.149 0.157 0.114 0.121 0.118 0.111 0.000 -9999 -9999 -9999 -9999 -9999 -9999 -9999 -9999 -9999 -9999 -9999 -9999 -9999 -9999 -9999 -9999 -9999 -9999 -9999 -9999 -9999 -9999 -9999 -9999 -9999 -9999 -9999 -9999 -9999 -9999 -9999 -9999 -9999 -9999 -9999 -9999 -9999 -9999 -9999 -9999 -9999 -9999 -9999 -9999 -9999 -9999 -9999 -9999 -9999 -9999 -9999 -9999 -9999 -9999 -9999 -9999 -9999 -9999 -9999 -9999 -9999 -9999 -9999 -9999 -9999 -9999 -9999 -9999 -9999 -9999 -9999 -9999 -9999 -9999 -9999 -9999 -9999 -9999 -9999 -9999 -9999 -9999 -9999 -9999 -9999 -9999 -9999 -9999
-9999 -9999 -9999 -9999 -9999 -9999 -9999 -9999 -9999 -9999 -9999 -9999 -9999 -9999 -9999 -9999 -9999 -9999 -9999 -9999 -9999 -9999 -9999 -9999 -9999 -9999 -9999 -9999 -9999 -9999 -9999 -9999 -9999 -9999 -9999 -9999 -9999 -9999 -9999 -9999 -9999 -9999 -9999 -9999 -9999 -9999 -9999 -9999 -9999 -9999 -9999 -9999 -9999 -9999 -9999 -9999 -9999 -9999 -9999 -9999 0.171 0.157 0.189 0.203 0.171 0.165 0.192 0.186 0.218 0.233 0.271 0.633 0.631 1.090 1.083 1.110 0.475 0.403 0.427 0.345 0.331 0.314 0.340 0.364 0.355 0.344 0.376 0.422 0.160 0.152 0.154 0.162 0.168 0.173 0.168 0.164 0.192 0.166 0.179 0.163 0.175 0.167 0.145 0.153 0.138 0.169 0.206 0.213 0.216 0.213 0.288 0.293 0.191 0.182 0.259 0.257 0.244 0.185 0.142 0.132 0.128 0.122 0.148 0.126 0.128 0.135 0.150 0.162 0.165 0.166 0.157 0.148 0.182 0.174 0.184 0.168 0.150 0.118 0.115 0.105 0.136 0.115 0.137 0.105 0.000 -9999 -9999 -9999 -9999 -9999 -9999 -9999 -9999 -9999 -9999 -9999 -9999 -9999 -9999 -9999 -9999 -9999 -9999 -9999 -9999 -9999 -9999 -9999 -9999 -9999 -9999 -9999 -9999 -9999 -9999 -9999 -9999 -9999 -9999 -9999 -9999 -9999 -9999 -9999 -9999 -9999 -9999 -9999 -9999 -9999 -9999 -9999 -9999 -9999 -9999 -9999 -9999 -9999 -9999 -9999 -9999 -9999 -9999 -9999 -9999 -9999 -9999 -9999 -9999 -9999 -9999 -9999 -9999 -9999 -9999 -9999 -9999 -9999 -9999 -9999 -9999 -9999 -9999 -9999 -9999 -9999 -9999 -9999 -9999 -9999 -9999 -9999 -9999 -9999
-9999 -9999 -9999 -9999 -9999 -9999 -9999 -9999 -9999 -9999 -9999 -9999 -9999 -9999 -9999 -9999 -9999 -9999 -9999 -9999 -9999 -9999 -9999 -9999 -9999 -9999 -9999 -9999 -9999 -9999 -9999 -9999 -9999 -9999 -9999 -9999 -9999 -9999 -9999 -9999 -9999 -9999 -9999 -9999 -9999 -9999 -9999 -9999 -9999 -9999 -9999 -9999 -9999 -9999 -9999 -9999 -9999 -9999 -9999 -9999 0.530 0.153 0.181 0.226 0.156 0.169 0.191 0.193 0.233 0.231 0.264 0.609 1.059 1.095 1.091 1.080 0.487 0.387 0.421 0.340 0.347 0.342 0.327 0.370 0.328 0.363 0.385 0.408 0.155 0.157 0.172 0.151 0.154 0.155 0.148 0.139 0.184 0.181 0.184 0.178 0.168 0.170 0.159 0.164 0.167 0.169 0.186 0.189 0.257 0.234 0.245 0.213 0.195 0.180 0.192 0.195 0.263 0.294 0.149 0.162 0.130 0.130 0.131 0.167 0.169 0.144 0.136 0.167 0.176 0.154 0.155 0.208 0.178 0.167 0.171 0.168 0.173 0.130 0.099 0.106 0.127 0.111 0.132 0.000 -9999 -9999 -9999 -9999 -9999 -9999 -9999 -9999 -9999 -9999 -9999 -9999 -9999 -9999 -9999 -9999 -9999 -9999 -9999 -9999 -9999 -9999 -9999 -9999 -9999 -9999 -9999 -9999 -9999 -9999 -9999 -9999 -9999 -9999 -9999 -9999 -9999 -9999 -9999 -9999 -9999 -9999 -9999 -9999 -9999 -9999 -9999 -9999 -9999 -9999 -9999 -9999 -9999 -9999 -9999 -9999 -9999 -9999 -9999 -9999 -9999 -9999 -9999 -9999 -9999 -9999 -9999 -9999 -9999 -9999 -9999 -9999 -9999 -9999 -9999 -9999 -9999 -9999 -9999 -9999 -9999 -9999 -9999 -9999 -9999 -9999 -9999 -9999 -9999 -9999
-9999 -9999 -9999 -9999 -9999 -9999 -9999 -9999 -9999 -9999 -9999 -9999 -9999 -9999 -9999 -9999 -9999 -9999 -9999 -9999 -9999 -9999 -9999 -9999 -9999 -9999 -9999 -9999 -9999 -9999 -9999 -9999 -9999 -9999 -9999 -9999 -9999 -9999 -9999 -9999 -9999 -9999 -9999 -9999 -9999 -9999 -9999 -9999 -9999 -9999 -9999 -9999 -9999 -9999 -9999 -9999 -9999 -9999 -9999 -9999 -9999 0.168 0.173 0.220 0.164 0.165 0.185 0.199 0.218 0.236 0.253 0.601 0.626 1.039 1.042 1.078 1.097 0.383 0.393 0.328 0.159 0.150 0.151 0.314 0.332 0.328 0.351 0.344 0.171 0.148 0.157 0.157 0.140 0.150 0.141 0.158 0.167 0.175 0.173 0.185 0.166 0.161 0.161 0.186 0.166 0.183 0.173 0.175 0.227 0.227 0.205 0.178 0.202 0.177 0.212 0.207 0.236 0.244 0.148 0.169 0.144 0.124 0.119 0.155 0.155 0.155 0.166 0.146 0.151 0.152 0.227 0.210 0.183 0.182 0.183 0.174 0.168 0.131 0.103 0.119 0.113 0.000 0.000 -9999 -9999 -9999 -9999 -9999 -9999 -9999 -9999 -9999 -9999 -9999 -9999 -9999 -9999 -9999 -9999 -9999 -9999 -9999 -9999 -9999 -9999 -9999 -9999 -9999 -9999 -9999 -9999 -9999 -9999 -9999 -9999 -9999 -9999 -9999 -9999 -9999 -9999 -9999 -9999 -9999 -9999 -9999 -9999 -9999 -9999 -9999 -9999 -9999 -9999 -9999 -9999 -9999 -9999 -9999 -9999 -9999 -9999 -9999 -9999 -9999 -9999 -9999 -9999 -9999 -9999 -9999 -9999 -9999 -9999 -9999 -9999 -9999 -9999 -9999 -9999 -9999 -9999 -9999 -9999 -9999 -9999 -9999 -9999 -9999 -9999 -9999 -9999 -9999 -9999 -9999
-9999 -9999 -9999 -9999 -9999 -9999 -9999 -9999 -9999 -9999 -9999 -9999 -9999 -9999 -9999 -9999 -9999 -9999 -9999 -9999 -9999 -9999 -9999 -9999 -9999 -9999 -9999 -9999 -9999 -9999 -9999 -9999 -9999 -9999 -9999 -9999 -9999 -9999 -9999 -9999 -9999 -9999 -9999 -9999 -9999 -9999 -9999 -9999 -9999 -9999 -9999 -9999 -9999 -9999 -9999 -9999 -9999 -9999 -9999 -9999 -9999 0.162 0.179 0.213 0.161 0.169 0.174 0.210 0.226 0.230 0.258 1.041 1.053 1.053 1.039 1.077 1.115 0.473 0.328 0.154 0.152 0.147 0.150 0.144 0.286 0.149 0.166 0.164 0.176 0.165 0.154 0.156 0.164 0.160 0.185 0.169 0.156 0.157 0.146 0.162 0.165 0.173 0.170 0.157 0.149 0.175 0.164 0.187 0.201 0.217 0.232 0.185 0.217 0.191 0.204 0.194 0.206 0.213 0.155 0.150 0.145 0.132 0.127 0.141 0.142 0.158 0.159 0.171 0.170 0.216 0.222 0.197 0.185 0.188 0.168 0.161 0.162 0.139 0.118 0.143 0.000 0.109 -9999 -9999 -9999 -9999 -9999 -9999 -9999 -9999 -9999 -9999 -9999 -9999 -9999 -9999 -9999 -9999 -9999 -9999 -9999 -9999 -9999 -9999 -9999 -9999 -9999 -9999 -9999 -9999 -9999 -9999 -9999 -9999 -9999 -9999 -9999 -9999 -9999 -9999 -9999 -9999 -9999 -9999 -9999 -9999 -9999 -9999 -9999 -9999 -9999 -9999 -9999 -9999 -9999 -9999 -9999 -9999 -9999 -9999 -9999 -9999 -9999 -9999 -9999 -9999 -9999 -9999 -9999 -9999 -9999 -9999 -9999 -9999 -9999 -9999 -9999 -9999 -9999 -9999 -9999 -9999 -9999 -9999 -9999 -9999 -9999 -9999 -9999 -9999 -9999 -9999 -9999 -9999
-9999 -9999 -9999 -9999 -9999 -9999 -9999 -9999 -9999 -9999 -9999 -9999 -9999 -9999 -9999 -9999 -9999 -9999 -9999 -9999 -9999 -9999 -9999 -9999 -9999 -9999 -9999 -9999 -9999 -9999 -9999 -9999 -9999 -9999 -9999 -9999 -9999 -9999 -9999 -9999 -9999 -9999 -9999 -9999 -9999 -9999 -9999 -9999 -9999 -9999 -9999 -9999 -9999 -9999 -9999 -9999 -9999 -9999 -9999 -9999 -9999 0.163 0.179 0.205 0.156 0.145 0.178 0.200 0.200 0.236 0.254 1.026 0.608 0.607 0.619 1.074 1.115 0.674 0.143 0.143 0.138 0.139 0.133 0.123 0.104 0.122 0.152 0.187 0.190 0.167 0.152 0.160 0.179 0.170 0.169 0.159 0.174 0.170 0.153 0.154 0.165 0.164 0.180 0.141 0.135 0.181 0.194 0.203 0.250 0.252 0.214 0.215 0.219 0.205 0.203 0.179 0.222 0.189 0.149 0.159 0.158 0.163 0.162 0.144 0.118 0.138 0.167 0.175 0.168 0.169 0.221 0.183 0.190 0.165 0.174 0.169 0.158 0.150 0.134 0.135 0.113 -9999 -9999 -9999 -9999 -9999 -9999 -9999 -9999 -9999 -9999 -9999 -9999 -9999 -9999 -9999 -9999 -9999 -9999 -9999 -9999 -9999 -9999 -9999 -9999 -9999 -9999 -9999 -9999 -9999 -9999 -9999 -9999 -9999 -9999 -9999 -9999 -9999 -9999 -9999 -9999 -9999 -9999 -9999 -9999 -9999 -9999 -9999 -9999 -9999 -9999 -9999 -9999 -9999 -9999 -9999 -9999 -9999 -9999 -9999 -9999 -9999 -9999 -9999 -9999 -9999 -9999 -9999 -9999 -9999 -9999 -9999 -9999 -9999 -9999 -9999 -9999 -9999 -9999 -9999 -9999 -9999 -9999 -9999 -9999 -9999 -9999 -9999 -9999 -9999 -9999 -9999 -9999 -9999
-9999 -9999 -9999 -9999 -9999 -9999 -9999 -9999 -9999 -9999 -9999 -9999 -9999 -9999 -9999 -9999 -9999 -9999 -9999 -9999 -9999 -9999 -9999 -9999 -9999 -9999 -9999 -9999 -9999 -9999 -9999 -9999 -9999 -9999 -9999 -9999 -9999 -9999 -9999 -9999 -9999 -9999 -9999 -9999 -9999 -9999 -9999 -9999 -9999 -9999 -9999 -9999 -9999 -9999 -9999 -9999 -9999 -9999 -9999 -9999 -9999 0.116 0.160 0.200 0.181 0.160 0.181 0.189 0.186 0.240 0.255 0.350 0.620 0.629 0.604 1.075 1.102 0.637 0.295 0.138 0.134 0.122 0.107 0.097 0.116 0.115 0.141 0.177 0.201 0.166 0.155 0.170 0.153 0.159 0.153 0.159 0.176 0.158 0.154 0.160 0.180 0.176 0.184 0.154 0.173 0.198 0.209 0.216 0.233 0.315 0.288 0.219 0.224 0.177 0.187 0.195 0.195 0.190 0.151 0.169 0.170 0.154 0.168 0.170 0.158 0.123 0.151 0.162 0.171 0.191 0.200 0.182 0.182 0.165 0.147 0.158 0.156 0.148 0.161 0.163 0.000 -9999 -9999 -9999 -9999 -9999 -9999 -9999 -9999 -9999 -9999 -9999 -9999 -9999 -9999 -9999 -9999 -9999 -9999 -9999 -9999 -9999 -9999 -9999 -9999 -9999 -9999 -9999 -9999 -9999 -9999 -9999 -9999 -9999 -9999 -9999 -9999 -9999 -9999 -9999 -9999 -9999 -9999 -9999 -9999 -9999 -9999 -9999 -9999 -9999 -9999 -9999 -9999 -9999 -9999 -9999 -9999 -9999 -9999 -9999 -9999 -9999 -9999 -9999 -9999 -9999 -9999 -9999 -9999 -9999 -9999 -9999 -9999 -9999 -9999 -9999 -9999 -9999 -9999 -9999 -9999 -9999 -9999 -9999 -9999 -9999 -9999 -9999 -9999 -9999 -9999 -9999 -9999 -9999
-9999 -9999 -9999 -9999 -9999 -9999 -9999 -9999 -9999 -9999 -9999 -9999 -9999 -9999 -9999 -9999 -9999 -9999 -9999 -9999 -9999 -9999 -9999 -9999 -9999 -9999 -9999 -9999 -9999 -9999 -9999 -9999 -9999 -9999 -9999 -9999 -9999 -9999 -9999 -9999 -9999 -9999 -9999 -9999 -9999 -9999 -9999 -9999 -9999 -9999 -9999 -9999 -9999 -9999 -9999 -9999 -9999 -9999 -9999 -9999 -9999 0.036 0.176 0.177 0.172 0.168 0.170 0.200 0.189 0.238 0.256 0.275 0.616 0.450 0.625 0.622 1.087 0.353 0.132 0.133 0.139 0.115 0.091 0.123 0.142 0.114 0.145 0.165 0.182 0.167 0.160 0.169 0.164 0.157 0.172 0.173 0.175 0.153 0.158 0.170 0.161 0.188 0.181 0.134 0.162 0.179 0.195 0.203 0.291 0.362 0.363 0.282 0.206 0.160 0.176 0.176 0.178 0.188 0.151 0.168 0.172 0.144 0.158 0.173 0.177 0.125 0.128 0.178 0.215 0.184 0.206 0.199 0.183 0.156 0.151 0.166 0.137 0.141 0.133 0.129 -9999 -9999 -9999 -9999 -9999 -9999 -9999 -9999 -9999 -9999 -9999 -9999 -9999 -9999 -9999 -9999 -9999 -9999 -9999 -9999 -9999 -9999 -9999 -9999 -9999 -9999 -9999 -9999 -9999 -9999 -9999 -9999 -9999 -9999 -9999 -9999 -9999 -9999 -9999 -9999 -9999 -9999 -9999 -9999 -9999 -9999 -9999 -9999 -9999 -9999 -9999 -9999 -9999 -9999 -9999 -9999 -9999 -9999 -9999 -9999 -9999 -9999 -9999 -9999 -9999 -9999 -9999 -9999 -9999 -9999 -9999 -9999 -9999 -9999 -9999 -9999 -9999 -9999 -9999 -9999 -9999 -9999 -9999 -9999 -9999 -9999 -9999 -9999 -9999 -9999 -9999 -9999 -9999 -9999
-9999 -9999 -9999 -9999 -9999 -9999 -9999 -9999 -9999 -9999 -9999 -9999 -9999 -9999 -9999 -9999 -9999 -9999 -9999 -9999 -9999 -9999 -9999 -9999 -9999 -9999 -9999 -9999 -9999 -9999 -9999 -9999 -9999 -9999 -9999 -9999 -9999 -9999 -9999 -9999 -9999 -9999 -9999 -9999 -9999 -9999 -9999 -9999 -9999 -9999 -9999 -9999 -9999 -9999 -9999 -9999 -9999 -9999 -9999 -9999 -9999 0.128 0.149 0.176 0.186 0.171 0.165 0.184 0.171 0.220 0.289 0.251 0.344 0.341 0.356 0.358 0.360 0.374 0.294 0.126 0.138 0.119 0.090 0.118 0.123 0.127 0.132 0.170 0.159 0.147 0.147 0.160 0.151 0.164 0.176 0.188 0.169 0.161 0.183 0.172 0.176 0.169 0.163 0.138 0.152 0.153 0.171 0.196 0.283 0.343 0.351 0.291 0.197 0.167 0.152 0.169 0.151 0.151 0.145 0.160 0.173 0.145 0.139 0.156 0.156 0.157 0.122 0.152 0.177 0.161 0.188 0.184 0.154 0.138 0.131 0.123 0.112 0.114 0.132 -9999 -9999 -9999 -9999 -9999 -9999 -9999 -9999 -9999 -9999 -9999 -9999 -9999 -9999 -9999 -9999 -9999 -9999 -9999 -9999 -9999 -9999 -9999 -9999 -9999 -9999 -9999 -9999 -9999 -9999 -9999 -9999 -9999 -9999 -9999 -9999 -9999 -9999 -9999 -9999 -9999 -9999 -9999 -9999 -9999 -9999 -9999 -9999 -9999 -9999 -9999 -9999 -9999 -9999 -9999 -9999 -9999 -9999 -9999 -9999 -9999 -9999 -9999 -9999 -9999 -9999 -9999 -9999 -9999 -9999 -9999 -9999 -9999 -9999 -9999 -9999 -9999 -9999 -9999 -9999 -9999 -9999 -9999 -9999 -9999 -9999 -9999 -9999 -9999 -9999 -9999 -9999 -9999 -9999 -9999
-9999 -9999 -9999 -9999 -9999 -9999 -9999 -9999 -9999 -9999 -9999 -9999 -9999 -9999 -9999 -9999 -9999 -9999 -9999 -9999 -9999 -9999 -9999 -9999 -9999 -9999 -9999 -9999 -9999 -9999 -9999 -9999 -9999 -9999 -9999 -9999 -9999 -9999 -9999 -9999 -9999 -9999 -9999 -9999 -9999 -9999 -9999 -9999 -9999 -9999 -9999 -9999 -9999 -9999 -9999 -9999 -9999 -9999 0.037 0.032 0.035 0.134 0.152 0.147 0.165 0.171 0.155 0.164 0.176 0.205 0.234 0.241 0.284 0.336 0.308 0.366 0.346 0.300 0.273 0.133 0.142 0.143 0.107 0.116 0.135 0.125 0.122 0.167 0.141 0.134 0.136 0.142 0.146 0.144 0.158 0.168 0.168 0.157 0.152 0.158 0.166 0.146 0.154 0.174 0.172 0.171 0.187 0.190 0.218 0.269 0.282 0.208 0.197 0.162 0.149 0.157 0.142 0.151 0.141 0.166 0.181 0.187 0.141 0.158 0.163 0.157 0.136 0.134 0.171 0.183 0.179 0.181 0.183 0.154 0.117 0.115 0.106 -9999 -9999 -9999 -9999 -9999 -9999 -9999 -9999 -9999 -9999 -9999 -9999 -9999 -9999 -9999 -9999 -9999 -9999 -9999 -9999 -9999 -9999 -9999 -9999 -9999 -9999 -9999 -9999 -9999 -9999 -9999 -9999 -9999 -9999 -9999 -9999 -9999 -9999 -9999 -9999 -9999 -9999 -9999 -9999 -9999 -9999 -9999 -9999 -9999 -9999 -9999 -9999 -9999 -9999 -9999 -9999 -9999 -9999 -9999 -9999 -9999 -9999 -9999 -9999 -9999 -9999 -9999 -9999 -9999 -9999 -9999 -9999 -9999 -9999 -9999 -9999 -9999 -9999 -9999 -9999 -9999 -9999 -9999 -9999 -9999 -9999 -9999 -9999 -9999 -9999 -9999 -9999 -9999 -9999 -9999 -9999 -9999
-9999 -9999 -9999 -9999 -9999 -9999 -9999 -9999 -9999 -9999 -9999 -9999 -9999 -9999 -9999 -9999 -9999 -9999 -9999 -9999 -9999 -9999 -9999 -9999 -9999 -9999 -9999 -9999 -9999 -9999 -9999 -9999 -9999 -9999 -9999 -9999 -9999 -9999 -9999 -9999 -9999 -9999 -9999 -9999 -9999 -9999 -9999 -9999 -9999 -9999 -9999 -9999 -9999 -9999 -9999 -9999 -9999 -9999 0.021 0.097 0.143 0.146 0.166 0.160 0.165 0.151 0.166 0.175 0.186 0.182 0.225 0.240 0.271 0.373 0.382 0.385 0.359 0.297 0.120 0.131 0.141 0.148 0.132 0.134 0.117 0.115 0.141 0.161 0.154 0.136 0.123 0.135 0.146 0.136 0.152 0.138 0.149 0.152 0.166 0.189 0.190 0.137 0.166 0.169 0.176 0.156 0.185 0.213 0.221 0.250 0.228 0.203 0.184 0.159 0.150 0.141 0.147 0.132 0.150 0.155 0.170 0.168 0.162 0.165 0.164 0.160 0.155 0.130 0.151 0.205 0.182 0.163 0.147 0.138 0.117 0.116 -9999 -9999 -9999 -9999 -9999 -9999 -9999 -9999 -9999 -9999 -9999 -9999 -9999 -9999 -9999 -9999 -9999 -9999 -9999 -9999 -9999 -9999 -9999 -9999 -9999 -9999 -9999 -9999 -9999 -9999 -9999 -9999 -9999 -9999 -9999 -9999 -9999 -9999 -9999 -9999 -9999 -9999 -9999 -9999 -9999 -9999 -9999 -9999 -9999 -9999 -9999 -9999 -9999 -9999 -9999 -9999 -9999 -9999 -9999 -9999 -9999 -9999 -9999 -9999 -9999 -9999 -9999 -9999 -9999 -9999 -9999 -9999 -9999 -9999 -9999 -9999 -9999 -9999 -9999 -9999 -9999 -9999 -9999 -9999 -9999 -9999 -9999 -9999 -9999 -9999 -9999 -9999 -9999 -9999 -9999 -9999 -9999 -9999
-9999 -9999 -9999 -9999 -9999 -9999 -9999 -9999 -9999 -9999 -9999 -9999 -9999 -9999 -9999 -9999 -9999 -9999 -9999 -9999 -9999 -9999 -9999 -9999 -9999 -9999 -9999 -9999 -9999 -9999 -9999 -9999 -9999 -9999 -9999 -9999 -9999 -9999 -9999 -9999 -9999 -9999 -9999 -9999 -9999 -9999 -9999 -9999 -9999 -9999 -9999 -9999 -9999 -9999 -9999 -9999 -9999 -9999 0.024 0.102 0.136 0.138 0.153 0.158 0.154 0.160 0.156 0.166 0.177 0.167 0.215 0.219 0.273 0.349 0.361 0.384 0.370 0.131 0.138 0.124 0.143 0.156 0.137 0.148 0.153 0.137 0.154 0.151 0.152 0.155 0.151 0.164 0.149 0.140 0.149 0.138 0.147 0.160 0.162 0.179 0.147 0.147 0.167 0.155 0.163 0.159 0.171 0.208 0.207 0.202 0.207 0.199 0.176 0.179 0.150 0.151 0.174 0.129 0.142 0.149 0.160 0.162 0.168 0.164 0.150 0.153 0.176 0.151 0.129 0.130 0.162 0.182 0.153 0.147 0.124 -9999 -9999 -9999 -9999 -9999 -9999 -9999 -9999 -9999 -9999 -9999 -9999 -9999 -9999 -9999 -9999 -9999 -9999 -9999 -9999 -9999 -9999 -9999 -9999 -9999 -9999 -9999 -9999 -9999 -9999 -9999 -9999 -9999 -9999 -9999 -9999 -9999 -9999 -9999 -9999 -9999 -9999 -9999 -9999 -9999 -9999 -9999 -9999 -9999 -9999 -9999 -9999 -9999 -9999 -9999 -9999 -9999 -9999 -9999 -9999 -9999 -9999 -9999 -9999 -9999 -9999 -9999 -9999 -9999 -9999 -9999 -9999 -9999 -9999 -9999 -9999 -9999 -9999 -9999 -9999 -9999 -9999 -9999 -9999 -9999 -9999 -9999 -9999 -9999 -9999 -9999 -9999 -9999 -9999 -9999 -9999 -9999 -9999 -9999
-9999 -9999 -9999 -9999 -9999 -9999 -9999 -9999 -9999 -9999 -9999 -9999 -9999 -9999 -9999 -9999 -9999 -9999 -9999 -9999 -9999 -9999 -9999 -9999 -9999 -9999 -9999 -9999 -9999 -9999 -9999 -9999 -9999 -9999 -9999 -9999 -9999 -9999 -9999 -9999 -9999 -9999 -9999 -9999 -9999 -9999 -9999 -9999 -9999 -9999 -9999 -9999 -9999 -9999 -9999 -9999 -9999 -9999 0.079 0.125 0.120 0.140 0.150 0.159 0.159 0.161 0.149 0.153 0.166 0.169 0.198 0.212 0.228 0.347 0.343 0.373 0.303 0.125 0.135 0.139 0.137 0.150 0.133 0.136 0.154 0.136 0.149 0.132 0.146 0.155 0.154 0.147 0.159 0.154 0.149 0.141 0.162 0.153 0.169 0.156 0.160 0.163 0.163 0.171 0.157 0.165 0.200 0.206 0.194 0.189 0.169 0.154 0.168 0.173 0.161 0.146 0.166 0.148 0.157 0.153 0.158 0.177 0.156 0.168 0.145 0.162 0.175 0.170 0.153 0.130 0.141 0.142 0.146 0.129 0.000 -9999 -9999 -9999 -9999 -9999 -9999 -9999 -9999 -9999 -9999 -9999 -9999 -9999 -9999 -9999 -9999 -9999 -9999 -9999 -9999 -9999 -9999 -9999 -9999 -9999 -9999 -9999 -9999 -9999 -9999 -9999 -9999 -9999 -9999 -9999 -9999 -9999 -9999 -9999 -9999 -9999 -9999 -9999 -9999 -9999 -9999 -9999 -9999 -9999 -9999 -9999 -9999 -9999 -9999 -9999 -9999 -9999 -9999 -9999 -9999 -9999 -9999 -9999 -9999 -9999 -9999 -9999 -9999 -9999 -9999 -9999 -9999 -9999 -9999 -9999 -9999 -9999 -9999 -9999 -9999 -9999 -9999 -9999 -9999 -9999 -9999 -9999 -9999 -9999 -9999 -9999 -9999 -9999 -9999 -9999 -9999 -9999 -9999 -9999
-9999 -9999 -9999 -9999 -9999 -9999 -9999 -9999 -9999 -9999 -9999 -9999 -9999 -9999 -9999 -9999 -9999 -9999 -9999 -9999 -9999 -9999 -9999 -9999 -9999 -9999 -9999 -9999 -9999 -9999 -9999 -9999 -9999 -9999 -9999 -9999 -9999 -9999 -9999 -9999 -9999 -9999 -9999 -9999 -9999 -9999 -9999 -9999 -9999 -9999 -9999 -9999 -9999 -9999 -9999 -9999 -9999 -9999 -9999 0.029 0.107 0.128 0.148 0.162 0.166 0.155 0.147 0.142 0.154 0.181 0.190 0.209 0.220 0.252 0.242 0.263 0.120 0.121 0.124 0.130 0.140 0.143 0.127 0.119 0.141 0.130 0.143 0.152 0.132 0.137 0.136 0.138 0.146 0.139 0.130 0.136 0.154 0.159 0.165 0.187 0.175 0.165 0.147 0.184 0.176 0.153 0.189 0.215 0.181 0.170 0.164 0.175 0.180 0.185 0.190 0.142 0.149 0.146 0.148 0.158 0.162 0.153 0.151 0.159 0.158 0.176 0.170 0.168 0.154 0.138 0.176 0.142 0.133 0.000 -9999 -9999 -9999 -9999 -9999 -9999 -9999 -9999 -9999 -9999 -9999 -9999 -9999 -9999 -9999 -9999 -9999 -9999 -9999 -9999 -9999 -9999 -9999 -9999 -9999 -9999 -9999 -9999 -9999 -9999 -9999 -9999 -9999 -9999 -9999 -9999 -9999 -9999 -9999 -9999 -9999 -9999 -9999 -9999 -9999 -9999 -9999 -9999 -9999 -9999 -9999 -9999 -9999 -9999 -9999 -9999 -9999 -9999 -9999 -9999 -9999 -9999 -9999 -9999 -9999 -9999 -9999 -9999 -9999 -9999 -9999 -9999 -9999 -9999 -9999 -9999 -9999 -9999 -9999 -9999 -9999 -9999 -9999 -9999 -9999 -9999 -9999 -9999 -9999 -9999 -9999 -9999 -9999 -9999 -9999 -9999 -9999 -9999 -9999 -9999
-9999 -9999 -9999 -9999 -9999 -9999 -9999 -9999 -9999 -9999 -9999 -9999 -9999 -9999 -9999 -9999 -9999 -9999 -9999 -9999 -9999 -9999 -9999 -9999 -9999 -9999 -9999 -9999 -9999 -9999 -9999 -9999 -9999 -9999 -9999 -9999 -9999 -9999 -9999 -9999 -9999 -9999 -9999 -9999 -9999 -9999 -9999 -9999 -9999 -9999 -9999 -9999 -9999 -9999 -9999 -9999 -9999 -9999 -9999 0.152 0.104 0.121 0.141 0.146 0.142 0.145 0.148 0.140 0.148 0.190 0.203 0.215 0.222 0.238 0.242 0.233 0.239 0.115 0.123 0.129 0.154 0.153 0.137 0.120 0.136 0.138 0.143 0.148 0.138 0.127 0.137 0.139 0.131 0.133 0.118 0.146 0.131 0.153 0.167 0.170 0.180 0.157 0.150 0.165 0.152 0.154 0.177 0.195 0.177 0.191 0.168 0.159 0.150 0.159 0.190 0.166 0.167 0.153 0.159 0.156 0.161 0.169 0.180 0.158 0.166 0.160 0.139 0.156 0.162 0.146 0.160 0.131 0.125 -9999 -9999 -9999 -9999 -9999 -9999 -9999 -9999 -9999 -9999 -9999 -9999 -9999 -9999 -9999 -9999 -9999 -9999 -9999 -9999 -9999 -9999 -9999 -9999 -9999 -9999 -9999 -9999 -9999 -9999 -9999 -9999 -9999 -9999 -9999 -9999 -9999 -9999 -9999 -9999 -9999 -9999 -9999 -9999 -9999 -9999 -9999 -9999 -9999 -9999 -9999 -9999 -9999 -9999 -9999 -9999 -9999 -9999 -9999 -9999 -9999 -9999 -9999 -9999 -9999 -9999 -9999 -9999 -9999 -9999 -9999 -9999 -9999 -9999 -9999 -9999 -9999 -9999 -9999 -9999 -9999 -9999 -9999 -9999 -9999 -9999 -9999 -9999 -9999 -9999 -9999 -9999 -9999 -9999 -9999 -9999 -9999 -9999 -9999 -9999 -9999
-9999 -9999 -9999 -9999 -9999 -9999 -9999 -9999 -9999 -9999 -9999 -9999 -9999 -9999 -9999 -9999 -9999 -9999 -9999 -9999 -9999 -9999 -9999 -9999 -9999 -9999 -9999 -9999 -9999 -9999 -9999 -9999 -9999 -9999 -9999 -9999 -9999 -9999 -9999 -9999 -9999 -9999 -9999 -9999 -9999 -9999 -9999 -9999 -9999 -9999 -9999 -9999 -9999 -9999 -9999 -9999 -9999 -9999 -9999 0.131 0.104 0.107 0.126 0.123 0.142 0.133 0.142 0.143 0.163 0.191 0.177 0.202 0.207 0.223 0.227 0.241 0.244 0.238 0.125 0.131 0.147 0.163 0.149 0.121 0.136 0.134 0.151 0.148 0.124 0.118 0.116 0.127 0.122 0.116 0.113 0.151 0.142 0.177 0.180 0.173 0.156 0.133 0.136 0.137 0.148 0.163 0.167 0.186 0.176 0.177 0.174 0.170 0.145 0.168 0.183 0.169 0.180 0.150 0.148 0.157 0.162 0.167 0.162 0.180 0.167 0.163 0.142 0.159 0.166 0.150 0.148 0.132 0.000 -9999 -9999 -9999 -9999 -9999 -9999 -9999 -9999 -9999 -9999 -9999 -9999 -9999 -9999 -9999 -9999 -9999 -9999 -9999 -9999 -9999 -9999 -9999 -9999 -9999 -9999 -9999 -9999 -9999 -9999 -9999 -9999 -9999 -9999 -9999 -9999 -9999 -9999 -9999 -9999 -9999 -9999 -9999 -9999 -9999 -9999 -9999 -9999 -9999 -9999 -9999 -9999 -9999 -9999 -9999 -9999 -9999 -9999 -9999 -9999 -9999 -9999 -9999 -9999 -9999 -9999 -9999 -9999 -9999 -9999 -9999 -9999 -9999 -9999 -9999 -9999 -9999 -9999 -9999 -9999 -9999 -9999 -9999 -9999 -9999 -9999 -9999 -9999 -9999 -9999 -9999 -9999 -9999 -9999 -9999 -9999 -9999 -9999 -9999 -9999 -9999
-9999 -9999 -9999 -9999 -9999 -9999 -9999 -9999 -9999 -9999 -9999 -9999 -9999 -9999 -9999 -9999 -9999 -9999 -9999 -9999 -9999 -9999 -9999 -9999 -9999 -9999 -9999 -9999 -9999 -9999 -9999 -9999 -9999 -9999 -9999 -9999 -9999 -9999 -9999 -9999 -9999 -9999 -9999 -9999 -9999 -9999 -9999 -9999 -9999 -9999 -9999 -9999 -9999 -9999 -9999 0.000 0.083 0.076 0.084 0.095 0.105 0.092 0.122 0.135 0.130 0.143 0.130 0.139 0.150 0.183 0.189 0.184 0.180 0.198 0.223 0.226 0.267 0.253 0.130 0.131 0.141 0.171 0.164 0.127 0.130 0.154 0.147 0.122 0.122 0.131 0.114 0.107 0.112 0.112 0.115 0.158 0.161 0.148 0.149 0.149 0.146 0.137 0.134 0.140 0.150 0.153 0.171 0.181 0.166 0.164 0.161 0.140 0.145 0.164 0.173 0.172 0.162 0.147 0.159 0.162 0.168 0.162 0.168 0.172 0.152 0.156 0.153 0.136 0.136 0.137 0.165 0.167 0.000 -9999 -9999 -9999 -9999 -9999 -9999 -9999 -9999 -9999 -9999 -9999 -9999 -9999 -9999 -9999 -9999 -9999 -9999 -9999 -9999 -9999 -9999 -9999 -9999 -9999 -9999 -9999 -9999 -9999 -9999 -9999 -9999 -9999 -9999 -9999 -9999 -9999 -9999 -9999 -9999 -9999 -9999 -9999 -9999 -9999 -9999 -9999 -9999 -9999 -9999 -9999 -9999 -9999 -9999 -9999 -9999 -9999 -9999 -9999 -9999 -9999 -9999 -9999 -9999 -9999 -9999 -9999 -9999 -9999 -9999 -9999 -9999 -9999 -9999 -9999 -9999 -9999 -9999 -9999 -9999 -9999 -9999 -9999 -9999 -9999 -9999 -9999 -9999 -9999 -9999 -9999 -9999 -9999 -9999 -9999 -9999 -9999 -9999 -9999 -9999 -9999
-9999 -9999 -9999 -9999 -9999 -9999 -9999 -9999 -9999 -9999 -9999 -9999 -9999 -9999 -9999 -9999 -9999 -9999 -9999 -9999 -9999 -9999 -9999 -9999 -9999 -9999 -9999 -9999 -9999 -9999 -9999 -9999 -9999 -9999 -9999 -9999 -9999 -9999 -9999 -9999 -9999 -9999 -9999 -9999 -9999 -9999 -9999 -9999 -9999 -9999 -9999 -9999 -9999 -9999 0.019 0.079 0.076 0.079 0.078 0.101 0.110 0.105 0.111 0.123 0.107 0.125 0.127 0.138 0.136 0.141 0.154 0.162 0.175 0.205 0.218 0.222 0.240 0.238 0.241 0.260 0.119 0.158 0.167 0.135 0.129 0.153 0.137 0.123 0.119 0.115 0.097 0.091 0.094 0.099 0.117 0.165 0.190 0.151 0.151 0.139 0.134 0.133 0.129 0.130 0.141 0.158 0.190 0.170 0.168 0.149 0.162 0.140 0.151 0.169 0.158 0.159 0.177 0.152 0.162 0.166 0.176 0.165 0.170 0.164 0.133 0.135 0.125 0.131 0.136 0.139 0.158 0.000 -9999 -9999 -9999 -9999 -9999 -9999 -9999 -9999 -9999 -9999 -9999 -9999 -9999 -9999 -9999 -9999 -9999 -9999 -9999 -9999 -9999 -9999 -9999 -9999 -9999 -9999 -9999 -9999 -9999 -9999 -9999 -9999 -9999 -9999 -9999 -9999 -9999 -9999 -9999 -9999 -9999 -9999 -9999 -9999 -9999 -9999 -9999 -9999 -9999 -9999 -9999 -9999 -9999 -9999 -9999 -9999 -9999 -9999 -9999 -9999 -9999 -9999 -9999 -9999 -9999 -9999 -9999 -9999 -9999 -9999 -9999 -9999 -9999 -9999 -9999 -9999 -9999 -9999 -9999 -9999 -9999 -9999 -9999 -9999 -9999 -9999 -9999 -9999 -9999 -9999 -9999 -9999 -9999 -9999 -9999 -9999 -9999 -9999 -9999 -9999 -9999 -9999
-9999 -9999 -9999 -9999 -9999 -9999 -9999 -9999 -9999 -9999 -9999 -9999 -9999 -9999 -9999 -9999 -9999 -9999 -9999 -9999 -9999 -9999 -9999 -9999 -9999 -9999 -9999 -9999 -9999 -9999 -9999 -9999 -9999 -9999 -9999 -9999 -9999 -9999 -9999 -9999 -9999 -9999 -9999 -9999 -9999 -9999 -9999 -9999 -9999 -9999 -9999 -9999 -9999 -9999 -9999 0.070 0.070 0.079 0.091 0.088 0.091 0.106 0.104 0.121 0.097 0.111 0.131 0.136 0.149 0.135 0.149 0.152 0.163 0.168 0.190 0.213 0.209 0.216 0.242 0.249 0.258 0.126 0.156 0.152 0.126 0.147 0.141 0.133 0.120 0.102 0.100 0.098 0.102 0.104 0.130 0.170 0.176 0.146 0.122 0.123 0.140 0.133 0.126 0.134 0.144 0.147 0.163 0.191 0.162 0.139 0.151 0.174 0.144 0.156 0.160 0.186 0.191 0.151 0.168 0.165 0.161 0.155 0.167 0.137 0.131 0.119 0.119 0.138 0.118 0.000 0.000 0.000 -9999 -9999 -9999 -9999 -9999 -9999 -9999 -9999 -9999 -9999 -9999 -9999 -9999 -9999 -9999 -9999 -9999 -9999 -9999 -9999 -9999 -9999 -9999 -9999 -9999 -9999 -9999 -9999 -9999 -9999 -9999 -9999 -9999 -9999 -9999 -9999 -9999 -9999 -9999 -9999 -9999 -9999 -9999 -9999 -9999 -9999 -9999 -9999 -9999 -9999 -9999 -9999 -9999 -9999 -9999 -9999 -9999 -9999 -9999 -9999 -9999 -9999 -9999 -9999 -9999 -9999 -9999 -9999 -9999 -9999 -9999 -9999 -9999 -9999 -9999 -9999 -9999 -9999 -9999 -9999 -9999 -9999 -9999 -9999 -9999 -9999 -9999 -9999 -9999 -9999 -9999 -9999 -9999 -9999 -9999 -9999 -9999 -9999 -9999 -9999 -9999 -9999
-9999 -9999 -9999 -9999 -9999 -9999 -9999 -9999 -9999 -9999 -9999 -9999 -9999 -9999 -9999 -9999 -9999 -9999 -9999 -9999 -9999 -9999 -9999 -9999 -9999 -9999 -9999 -9999 -9999 -9999 -9999 -9999 -9999 -9999 -9999 -9999 -9999 -9999 -9999 -9999 -9999 -9999 -9999 -9999 -9999 -9999 -9999 -9999 -9999 -9999 -9999 -9999 -9999 -9999 0.019 0.072 0.069 0.085 0.094 0.104 0.109 0.100 0.110 0.111 0.092 0.107 0.117 0.126 0.147 0.147 0.148 0.151 0.163 0.177 0.178 0.185 0.199 0.215 0.234 0.239 0.275 0.293 0.138 0.133 0.126 0.128 0.137 0.132 0.117 0.122 0.106 0.120 0.116 0.125 0.157 0.165 0.163 0.150 0.133 0.143 0.143 0.145 0.141 0.149 0.154 0.154 0.165 0.163 0.179 0.176 0.186 0.172 0.140 0.145 0.191 0.175 0.178 0.187 0.180 0.175 0.140 0.133 0.143 0.000 0.000 0.000 -9999 -9999 -9999 -9999 -9999 -9999 -9999 -9999 -9999 -9999 -9999 -9999 -9999 -9999 -9999 -9999 -9999 -9999 -9999 -9999 -9999 -9999 -9999 -9999 -9999 -9999 -9999 -9999 -9999 -9999 -9999 -9999 -9999 -9999 -9999 -9999 -9999 -9999 -9999 -9999 -9999 -9999 -9999 -9999 -9999 -9999 -9999 -9999 -9999 -9999 -9999 -9999 -9999 -9999 -9999 -9999 -9999 -9999 -9999 -9999 -9999 -9999 -9999 -9999 -9999 -9999 -9999 -9999 -9999 -9999 -9999 -9999 -9999 -9999 -9999 -9999 -9999 -9999 -9999 -9999 -9999 -9999 -9999 -9999 -9999 -9999 -9999 -9999 -9999 -9999 -9999 -9999 -9999 -9999 -9999 -9999 -9999 -9999 -9999 -9999 -9999 -9999 -9999 -9999 -9999 -9999 -9999 -9999
-9999 -9999 -9999 -9999 -9999 -9999 -9999 -9999 -9999 -9999 -9999 -9999 -9999 -9999 -9999 -9999 -9999 -9999 -9999 -9999 -9999 -9999 -9999 -9999 -9999 -9999 -9999 -9999 -9999 -9999 -9999 -9999 -9999 -9999 -9999 -9999 -9999 -9999 -9999 -9999 -9999 -9999 -9999 -9999 -9999 -9999 -9999 -9999 -9999 -9999 -9999 -9999 -9999 -9999 0.018 0.076 0.091 0.084 0.069 0.091 0.095 0.104 0.101 0.101 0.102 0.112 0.123 0.137 0.138 0.143 0.149 0.160 0.161 0.178 0.189 0.213 0.224 0.214 0.215 0.224 0.269 0.290 0.148 0.121 0.113 0.130 0.130 0.115 0.115 0.121 0.136 0.143 0.147 0.145 0.146 0.164 0.166 0.130 0.119 0.141 0.140 0.141 0.177 0.157 0.158 0.164 0.159 0.160 0.169 0.164 0.150 0.143 0.152 0.143 0.177 0.178 0.177 0.157 0.159 0.165 0.145 0.116 0.000 -9999 -9999 -9999 -9999 -9999 -9999 -9999 -9999 -9999 -9999 -9999 -9999 -9999 -9999 -9999 -9999 -9999 -9999 -9999 -9999 -9999 -9999 -9999 -9999 -9999 -9999 -9999 -9999 -9999 -9999 -9999 -9999 -9999 -9999 -9999 -9999 -9999 -9999 -9999 -9999 -9999 -9999 -9999 -9999 -9999 -9999 -9999 -9999 -9999 -9999 -9999 -9999 -9999 -9999 -9999 -9999 -9999 -9999 -9999 -9999 -9999 -9999 -9999 -9999 -9999 -9999 -9999 -9999 -9999 -9999 -9999 -9999 -9999 -9999 -9999 -9999 -9999 -9999 -9999 -9999 -9999 -9999 -9999 -9999 -9999 -9999 -9999 -9999 -9999 -9999 -9999 -9999 -9999 -9999 -9999 -9999 -9999 -9999 -9999 -9999 -9999 -9999 -9999 -9999 -9999 -9999 -9999 -9999 -9999 -9999 -9999
-9999 -9999 -9999 -9999 -9999 -9999 -9999 -9999 -9999 -9999 -9999 -9999 -9999 -9999 -9999 -9999 -9999 -9999 -9999 -9999 -9999 -9999 -9999 -9999 -9999 -9999 -9999 -9999 -9999 -9999 -9999 -9999 -9999 -9999 -9999 -9999 -9999 -9999 -9999 -9999 -9999 -9999 -9999 -9999 -9999 -9999 -9999 -9999 -9999 -9999 -9999 -9999 -9999 -9999 -9999 0.074 0.072 0.022 0.087 0.095 0.105 0.112 0.090 0.101 0.117 0.114 0.126 0.130 0.140 0.143 0.145 0.146 0.166 0.191 0.192 0.218 0.231 0.226 0.221 0.246 0.284 0.287 0.136 0.115 0.112 0.111 0.114 0.112 0.099 0.113 0.118 0.156 0.135 0.147 0.140 0.165 0.156 0.127 0.123 0.148 0.151 0.158 0.177 0.176 0.170 0.152 0.155 0.160 0.167 0.156 0.142 0.138 0.133 0.141 0.167 0.169 0.142 0.177 0.172 0.145 0.143 0.000 -9999 -9999 -9999 -9999 -9999 -9999 -9999 -9999 -9999 -9999 -9999 -9999 -9999 -9999 -9999 -9999 -9999 -9999 -9999 -9999 -9999 -9999 -9999 -9999 -9999 -9999 -9999 -9999 -9999 -9999 -9999 -9999 -9999 -9999 -9999 -9999 -9999 -9999 -9999 -9999 -9999 -9999 -9999 -9999 -9999 -9999 -9999 -9999 -9999 -9999 -9999 -9999 -9999 -9999 -9999 -9999 -9999 -9999 -9999 -9999 -9999 -9999 -9999 -9999 -9999 -9999 -9999 -9999 -9999 -9999 -9999 -9999 -9999 -9999 -9999 -9999 -9999 -9999 -9999 -9999 -9999 -9999 -9999 -9999 -9999 -9999 -9999 -9999 -9999 -9999 -9999 -9999 -9999 -9999 -9999 -9999 -9999 -9999 -9999 -9999 -9999 -9999 -9999 -9999 -9999 -9999 -9999 -9999 -9999 -9999 -9999 -9999
-9999 -9999 -9999 -9999 -9999 -9999 -9999 -9999 -9999 -9999 -9999 -9999 -9999 -9999 -9999 -9999 -9999 -9999 -9999 -9999 -9999 -9999 -9999 -9999 -9999 -9999 -9999 -9999 -9999 -9999 -9999 -9999 -9999 -9999 -9999 -9999 -9999 -9999 -9999 -9999 -9999 -9999 -9999 -9999 -9999 -9999 -9999 -9999 -9999 -9999 -9999 -9999 -9999 -9999 -9999 -9999 -9999 0.118 0.020 0.099 0.090 0.102 0.092 0.104 0.101 0.113 0.133 0.127 0.122 0.137 0.143 0.144 0.151 0.180 0.174 0.204 0.212 0.211 0.238 0.249 0.267 0.283 0.117 0.113 0.106 0.118 0.115 0.105 0.109 0.127 0.120 0.116 0.115 0.118 0.164 0.139 0.125 0.135 0.146 0.137 0.160 0.152 0.149 0.181 0.230 0.184 0.184 0.181 0.165 0.149 0.140 0.144 0.164 0.173 0.173 0.179 0.168 0.144 0.154 0.000 -9999 -9999 -9999 -9999 -9999 -9999 -9999 -9999 -9999 -9999 -9999 -9999 -9999 -9999 -9999 -9999 -9999 -9999 -9999 -9999 -9999 -9999 -9999 -9999 -9999 -9999 -9999 -9999 -9999 -9999 -9999 -9999 -9999 -9999 -9999 -9999 -9999 -9999 -9999 -9999 -9999 -9999 -9999 -9999 -9999 -9999 -9999 -9999 -9999 -9999 -9999 -9999 -9999 -9999 -9999 -9999 -9999 -9999 -9999 -9999 -9999 -9999 -9999 -9999 -9999 -9999 -9999 -9999 -9999 -9999 -9999 -9999 -9999 -9999 -9999 -9999 -9999 -9999 -9999 -9999 -9999 -9999 -9999 -9999 -9999 -9999 -9999 -9999 -9999 -9999 -9999 -9999 -9999 -9999 -9999 -9999 -9999 -9999 -9999 -9999 -9999 -9999 -9999 -9999 -9999 -9999 -9999 -9999 -9999 -9999 -9999 -9999 -9999 -9999
-9999 -9999 -9999 -9999 -9999 -9999 -9999 -9999 -9999 -9999 -9999 -9999 -9999 -9999 -9999 -9999 -9999 -9999 -9999 -9999 -9999 -9999 -9999 -9999 -9999 -9999 -9999 -9999 -9999 -9999 -9999 -9999 -9999 -9999 -9999 -9999 -9999 -9999 -9999 -9999 -9999 -9999 -9999 -9999 -9999 -9999 -9999 -9999 -9999 -9999 -9999 -9999 -9999 -9999 -9999 -9999 -9999 -9999 0.022 0.087 0.088 0.095 0.104 0.105 0.105 0.109 0.128 0.136 0.142 0.152 0.145 0.142 0.151 0.197 0.213 0.216 0.208 0.217 0.237 0.221 0.205 0.227 0.125 0.119 0.111 0.106 0.103 0.113 0.108 0.128 0.129 0.117 0.115 0.123 0.144 0.135 0.115 0.116 0.120 0.130 0.149 0.141 0.161 0.184 0.192 0.180 0.183 0.199 0.175 0.153 0.140 0.152 0.181 0.178 0.182 0.169 0.181 0.202 0.012 -9999 -9999 -9999 -9999 -9999 -9999 -9999 -9999 -9999 -9999 -9999 -9999 -9999 -9999 -9999 -9999 -9999 -9999 -9999 -9999 -9999 -9999 -9999 -9999 -9999 -9999 -9999 -9999 -9999 -9999 -9999 -9999 -9999 -9999 -9999 -9999 -9999 -9999 -9999 -9999 -9999 -9999 -9999 -9999 -9999 -9999 -9999 -9999 -9999 -9999 -9999 -9999 -9999 -9999 -9999 -9999 -9999 -9999 -9999 -9999 -9999 -9999 -9999 -9999 -9999 -9999 -9999 -9999 -9999 -9999 -9999 -9999 -9999 -9999 -9999 -9999 -9999 -9999 -9999 -9999 -9999 -9999 -9999 -9999 -9999 -9999 -9999 -9999 -9999 -9999 -9999 -9999 -9999 -9999 -9999 -9999 -9999 -9999 -9999 -9999 -9999 -9999 -9999 -9999 -9999 -9999 -9999 -9999 -9999 -9999 -9999 -9999 -9999 -9999 -9999
-9999 -9999 -9999 -9999 -9999 -9999 -9999 -9999 -9999 -9999 -9999 -9999 -9999 -9999 -9999 -9999 -9999 -9999 -9999 -9999 -9999 -9999 -9999 -9999 -9999 -9999 -9999 -9999 -9999 -9999 -9999 -9999 -9999 -9999 -9999 -9999 -9999 -9999 -9999 -9999 -9999 -9999 -9999 -9999 -9999 -9999 -9999 -9999 -9999 -9999 -9999 -9999 -9999 -9999 -9999 -9999 -9999 -9999 0.020 0.105 0.096 0.091 0.096 0.096 0.102 0.120 0.133 0.142 0.140 0.133 0.147 0.163 0.199 0.232 0.226 0.233 0.228 0.224 0.255 0.240 0.215 0.110 0.116 0.118 0.118 0.117 0.105 0.121 0.111 0.119 0.134 0.115 0.103 0.113 0.127 0.133 0.106 0.102 0.118 0.127 0.144 0.130 0.143 0.164 0.160 0.162 0.160 0.182 0.176 0.183 0.170 0.169 0.172 0.173 0.169 0.163 0.187 0.012 -9999 -9999 -9999 -9999 -9999 -9999 -9999 -9999 -9999 -9999 -9999 -9999 -9999 -9999 -9999 -9999 -9999 -9999 -9999 -9999 -9999 -9999 -9999 -9999 -9999 -9999 -9999 -9999 -9999 -9999 -9999 -9999 -9999 -9999 -9999 -9999 -9999 -9999 -9999 -9999 -9999 -9999 -9999 -9999 -9999 -9999 -9999 -9999 -9999 -9999 -9999 -9999 -9999 -9999 -9999 -9999 -9999 -9999 -9999 -9999 -9999 -9999 -9999 -9999 -9999 -9999 -9999 -9999 -9999 -9999 -9999 -9999 -9999 -9999 -9999 -9999 -9999 -9999 -9999 -9999 -9999 -9999 -9999 -9999 -9999 -9999 -9999 -9999 -9999 -9999 -9999 -9999 -9999 -9999 -9999 -9999 -9999 -9999 -9999 -9999 -9999 -9999 -9999 -9999 -9999 -9999 -9999 -9999 -9999 -9999 -9999 -9999 -9999 -9999 -9999 -9999
-9999 -9999 -9999 -9999 -9999 -9999 -9999 -9999 -9999 -9999 -9999 -9999 -9999 -9999 -9999 -9999 -9999 -9999 -9999 -9999 -9999 -9999 -9999 -9999 -9999 -9999 -9999 -9999 -9999 -9999 -9999 -9999 -9999 -9999 -9999 -9999 -9999 -9999 -9999 -9999 -9999 -9999 -9999 -9999 -9999 -9999 -9999 -9999 -9999 -9999 -9999 -9999 -9999 -9999 -9999 -9999 -9999 0.068 0.092 0.107 0.113 0.108 0.109 0.103 0.100 0.114 0.144 0.140 0.157 0.154 0.170 0.194 0.212 0.216 0.247 0.235 0.224 0.240 0.239 0.235 0.223 0.117 0.114 0.101 0.109 0.116 0.103 0.116 0.114 0.107 0.114 0.113 0.114 0.115 0.143 0.111 0.107 0.115 0.128 0.145 0.167 0.147 0.150 0.149 0.140 0.167 0.163 0.160 0.167 0.176 0.175 0.215 0.185 0.182 0.182 0.160 0.000 -9999 -9999 -9999 -9999 -9999 -9999 -9999 -9999 -9999 -9999 -9999 -9999 -9999 -9999 -9999 -9999 -9999 -9999 -9999 -9999 -9999 -9999 -9999 -9999 -9999 -9999 -9999 -9999 -9999 -9999 -9999 -9999 -9999 -9999 -9999 -9999 -9999 -9999 -9999 -9999 -9999 -9999 -9999 -9999 -9999 -9999 -9999 -9999 -9999 -9999 -9999 -9999 -9999 -9999 -9999 -9999 -9999 -9999 -9999 -9999 -9999 -9999 -9999 -9999 -9999 -9999 -9999 -9999 -9999 -9999 -9999 -9999 -9999 -9999 -9999 -9999 -9999 -9999 -9999 -9999 -9999 -9999 -9999 -9999 -9999 -9999 -9999 -9999 -9999 -9999 -9999 -9999 -9999 -9999 -9999 -9999 -9999 -9999 -9999 -9999 -9999 -9999 -9999 -9999 -9999 -9999 -9999 -9999 -9999 -9999 -9999 -9999 -9999 -9999 -9999 -9999 -9999
-9999 -9999 -9999 -9999 -9999 -9999 -9999 -9999 -9999 -9999 -9999 -9999 -9999 -9999 -9999 -9999 -9999 -9999 -9999 -9999 -9999 -9999 -9999 -9999 -9999 -9999 -9999 -9999 -9999 -9999 -9999 -9999 -9999 -9999 -9999 -9999 -9999 -9999 -9999 -9999 -9999 -9999 -9999 -9999 -9999 -9999 -9999 -9999 -9999 -9999 -9999 -9999 -9999 -9999 -9999 -9999 -9999 0.036 0.098 0.111 0.116 0.108 0.112 0.095 0.118 0.122 0.146 0.141 0.151 0.157 0.180 0.199 0.202 0.224 0.236 0.210 0.221 0.231 0.248 0.215 0.214 0.109 0.118 0.105 0.105 0.119 0.107 0.109 0.111 0.110 0.109 0.107 0.100 0.112 0.127 0.106 0.109 0.124 0.125 0.162 0.158 0.143 0.142 0.151 0.160 0.154 0.161 0.160 0.174 0.170 0.296 0.231 0.179 0.192 0.183 0.000 -9999 -9999 -9999 -9999 -9999 -9999 -9999 -9999 -9999 -9999 -9999 -9999 -9999 -9999 -9999 -9999 -9999 -9999 -9999 -9999 -9999 -9999 -9999 -9999 -9999 -9999 -9999 -9999 -9999 -9999 -9999 -9999 -9999 -9999 -9999 -9999 -9999 -9999 -9999 -9999 -9999 -9999 -9999 -9999 -9999 -9999 -9999 -9999 -9999 -9999 -9999 -9999 -9999 -9999 -9999 -9999 -9999 -9999 -9999 -9999 -9999 -9999 -9999 -9999 -9999 -9999 -9999 -9999 -9999 -9999 -9999 -9999 -9999 -9999 -9999 -9999 -9999 -9999 -9999 -9999 -9999 -9999 -9999 -9999 -9999 -9999 -9999 -9999 -9999 -9999 -9999 -9999 -9999 -9999 -9999 -9999 -9999 -9999 -9999 -9999 -9999 -9999 -9999 -9999 -9999 -9999 -9999 -9999 -9999 -9999 -9999 -9999 -9999 -9999 -9999 -9999 -9999 -9999
-9999 -9999 -9999 -9999 -9999 -9999 -9999 -9999 -9999 -9999 -9999 -9999 -9999 -9999 -9999 -9999 -9999 -9999 -9999 -9999 -9999 -9999 -9999 -9999 -9999 -9999 -9999 -9999 -9999 -9999 -9999 -9999 -9999 -9999 -9999 -9999 -9999 -9999 -9999 -9999 -9999 -9999 -9999 -9999 -9999 -9999 -9999 -9999 -9999 -9999 -9999 -9999 -9999 -9999 -9999 -9999 -9999 0.030 0.111 0.110 0.112 0.104 0.101 0.098 0.113 0.122 0.143 0.157 0.140 0.178 0.200 0.194 0.210 0.229 0.236 0.219 0.227 0.233 0.212 0.208 0.237 0.109 0.118 0.122 0.119 0.115 0.111 0.106 0.104 0.111 0.107 0.101 0.108 0.121 0.119 0.110 0.110 0.132 0.132 0.141 0.151 0.156 0.147 0.161 0.149 0.157 0.157 0.145 0.172 0.211 0.302 0.204 0.161 0.161 0.000 -9999 -9999 -9999 -9999 -9999 -9999 -9999 -9999 -9999 -9999 -9999 -9999 -9999 -9999 -9999 -9999 -9999 -9999 -9999 -9999 -9999 -9999 -9999 -9999 -9999 -9999 -9999 -9999 -9999 -9999 -9999 -9999 -9999 -9999 -9999 -9999 -9999 -9999 -9999 -9999 -9999 -9999 -9999 -9999 -9999 -9999 -9999 -9999 -9999 -9999 -9999 -9999 -9999 -9999 -9999 -9999 -9999 -9999 -9999 -9999 -9999 -9999 -9999 -9999 -9999 -9999 -9999 -9999 -9999 -9999 -9999 -9999 -9999 -9999 -9999 -9999 -9999 -9999 -9999 -9999 -9999 -9999 -9999 -9999 -9999 -9999 -9999 -9999 -9999 -9999 -9999 -9999 -9999 -9999 -9999 -9999 -9999 -9999 -9999 -9999 -9999 -9999 -9999 -9999 -9999 -9999 -9999 -9999 -9999 -9999 -9999 -9999 -9999 -9999 -9999 -9999 -9999 -9999 -9999
-9999 -9999 -9999 -9999 -9999 -9999 -9999 -9999 -9999 -9999 -9999 -9999 -9999 -9999 -9999 -9999 -9999 -9999 -9999 -9999 -9999 -9999 -9999 -9999 -9999 -9999 -9999 -9999 -9999 -9999 -9999 -9999 -9999 -9999 -9999 -9999 -9999 -9999 -9999 -9999 -9999 -9999 -9999 -9999 -9999 -9999 -9999 -9999 -9999 -9999 -9999 -9999 -9999 -9999 -9999 -9999 0.000 0.097 0.113 0.114 0.129 0.120 0.118 0.101 0.111 0.120 0.134 0.145 0.148 0.185 0.200 0.207 0.217 0.215 0.225 0.235 0.237 0.215 0.192 0.211 0.254 0.121 0.099 0.118 0.118 0.115 0.116 0.117 0.109 0.109 0.110 0.102 0.111 0.110 0.125 0.115 0.115 0.119 0.129 0.137 0.138 0.145 0.156 0.149 0.154 0.171 0.173 0.154 0.181 0.175 0.295 0.222 0.149 0.167 -9999 -9999 -9999 -9999 -9999 -9999 -9999 -9999 -9999 -9999 -9999 -9999 -9999 -9999 -9999 -9999 -9999 -9999 -9999 -9999 -9999 -9999 -9999 -9999 -9999 -9999 -9999 -9999 -9999 -9999 -9999 -9999 -9999 -9999 -9999 -9999 -9999 -9999 -9999 -9999 -9999 -9999 -9999 -9999 -9999 -9999 -9999 -9999 -9999 -9999 -9999 -9999 -9999 -9999 -9999 -9999 -9999 -9999 -9999 -9999 -9999 -9999 -9999 -9999 -9999 -9999 -9999 -9999 -9999 -9999 -9999 -9999 -9999 -9999 -9999 -9999 -9999 -9999 -9999 -9999 -9999 -9999 -9999 -9999 -9999 -9999 -9999 -9999 -9999 -9999 -9999 -9999 -9999 -9999 -9999 -9999 -9999 -9999 -9999 -9999 -9999 -9999 -9999 -9999 -9999 -9999 -9999 -9999 -9999 -9999 -9999 -9999 -9999 -9999 -9999 -9999 -9999 -9999 -9999 -9999
-9999 -9999 -9999 -9999 -9999 -9999 -9999 -9999 -9999 -9999 -9999 -9999 -9999 -9999 -9999 -9999 -9999 -9999 -9999 -9999 -9999 -9999 -9999 -9999 -9999 -9999 -9999 -9999 -9999 -9999 -9999 -9999 -9999 -9999 -9999 -9999 -9999 -9999 -9999 -9999 -9999 -9999 -9999 -9999 -9999 -9999 -9999 -9999 -9999 -9999 -9999 -9999 -9999 -9999 -9999 -9999 0.000 0.000 0.093 0.117 0.138 0.130 0.126 0.112 0.106 0.120 0.135 0.137 0.156 0.187 0.194 0.204 0.208 0.221 0.241 0.246 0.247 0.223 0.225 0.246 0.247 0.120 0.108 0.124 0.113 0.134 0.107 0.109 0.125 0.121 0.109 0.109 0.112 0.121 0.127 0.117 0.130 0.126 0.142 0.137 0.128 0.137 0.146 0.148 0.150 0.199 0.163 0.159 0.165 0.172 0.239 0.310 0.212 0.000 -9999 -9999 -9999 -9999 -9999 -9999 -9999 -9999 -9999 -9999 -9999 -9999 -9999 -9999 -9999 -9999 -9999 -9999 -9999 -9999 -9999 -9999 -9999 -9999 -9999 -9999 -9999 -9999 -9999 -9999 -9999 -9999 -9999 -9999 -9999 -9999 -9999 -9999 -9999 -9999 -9999 -9999 -9999 -9999 -9999 -9999 -9999 -9999 -9999 -9999 -9999 -9999 -9999 -9999 -9999 -9999 -9999 -9999 -9999 -9999 -9999 -9999 -9999 -9999 -9999 -9999 -9999 -9999 -9999 -9999 -9999 -9999 -9999 -9999 -9999 -9999 -9999 -9999 -9999 -9999 -9999 -9999 -9999 -9999 -9999 -9999 -9999 -9999 -9999 -9999 -9999 -9999 -9999 -9999 -9999 -9999 -9999 -9999 -9999 -9999 -9999 -9999 -9999 -9999 -9999 -9999 -9999 -9999 -9999 -9999 -9999 -9999 -9999 -9999 -9999 -9999 -9999 -9999 -9999 -9999
-9999 -9999 -9999 -9999 -9999 -9999 -9999 -9999 -9999 -9999 -9999 -9999 -9999 -9999 -9999 -9999 -9999 -9999 -9999 -9999 -9999 -9999 -9999 -9999 -9999 -9999 -9999 -9999 -9999 -9999 -9999 -9999 -9999 -9999 -9999 -9999 -9999 -9999 -9999 -9999 -9999 -9999 -9999 -9999 -9999 -9999 -9999 -9999 -9999 -9999 -9999 -9999 -9999 -9999 -9999 -9999 0.027 0.096 0.098 0.127 0.149 0.128 0.120 0.098 0.108 0.137 0.133 0.128 0.154 0.176 0.195 0.213 0.211 0.213 0.225 0.253 0.256 0.240 0.230 0.241 0.247 0.126 0.131 0.116 0.122 0.117 0.125 0.116 0.117 0.125 0.114 0.102 0.110 0.120 0.120 0.132 0.131 0.129 0.141 0.153 0.141 0.143 0.156 0.161 0.188 0.188 0.188 0.189 0.175 0.170 0.199 0.203 0.012 -9999 -9999 -9999 -9999 -9999 -9999 -9999 -9999 -9999 -9999 -9999 -9999 -9999 -9999 -9999 -9999 -9999 -9999 -9999 -9999 -9999 -9999 -9999 -9999 -9999 -9999 -9999 -9999 -9999 -9999 -9999 -9999 -9999 -9999 -9999 -9999 -9999 -9999 -9999 -9999 -9999 -9999 -9999 -9999 -9999 -9999 -9999 -9999 -9999 -9999 -9999 -9999 -9999 -9999 -9999 -9999 -9999 -9999 -9999 -9999 -9999 -9999 -9999 -9999 -9999 -9999 -9999 -9999 -9999 -9999 -9999 -9999 -9999 -9999 -9999 -9999 -9999 -9999 -9999 -9999 -9999 -9999 -9999 -9999 -9999 -9999 -9999 -9999 -9999 -9999 -9999 -9999 -9999 -9999 -9999 -9999 -9999 -9999 -9999 -9999 -9999 -9999 -9999 -9999 -9999 -9999 -9999 -9999 -9999 -9999 -9999 -9999 -9999 -9999 -9999 -9999 -9999 -9999 -9999 -9999 -9999
-9999 -9999 -9999 -9999 -9999 -9999 -9999 -9999 -9999 -9999 -9999 -9999 -9999 -9999 -9999 -9999 -9999 -9999 -9999 -9999 -9999 -9999 -9999 -9999 -9999 -9999 -9999 -9999 -9999 -9999 -9999 -9999 -9999 -9999 -9999 -9999 -9999 -9999 -9999 -9999 -9999 -9999 -9999 -9999 -9999 -9999 -9999 -9999 -9999 -9999 -9999 -9999 -9999 -9999 -9999 -9999 0.168 0.025 0.097 0.130 0.152 0.154 0.124 0.098 0.104 0.129 0.142 0.148 0.168 0.193 0.188 0.208 0.225 0.198 0.230 0.259 0.266 0.264 0.244 0.224 0.261 0.128 0.121 0.124 0.121 0.126 0.132 0.117 0.134 0.119 0.107 0.138 0.121 0.122 0.114 0.140 0.151 0.141 0.143 0.149 0.151 0.139 0.158 0.153 0.157 0.199 0.185 0.185 0.174 0.179 0.158 0.000 -9999 -9999 -9999 -9999 -9999 -9999 -9999 -9999 -9999 -9999 -9999 -9999 -9999 -9999 -9999 -9999 -9999 -9999 -9999 -9999 -9999 -9999 -9999 -9999 -9999 -9999 -9999 -9999 -9999 -9999 -9999 -9999 -9999 -9999 -9999 -9999 -9999 -9999 -9999 -9999 -9999 -9999 -9999 -9999 -9999 -9999 -9999 -9999 -9999 -9999 -9999 -9999 -9999 -9999 -9999 -9999 -9999 -9999 -9999 -9999 -9999 -9999 -9999 -9999 -9999 -9999 -9999 -9999 -9999 -9999 -9999 -9999 -9999 -9999 -9999 -9999 -9999 -9999 -9999 -9999 -9999 -9999 -9999 -9999 -9999 -9999 -9999 -9999 -9999 -9999 -9999 -9999 -9999 -9999 -9999 -9999 -9999 -9999 -9999 -9999 -9999 -9999 -9999 -9999 -9999 -9999 -9999 -9999 -9999 -9999 -9999 -9999 -9999 -9999 -9999 -9999 -9999 -9999 -9999 -9999 -9999 -9999
-9999 -9999 -9999 -9999 -9999 -9999 -9999 -9999 -9999 -9999 -9999 -9999 -9999 -9999 -9999 -9999 -9999 -9999 -9999 -9999 -9999 -9999 -9999 -9999 -9999 -9999 -9999 -9999 -9999 -9999 -9999 -9999 -9999 -9999 -9999 -9999 -9999 -9999 -9999 -9999 -9999 -9999 -9999 -9999 -9999 -9999 -9999 -9999 -9999 -9999 -9999 -9999 -9999 -9999 -9999 -9999 -9999 0.057 0.081 0.131 0.150 0.157 0.134 0.105 0.113 0.160 0.157 0.157 0.176 0.173 0.192 0.193 0.222 0.214 0.235 0.255 0.269 0.266 0.244 0.225 0.230 0.121 0.128 0.117 0.126 0.136 0.148 0.127 0.117 0.110 0.110 0.129 0.127 0.109 0.126 0.128 0.132 0.147 0.146 0.141 0.156 0.143 0.141 0.160 0.151 0.150 0.155 0.144 0.154 0.140 0.000 -9999 -9999 -9999 -9999 -9999 -9999 -9999 -9999 -9999 -9999 -9999 -9999 -9999 -9999 -9999 -9999 -9999 -9999 -9999 -9999 -9999 -9999 -9999 -9999 -9999 -9999 -9999 -9999 -9999 -9999 -9999 -9999 -9999 -9999 -9999 -9999 -9999 -9999 -9999 -9999 -9999 -9999 -9999 -9999 -9999 -9999 -9999 -9999 -9999 -9999 -9999 -9999 -9999 -9999 -9999 -9999 -9999 -9999 -9999 -9999 -9999 -9999 -9999 -9999 -9999 -9999 -9999 -9999 -9999 -9999 -9999 -9999 -9999 -9999 -9999 -9999 -9999 -9999 -9999 -9999 -9999 -9999 -9999 -9999 -9999 -9999 -9999 -9999 -9999 -9999 -9999 -9999 -9999 -9999 -9999 -9999 -9999 -9999 -9999 -9999 -9999 -9999 -9999 -9999 -9999 -9999 -9999 -9999 -9999 -9999 -9999 -9999 -9999 -9999 -9999 -9999 -9999 -9999 -9999 -9999 -9999 -9999 -9999
-9999 -9999 -9999 -9999 -9999 -9999 -9999 -9999 -9999 -9999 -9999 -9999 -9999 -9999 -9999 -9999 -9999 -9999 -9999 -9999 -9999 -9999 -9999 -9999 -9999 -9999 -9999 -9999 -9999 -9999 -9999 -9999 -9999 -9999 -9999 -9999 -9999 -9999 -9999 -9999 -9999 -9999 -9999 -9999 -9999 -9999 -9999 -9999 -9999 -9999 -9999 -9999 -9999 -9999 -9999 -9999 -9999 0.058 0.075 0.122 0.132 0.150 0.152 0.124 0.143 0.148 0.154 0.159 0.201 0.177 0.192 0.194 0.188 0.225 0.202 0.228 0.255 0.264 0.253 0.225 0.112 0.119 0.123 0.124 0.128 0.147 0.129 0.136 0.132 0.117 0.103 0.107 0.122 0.120 0.144 0.130 0.126 0.126 0.141 0.150 0.133 0.137 0.134 0.144 0.151 0.148 0.153 0.143 0.118 0.000 -9999 -9999 -9999 -9999 -9999 -9999 -9999 -9999 -9999 -9999 -9999 -9999 -9999 -9999 -9999 -9999 -9999 -9999 -9999 -9999 -9999 -9999 -9999 -9999 -9999 -9999 -9999 -9999 -9999 -9999 -9999 -9999 -9999 -9999 -9999 -9999 -9999 -9999 -9999 -9999 -9999 -9999 -9999 -9999 -9999 -9999 -9999 -9999 -9999 -9999 -9999 -9999 -9999 -9999 -9999 -9999 -9999 -9999 -9999 -9999 -9999 -9999 -9999 -9999 -9999 -9999 -9999 -9999 -9999 -9999 -9999 -9999 -9999 -9999 -9999 -9999 -9999 -9999 -9999 -9999 -9999 -9999 -9999 -9999 -9999 -9999 -9999 -9999 -9999 -9999 -9999 -9999 -9999 -9999 -9999 -9999 -9999 -9999 -9999 -9999 -9999 -9999 -9999 -9999 -9999 -9999 -9999 -9999 -9999 -9999 -9999 -9999 -9999 -9999 -9999 -9999 -9999 -9999 -9999 -9999 -9999 -9999 -9999 -9999
-9999 -9999 -9999 -9999 -9999 -9999 -9999 -9999 -9999 -9999 -9999 -9999 -9999 -9999 -9999 -9999 -9999 -9999 -9999 -9999 -9999 -9999 -9999 -9999 -9999 -9999 -9999 -9999 -9999 -9999 -9999 -9999 -9999 -9999 -9999 -9999 -9999 -9999 -9999 -9999 -9999 -9999 -9999 -9999 -9999 -9999 -9999 -9999 -9999 -9999 -9999 -9999 -9999 -9999 -9999 -9999 -9999 0.000 0.084 0.097 0.096 0.126 0.146 0.141 0.124 0.131 0.149 0.174 0.178 0.199 0.192 0.219 0.237 0.242 0.247 0.253 0.271 0.257 0.255 0.099 0.114 0.129 0.126 0.140 0.123 0.123 0.127 0.138 0.157 0.151 0.129 0.116 0.128 0.111 0.105 0.123 0.133 0.127 0.126 0.146 0.151 0.151 0.140 0.141 0.146 0.139 0.128 0.108 0.000 -9999 -9999 -9999 -9999 -9999 -9999 -9999 -9999 -9999 -9999 -9999 -9999 -9999 -9999 -9999 -9999 -9999 -9999 -9999 -9999 -9999 -9999 -9999 -9999 -9999 -9999 -9999 -9999 -9999 -9999 -9999 -9999 -9999 -9999 -9999 -9999 -9999 -9999 -9999 -9999 -9999 -9999 -9999 -9999 -9999 -9999 -9999 -9999 -9999 -9999 -9999 -9999 -9999 -9999 -9999 -9999 -9999 -9999 -9999 -9999 -9999 -9999 -9999 -9999 -9999 -9999 -9999 -9999 -9999 -9999 -9999 -9999 -9999 -9999 -9999 -9999 -9999 -9999 -9999 -9999 -9999 -9999 -9999 -9999 -9999 -9999 -9999 -9999 -9999 -9999 -9999 -9999 -9999 -9999 -9999 -9999 -9999 -9999 -9999 -9999 -9999 -9999 -9999 -9999 -9999 -9999 -9999 -9999 -9999 -9999 -9999 -9999 -9999 -9999 -9999 -9999 -9999 -9999 -9999 -9999 -9999 -9999 -9999 -9999 -9999
-9999 -9999 -9999 -9999 -9999 -9999 -9999 -9999 -9999 -9999 -9999 -9999 -9999 -9999 -9999 -9999 -9999 -9999 -9999 -9999 -9999 -9999 -9999 -9999 -9999 -9999 -9999 -9999 -9999 -9999 -9999 -9999 -9999 -9999 -9999 -9999 -9999 -9999 -9999 -9999 -9999 -9999 -9999 -9999 -9999 -9999 -9999 -9999 -9999 -9999 -9999 -9999 -9999 -9999 -9999 -9999 -9999 0.025 0.016 0.026 0.099 0.118 0.123 0.106 0.124 0.144 0.141 0.162 0.171 0.209 0.190 0.222 0.217 0.262 0.278 0.286 0.285 0.271 0.253 0.113 0.131 0.121 0.131 0.132 0.154 0.119 0.157 0.165 0.149 0.145 0.141 0.136 0.127 0.115 0.113 0.106 0.115 0.134 0.138 0.147 0.147 0.155 0.151 0.136 0.141 0.142 0.117 -9999 -9999 -9999 -9999 -9999 -9999 -9999 -9999 -9999 -9999 -9999 -9999 -9999 -9999 -9999 -9999 -9999 -9999 -9999 -9999 -9999 -9999 -9999 -9999 -9999 -9999 -9999 -9999 -9999 -9999 -9999 -9999 -9999 -9999 -9999 -9999 -9999 -9999 -9999 -9999 -9999 -9999 -9999 -9999 -9999 -9999 -9999 -9999 -9999 -9999 -9999 -9999 -9999 -9999 -9999 -9999 -9999 -9999 -9999 -9999 -9999 -9999 -9999 -9999 -9999 -9999 -9999 -9999 -9999 -9999 -9999 -9999 -9999 -9999 -9999 -9999 -9999 -9999 -9999 -9999 -9999 -9999 -9999 -9999 -9999 -9999 -9999 -9999 -9999 -9999 -9999 -9999 -9999 -9999 -9999 -9999 -9999 -9999 -9999 -9999 -9999 -9999 -9999 -9999 -9999 -9999 -9999 -9999 -9999 -9999 -9999 -9999 -9999 -9999 -9999 -9999 -9999 -9999 -9999 -9999 -9999 -9999 -9999 -9999 -9999 -9999 -9999
-9999 -9999 -9999 -9999 -9999 -9999 -9999 -9999 -9999 -9999 -9999 -9999 -9999 -9999 -9999 -9999 -9999 -9999 -9999 -9999 -9999 -9999 -9999 -9999 -9999 -9999 -9999 -9999 -9999 -9999 -9999 -9999 -9999 -9999 -9999 -9999 -9999 -9999 -9999 -9999 -9999 -9999 -9999 -9999 -9999 -9999 -9999 -9999 -9999 -9999 -9999 -9999 -9999 -9999 -9999 -9999 -9999 -9999 -9999 -9999 0.098 0.102 0.095 0.103 0.113 0.146 0.161 0.183 0.172 0.165 0.187 0.238 0.219 0.224 0.270 0.280 0.273 0.294 0.257 0.253 0.126 0.127 0.114 0.129 0.149 0.130 0.149 0.162 0.136 0.138 0.156 0.155 0.131 0.130 0.133 0.124 0.000 0.000 0.109 0.138 0.155 0.159 0.153 0.139 0.131 0.113 0.000 -9999 -9999 -9999 -9999 -9999 -9999 -9999 -9999 -9999 -9999 -9999 -9999 -9999 -9999 -9999 -9999 -9999 -9999 -9999 -9999 -9999 -9999 -9999 -9999 -9999 -9999 -9999 -9999 -9999 -9999 -9999 -9999 -9999 -9999 -9999 -9999 -9999 -9999 -9999 -9999 -9999 -9999 -9999 -9999 -9999 -9999 -9999 -9999 -9999 -9999 -9999 -9999 -9999 -9999 -9999 -9999 -9999 -9999 -9999 -9999 -9999 -9999 -9999 -9999 -9999 -9999 -9999 -9999 -9999 -9999 -9999 -9999 -9999 -9999 -9999 -9999 -9999 -9999 -9999 -9999 -9999 -9999 -9999 -9999 -9999 -9999 -9999 -9999 -9999 -9999 -9999 -9999 -9999 -9999 -9999 -9999 -9999 -9999 -9999 -9999 -9999 -9999 -9999 -9999 -9999 -9999 -9999 -9999 -9999 -9999 -9999 -9999 -9999 -9999 -9999 -9999 -9999 -9999 -9999 -9999 -9999 -9999 -9999 -9999 -9999 -9999 -9999
-9999 -9999 -9999 -9999 -9999 -9999 -9999 -9999 -9999 -9999 -9999 -9999 -9999 -9999 -9999 -9999 -9999 -9999 -9999 -9999 -9999 -9999 -9999 -9999 -9999 -9999 -9999 -9999 -9999 -9999 -9999 -9999 -9999 -9999 -9999 -9999 -9999 -9999 -9999 -9999 -9999 -9999 -9999 -9999 -9999 -9999 -9999 -9999 -9999 -9999 -9999 -9999 -9999 -9999 -9999 -9999 -9999 -9999 -9999 -9999 0.113 0.000 0.089 0.000 0.091 0.103 0.162 0.177 0.152 0.169 0.205 0.238 0.252 0.277 0.249 0.270 0.283 0.240 0.207 0.112 0.115 0.128 0.111 0.144 0.141 0.143 0.142 0.132 0.126 0.158 0.169 0.167 0.142 0.133 0.141 0.154 0.117 0.117 0.000 0.121 0.135 0.130 0.113 0.000 -9999 -9999 -9999 -9999 -9999 -9999 -9999 -9999 -9999 -9999 -9999 -9999 -9999 -9999 -9999 -9999 -9999 -9999 -9999 -9999 -9999 -9999 -9999 -9999 -9999 -9999 -9999 -9999 -9999 -9999 -9999 -9999 -9999 -9999 -9999 -9999 -9999 -9999 -9999 -9999 -9999 -9999 -9999 -9999 -9999 -9999 -9999 -9999 -9999 -9999 -9999 -9999 -9999 -9999 -9999 -9999 -9999 -9999 -9999 -9999 -9999 -9999 -9999 -9999 -9999 -9999 -9999 -9999 -9999 -9999 -9999 -9999 -9999 -9999 -9999 -9999 -9999 -9999 -9999 -9999 -9999 -9999 -9999 -9999 -9999 -9999 -9999 -9999 -9999 -9999 -9999 -9999 -9999 -9999 -9999 -9999 -9999 -9999 -9999 -9999 -9999 -9999 -9999 -9999 -9999 -9999 -9999 -9999 -9999 -9999 -9999 -9999 -9999 -9999 -9999 -9999 -9999 -9999 -9999 -9999 -9999 -9999 -9999 -9999 -9999 -9999 -9999 -9999 -9999 -9999
-9999 -9999 -9999 -9999 -9999 -9999 -9999 -9999 -9999 -9999 -9999 -9999 -9999 -9999 -9999 -9999 -9999 -9999 -9999 -9999 -9999 -9999 -9999 -9999 -9999 -9999 -9999 -9999 -9999 -9999 -9999 -9999 -9999 -9999 -9999 -9999 -9999 -9999 -9999 -9999 -9999 -9999 -9999 -9999 -9999 -9999 -9999 -9999 -9999 -9999 -9999 -9999 -9999 -9999 -9999 -9999 -9999 -9999 -9999 -9999 -9999 -9999 0.000 0.083 0.092 0.097 0.146 0.147 0.177 0.203 0.232 0.262 0.237 0.268 0.258 0.254 0.250 0.217 0.216 0.244 0.116 0.119 0.110 0.114 0.126 0.134 0.151 0.151 0.171 0.164 0.154 0.147 0.141 0.146 0.142 0.152 0.143 0.148 0.000 -9999 0.119 0.121 0.000 -9999 -9999 -9999 -9999 -9999 -9999 -9999 -9999 -9999 -9999 -9999 -9999 -9999 -9999 -9999 -9999 -9999 -9999 -9999 -9999 -9999 -9999 -9999 -9999 -9999 -9999 -9999 -9999 -9999 -9999 -9999 -9999 -9999 -9999 -9999 -9999 -9999 -9999 -9999 -9999 -9999 -9999 -9999 -9999 -9999 -9999 -9999 -9999 -9999 -9999 -9999 -9999 -9999 -9999 -9999 -9999 -9999 -9999 -9999 -9999 -9999 -9999 -9999 -9999 -9999 -9999 -9999 -9999 -9999 -9999 -9999 -9999 -9999 -9999 -9999 -9999 -9999 -9999 -9999 -9999 -9999 -9999 -9999 -9999 -9999 -9999 -9999 -9999 -9999 -9999 -9999 -9999 -9999 -9999 -9999 -9999 -9999 -9999 -9999 -9999 -9999 -9999 -9999 -9999 -9999 -9999 -9999 -9999 -9999 -9999 -9999 -9999 -9999 -9999 -9999 -9999 -9999 -9999 -9999 -9999 -9999 -9999 -9999 -9999 -9999 -9999 -9999 -9999 -9999 -9999 -9999
-9999 -9999 -9999 -9999 -9999 -9999 -9999 -9999 -9999 -9999 -9999 -9999 -9999 -9999 -9999 -9999 -9999 -9999 -9999 -9999 -9999 -9999 -9999 -9999 -9999 -9999 -9999 -9999 -9999 -9999 -9999 -9999 -9999 -9999 -9999 -9999 -9999 -9999 -9999 -9999 -9999 -9999 -9999 -9999 -9999 -9999 -9999 -9999 -9999 -9999 -9999 -9999 -9999 -9999 -9999 -9999 -9999 -9999 -9999 -9999 -9999 0.034 0.074 0.081 0.103 0.112 0.133 0.145 0.178 0.218 0.239 0.281 0.223 0.247 0.242 0.234 0.248 0.201 0.216 0.241 0.242 0.231 0.131 0.121 0.124 0.119 0.147 0.148 0.144 0.146 0.155 0.139 0.127 0.136 0.137 0.141 0.139 0.131 0.131 -9999 0.000 -9999 -9999 -9999 -9999 -9999 -9999 -9999 -9999 -9999 -9999 -9999 -9999 -9999 -9999 -9999 -9999 -9999 -9999 -9999 -9999 -9999 -9999 -9999 -9999 -9999 -9999 -9999 -9999 -9999 -9999 -9999 -9999 -9999 -9999 -9999 -9999 -9999 -9999 -9999 -9999 -9999 -9999 -9999 -9999 -9999 -9999 -9999 -9999 -9999 -9999 -9999 -9999 -9999 -9999 -9999 -9999 -9999 -9999 -9999 -9999 -9999 -9999 -9999 -9999 -9999 -9999 -9999 -9999 -9999 -9999 -9999 -9999 -9999 -9999 -9999 -9999 -9999 -9999 -9999 -9999 -9999 -9999 -9999 -9999 -9999 -9999 -9999 -9999 -9999 -9999 -9999 -9999 -9999 -9999 -9999 -9999 -9999 -9999 -9999 -9999 -9999 -9999 -9999 -9999 -9999 -9999 -9999 -9999 -9999 -9999 -9999 -9999 -9999 -9999 -9999 -9999 -9999 -9999 -9999 -9999 -9999 -9999 -9999 -9999 -9999 -9999 -9999 -9999 -9999 -9999 -9999 -9999 -9999
-9999 -9999 -9999 -9999 -9999 -9999 -9999 -9999 -9999 -9999 -9999 -9999 -9999 -9999 -9999 -9999 -9999 -9999 -9999 -9999 -9999 -9999 -9999 -9999 -9999 -9999 -9999 -9999 -9999 -9999 -9999 -9999 -9999 -9999 -9999 -9999 -9999 -9999 -9999 -9999 -9999 -9999 -9999 -9999 -9999 -9999 -9999 -9999 -9999 -9999 -9999 -9999 -9999 -9999 -9999 -9999 -9999 -9999 -9999 -9999 -9999 0.033 0.080 0.090 0.111 0.124 0.153 0.164 0.174 0.217 0.229 0.221 0.209 0.196 0.202 0.246 0.229 0.226 0.206 0.249 0.128 0.129 0.139 0.115 0.139 0.134 0.123 0.137 0.138 0.129 0.133 0.127 0.144 0.136 0.140 0.129 0.125 0.118 0.000 -9999 -9999 -9999 -9999 -9999 -9999 -9999 -9999 -9999 -9999 -9999 -9999 -9999 -9999 -9999 -9999 -9999 -9999 -9999 -9999 -9999 -9999 -9999 -9999 -9999 -9999 -9999 -9999 -9999 -9999 -9999 -9999 -9999 -9999 -9999 -9999 -9999 -9999 -9999 -9999 -9999 -9999 -9999 -9999 -9999 -9999 -9999 -9999 -9999 -9999 -9999 -9999 -9999 -9999 -9999 -9999 -9999 -9999 -9999 -9999 -9999 -9999 -9999 -9999 -9999 -9999 -9999 -9999 -9999 -9999 -9999 -9999 -9999 -9999 -9999 -9999 -9999 -9999 -9999 -9999 -9999 -9999 -9999 -9999 -9999 -9999 -9999 -9999 -9999 -9999 -9999 -9999 -9999 -9999 -9999 -9999 -9999 -9999 -9999 -9999 -9999 -9999 -9999 -9999 -9999 -9999 -9999 -9999 -9999 -9999 -9999 -9999 -9999 -9999 -9999 -9999 -9999 -9999 -9999 -9999 -9999 -9999 -9999 -9999 -9999 -9999 -9999 -9999 -9999 -9999 -9999 -9999 -9999 -9999 -9999
-9999 -9999 -9999 -9999 -9999 -9999 -9999 -9999 -9999 -9999 -9999 -9999 -9999 -9999 -9999 -9999 -9999 -9999 -9999 -9999 -9999 -9999 -9999 -9999 -9999 -9999 -9999 -9999 -9999 -9999 -9999 -9999 -9999 -9999 -9999 -9999 -9999 -9999 -9999 -9999 -9999 -9999 -9999 -9999 -9999 -9999 -9999 -9999 -9999 -9999 -9999 -9999 -9999 -9999 -9999 -9999 -9999 -9999 -9999 -9999 -9999 0.024 0.087 0.128 0.136 0.135 0.167 0.167 0.162 0.185 0.188 0.190 0.178 0.196 0.202 0.212 0.226 0.227 0.184 0.126 0.140 0.138 0.134 0.135 0.137 0.140 0.125 0.126 0.138 0.160 0.133 0.156 0.162 0.153 0.140 0.144 0.144 0.135 -9999 -9999 -9999 -9999 -9999 -9999 -9999 -9999 -9999 -9999 -9999 -9999 -9999 -9999 -9999 -9999 -9999 -9999 -9999 -9999 -9999 -9999 -9999 -9999 -9999 -9999 -9999 -9999 -9999 -9999 -9999 -9999 -9999 -9999 -9999 -9999 -9999 -9999 -9999 -9999 -9999 -9999 -9999 -9999 -9999 -9999 -9999 -9999 -9999 -9999 -9999 -9999 -9999 -9999 -9999 -9999 -9999 -9999 -9999 -9999 -9999 -9999 -9999 -9999 -9999 -9999 -9999 -9999 -9999 -9999 -9999 -9999 -9999 -9999 -9999 -9999 -9999 -9999 -9999 -9999 -9999 -9999 -9999 -9999 -9999 -9999 -9999 -9999 -9999 -9999 -9999 -9999 -9999 -9999 -9999 -9999 -9999 -9999 -9999 -9999 -9999 -9999 -9999 -9999 -9999 -9999 -9999 -9999 -9999 -9999 -9999 -9999 -9999 -9999 -9999 -9999 -9999 -9999 -9999 -9999 -9999 -9999 -9999 -9999 -9999 -9999 -9999 -9999 -9999 -9999 -9999 -9999 -9999 -9999 -9999 -9999
-9999 -9999 -9999 -9999 -9999 -9999 -9999 -9999 -9999 -9999 -9999 -9999 -9999 -9999 -9999 -9999 -9999 -9999 -9999 -9999 -9999 -9999 -9999 -9999 -9999 -9999 -9999 -9999 -9999 -9999 -9999 -9999 -9999 -9999 -9999 -9999 -9999 -9999 -9999 -9999 -9999 -9999 -9999 -9999 -9999 -9999 -9999 -9999 -9999 -9999 -9999 -9999 -9999 -9999 -9999 -9999 -9999 -9999 -9999 -9999 -9999 0.065 0.108 0.145 0.156 0.141 0.181 0.171 0.162 0.177 0.199 0.195 0.204 0.109 0.117 0.108 0.211 0.223 0.123 0.126 0.143 0.144 0.157 0.147 0.142 0.122 0.142 0.141 0.148 0.161 0.161 0.141 0.178 0.154 0.167 0.170 0.171 0.154 0.000 -9999 -9999 -9999 -9999 -9999 -9999 -9999 -9999 -9999 -9999 -9999 -9999 -9999 -9999 -9999 -9999 -9999 -9999 -9999 -9999 -9999 -9999 -9999 -9999 -9999 -9999 -9999 -9999 -9999 -9999 -9999 -9999 -9999 -9999 -9999 -9999 -9999 -9999 -9999 -9999 -9999 -9999 -9999 -9999 -9999 -9999 -9999 -9999 -9999 -9999 -9999 -9999 -9999 -9999 -9999 -9999 -9999 -9999 -9999 -9999 -9999 -9999 -9999 -9999 -9999 -9999 -9999 -9999 -9999 -9999 -9999 -9999 -9999 -9999 -9999 -9999 -9999 -9999 -9999 -9999 -9999 -9999 -9999 -9999 -9999 -9999 -9999 -9999 -9999 -9999 -9999 -9999 -9999 -9999 -9999 -9999 -9999 -9999 -9999 -9999 -9999 -9999 -9999 -9999 -9999 -9999 -9999 -9999 -9999 -9999 -9999 -9999 -9999 -9999 -9999 -9999 -9999 -9999 -9999 -9999 -9999 -9999 -9999 -9999 -9999 -9999 -9999 -9999 -9999 -9999 -9999 -9999 -9999 -9999 -9999
-9999 -9999 -9999 -9999 -9999 -9999 -9999 -9999 -9999 -9999 -9999 -9999 -9999 -9999 -9999 -9999 -9999 -9999 -9999 -9999 -9999 -9999 -9999 -9999 -9999 -9999 -9999 -9999 -9999 -9999 -9999 -9999 -9999 -9999 -9999 -9999 -9999 -9999 -9999 -9999 -9999 -9999 -9999 -9999 -9999 -9999 -9999 -9999 -9999 -9999 -9999 -9999 -9999 -9999 -9999 -9999 -9999 -9999 -9999 0.037 0.024 0.097 0.112 0.133 0.149 0.149 0.204 0.184 0.186 0.208 0.216 0.108 0.101 0.117 0.121 0.127 0.125 0.118 0.122 0.124 0.126 0.151 0.167 0.170 0.156 0.156 0.171 0.172 0.174 0.191 0.163 0.161 0.152 0.159 0.155 0.170 0.162 0.152 -9999 -9999 -9999 -9999 -9999 -9999 -9999 -9999 -9999 -9999 -9999 -9999 -9999 -9999 -9999 -9999 -9999 -9999 -9999 -9999 -9999 -9999 -9999 -9999 -9999 -9999 -9999 -9999 -9999 -9999 -9999 -9999 -9999 -9999 -9999 -9999 -9999 -9999 -9999 -9999 -9999 -9999 -9999 -9999 -9999 -9999 -9999 -9999 -9999 -9999 -9999 -9999 -9999 -9999 -9999 -9999 -9999 -9999 -9999 -9999 -9999 -9999 -9999 -9999 -9999 -9999 -9999 -9999 -9999 -9999 -9999 -9999 -9999 -9999 -9999 -9999 -9999 -9999 -9999 -9999 -9999 -9999 -9999 -9999 -9999 -9999 -9999 -9999 -9999 -9999 -9999 -9999 -9999 -9999 -9999 -9999 -9999 -9999 -9999 -9999 -9999 -9999 -9999 -9999 -9999 -9999 -9999 -9999 -9999 -9999 -9999 -9999 -9999 -9999 -9999 -9999 -9999 -9999 -9999 -9999 -9999 -9999 -9999 -9999 -9999 -9999 -9999 -9999 -9999 -9999 -9999 -9999 -9999 -9999 -9999 -9999
-9999 -9999 -9999 -9999 -9999 -9999 -9999 -9999 -9999 -9999 -9999 -9999 -9999 -9999 -9999 -9999 -9999 -9999 -9999 -9999 -9999 -9999 -9999 -9999 -9999 -9999 -9999 -9999 -9999 -9999 -9999 -9999 -9999 -9999 -9999 -9999 -9999 -9999 -9999 -9999 -9999 -9999 -9999 -9999 -9999 -9999 -9999 -9999 -9999 -9999 -9999 -9999 -9999 -9999 -9999 -9999 -9999 -9999 -9999 0.097 0.116 0.129 0.141 0.139 0.179 0.188 0.197 0.188 0.208 0.219 0.112 0.119 0.123 0.142 0.151 0.135 0.124 0.112 0.119 0.115 0.134 0.152 0.176 0.188 0.183 0.201 0.160 0.160 0.174 0.184 0.168 0.156 0.137 0.145 0.162 0.167 0.161 0.138 -9999 -9999 -9999 -9999 -9999 -9999 -9999 -9999 -9999 -9999 -9999 -9999 -9999 -9999 -9999 -9999 -9999 -9999 -9999 -9999 -9999 -9999 -9999 -9999 -9999 -9999 -9999 -9999 -9999 -9999 -9999 -9999 -9999 -9999 -9999 -9999 -9999 -9999 -9999 -9999 -9999 -9999 -9999 -9999 -9999 -9999 -9999 -9999 -9999 -9999 -9999 -9999 -9999 -9999 -9999 -9999 -9999 -9999 -9999 -9999 -9999 -9999 -9999 -9999 -9999 -9999 -9999 -9999 -9999 -9999 -9999 -9999 -9999 -9999 -9999 -9999 -9999 -9999 -9999 -9999 -9999 -9999 -9999 -9999 -9999 -9999 -9999 -9999 -9999 -9999 -9999 -9999 -9999 -9999 -9999 -9999 -9999 -9999 -9999 -9999 -9999 -9999 -9999 -9999 -9999 -9999 -9999 -9999 -9999 -9999 -9999 -9999 -9999 -9999 -9999 -9999 -9999 -9999 -9999 -9999 -9999 -9999 -9999 -9999 -9999 -9999 -9999 -9999 -9999 -9999 -9999 -9999 -9999 -9999 -9999 -9999
-9999 -9999 -9999 -9999 -9999 -9999 -9999 -9999 -9999 -9999 -9999 -9999 -9999 -9999 -9999 -9999 -9999 -9999 -9999 -9999 -9999 -9999 -9999 -9999 -9999 -9999 -9999 -9999 -9999 -9999 -9999 -9999 -9999 -9999 -9999 -9999 -9999 -9999 -9999 -9999 -9999 -9999 -9999 -9999 -9999 -9999 -9999 -9999 -9999 -9999 -9999 -9999 -9999 -9999 -9999 -9999 -9999 -9999 0.022 0.102 0.126 0.141 0.148 0.152 0.170 0.198 0.185 0.204 0.239 0.254 0.261 0.136 0.142 0.151 0.130 0.123 0.121 0.115 0.118 0.127 0.156 0.164 0.185 0.180 0.186 0.211 0.164 0.139 0.147 0.169 0.153 0.145 0.138 0.142 0.145 0.126 0.141 0.123 0.144 -9999 -9999 -9999 -9999 -9999 -9999 -9999 -9999 -9999 -9999 -9999 -9999 -9999 -9999 -9999 -9999 -9999 -9999 -9999 -9999 -9999 -9999 -9999 -9999 -9999 -9999 -9999 -9999 -9999 -9999 -9999 -9999 -9999 -9999 -9999 -9999 -9999 -9999 -9999 -9999 -9999 -9999 -9999 -9999 -9999 -9999 -9999 -9999 -9999 -9999 -9999 -9999 -9999 -9999 -9999 -9999 -9999 -9999 -9999 -9999 -9999 -9999 -9999 -9999 -9999 -9999 -9999 -9999 -9999 -9999 -9999 -9999 -9999 -9999 -9999 -9999 -9999 -9999 -9999 -9999 -9999 -9999 -9999 -9999 -9999 -9999 -9999 -9999 -9999 -9999 -9999 -9999 -9999 -9999 -9999 -9999 -9999 -9999 -9999 -9999 -9999 -9999 -9999 -9999 -9999 -9999 -9999 -9999 -9999 -9999 -9999 -9999 -9999 -9999 -9999 -9999 -9999 -9999 -9999 -9999 -9999 -9999 -9999 -9999 -9999 -9999 -9999 -9999 -9999 -9999 -9999 -9999 -9999 -9999 -9999
-9999 -9999 -9999 -9999 -9999 -9999 -9999 -9999 -9999 -9999 -9999 -9999 -9999 -9999 -9999 -9999 -9999 -9999 -9999 -9999 -9999 -9999 -9999 -9999 -9999 -9999 -9999 -9999 -9999 -9999 -9999 -9999 -9999 -9999 -9999 -9999 -9999 -9999 -9999 -9999 -9999 -9999 -9999 -9999 -9999 -9999 -9999 -9999 -9999 -9999 -9999 -9999 -9999 -9999 -9999 -9999 -9999 -9999 0.021 0.108 0.132 0.154 0.157 0.170 0.152 0.165 0.180 0.204 0.197 0.220 0.234 0.140 0.191 0.134 0.122 0.107 0.111 0.129 0.135 0.154 0.164 0.172 0.185 0.190 0.203 0.200 0.148 0.140 0.142 0.152 0.171 0.134 0.143 0.163 0.145 0.111 0.119 0.127 0.122 -9999 -9999 -9999 -9999 -9999 -9999 -9999 -9999 -9999 -9999 -9999 -9999 -9999 -9999 -9999 -9999 -9999 -9999 -9999 -9999 -9999 -9999 -9999 -9999 -9999 -9999 -9999 -9999 -9999 -9999 -9999 -9999 -9999 -9999 -9999 -9999 -9999 -9999 -9999 -9999 -9999 -9999 -9999 -9999 -9999 -9999 -9999 -9999 -9999 -9999 -9999 -9999 -9999 -9999 -9999 -9999 -9999 -9999 -9999 -9999 -9999 -9999 -9999 -9999 -9999 -9999 -9999 -9999 -9999 -9999 -9999 -9999 -9999 -9999 -9999 -9999 -9999 -9999 -9999 -9999 -9999 -9999 -9999 -9999 -9999 -9999 -9999 -9999 -9999 -9999 -9999 -9999 -9999 -9999 -9999 -9999 -9999 -9999 -9999 -9999 -9999 -9999 -9999 -9999 -9999 -9999 -9999 -9999 -9999 -9999 -9999 -9999 -9999 -9999 -9999 -9999 -9999 -9999 -9999 -9999 -9999 -9999 -9999 -9999 -9999 -9999 -9999 -9999 -9999 -9999 -9999 -9999 -9999 -9999 -9999
-9999 -9999 -9999 -9999 -9999 -9999 -9999 -9999 -9999 -9999 -9999 -9999 -9999 -9999 -9999 -9999 -9999 -9999 -9999 -9999 -9999 -9999 -9999 -9999 -9999 -9999 -9999 -9999 -9999 -9999 -9999 -9999 -9999 -9999 -9999 -9999 -9999 -9999 -9999 -9999 -9999 -9999 -9999 -9999 -9999 -9999 -9999 -9999 -9999 -9999 -9999 -9999 -9999 -9999 -9999 -9999 -9999 0.026 0.101 0.133 0.148 0.156 0.163 0.161 0.159 0.159 0.196 0.219 0.209 0.223 0.225 0.138 0.129 0.131 0.116 0.114 0.117 0.129 0.125 0.161 0.165 0.175 0.168 0.179 0.176 0.175 0.147 0.152 0.155 0.159 0.151 0.155 0.137 0.172 0.157 0.127 0.120 0.000 -9999 -9999 -9999 -9999 -9999 -9999 -9999 -9999 -9999 -9999 -9999 -9999 -9999 -9999 -9999 -9999 -9999 -9999 -9999 -9999 -9999 -9999 -9999 -9999 -9999 -9999 -9999 -9999 -9999 -9999 -9999 -9999 -9999 -9999 -9999 -9999 -9999 -9999 -9999 -9999 -9999 -9999 -9999 -9999 -9999 -9999 -9999 -9999 -9999 -9999 -9999 -9999 -9999 -9999 -9999 -9999 -9999 -9999 -9999 -9999 -9999 -9999 -9999 -9999 -9999 -9999 -9999 -9999 -9999 -9999 -9999 -9999 -9999 -9999 -9999 -9999 -9999 -9999 -9999 -9999 -9999 -9999 -9999 -9999 -9999 -9999 -9999 -9999 -9999 -9999 -9999 -9999 -9999 -9999 -9999 -9999 -9999 -9999 -9999 -9999 -9999 -9999 -9999 -9999 -9999 -9999 -9999 -9999 -9999 -9999 -9999 -9999 -9999 -9999 -9999 -9999 -9999 -9999 -9999 -9999 -9999 -9999 -9999 -9999 -9999 -9999 -9999 -9999 -9999 -9999 -9999 -9999 -9999 -9999 -9999 -9999
-9999 -9999 -9999 -9999 -9999 -9999 -9999 -9999 -9999 -9999 -9999 -9999 -9999 -9999 -9999 -9999 -9999 -9999 -9999 -9999 -9999 -9999 -9999 -9999 -9999 -9999 -9999 -9999 -9999 -9999 -9999 -9999 -9999 -9999 -9999 -9999 -9999 -9999 -9999 -9999 -9999 -9999 -9999 -9999 -9999 -9999 -9999 -9999 -9999 -9999 -9999 -9999 -9999 -9999 -9999 -9999 -9999 -9999 0.025 0.131 0.143 0.158 0.173 0.185 0.176 0.143 0.179 0.182 0.230 0.235 0.229 0.114 0.111 0.105 0.105 0.120 0.132 0.147 0.153 0.149 0.158 0.168 0.180 0.175 0.185 0.190 0.141 0.144 0.152 0.157 0.146 0.162 0.151 0.167 0.170 0.173 0.148 0.000 -9999 -9999 -9999 -9999 -9999 -9999 -9999 -9999 -9999 -9999 -9999 -9999 -9999 -9999 -9999 -9999 -9999 -9999 -9999 -9999 -9999 -9999 -9999 -9999 -9999 -9999 -9999 -9999 -9999 -9999 -9999 -9999 -9999 -9999 -9999 -9999 -9999 -9999 -9999 -9999 -9999 -9999 -9999 -9999 -9999 -9999 -9999 -9999 -9999 -9999 -9999 -9999 -9999 -9999 -9999 -9999 -9999 -9999 -9999 -9999 -9999 -9999 -9999 -9999 -9999 -9999 -9999 -9999 -9999 -9999 -9999 -9999 -9999 -9999 -9999 -9999 -9999 -9999 -9999 -9999 -9999 -9999 -9999 -9999 -9999 -9999 -9999 -9999 -9999 -9999 -9999 -9999 -9999 -9999 -9999 -9999 -9999 -9999 -9999 -9999 -9999 -9999 -9999 -9999 -9999 -9999 -9999 -9999 -9999 -9999 -9999 -9999 -9999 -9999 -9999 -9999 -9999 -9999 -9999 -9999 -9999 -9999 -9999 -9999 -9999 -9999 -9999 -9999 -9999 -9999 -9999 -9999 -9999 -9999 -9999 -9999
-9999 -9999 -9999 -9999 -9999 -9999 -9999 -9999 -9999 -9999 -9999 -9999 -9999 -9999 -9999 -9999 -9999 -9999 -9999 -9999 -9999 -9999 -9999 -9999 -9999 -9999 -9999 -9999 -9999 -9999 -9999 -9999 -9999 -9999 -9999 -9999 -9999 -9999 -9999 -9999 -9999 -9999 -9999 -9999 -9999 -9999 -9999 -9999 -9999 -9999 -9999 -9999 -9999 -9999 -9999 -9999 -9999 0.030 0.113 0.137 0.136 0.144 0.161 0.185 0.175 0.148 0.180 0.187 0.196 0.240 0.234 0.265 0.112 0.116 0.104 0.117 0.121 0.146 0.152 0.141 0.150 0.168 0.140 0.139 0.174 0.175 0.152 0.142 0.143 0.159 0.165 0.161 0.154 0.176 0.159 0.143 0.149 0.002 -9999 -9999 -9999 -9999 -9999 -9999 -9999 -9999 -9999 -9999 -9999 -9999 -9999 -9999 -9999 -9999 -9999 -9999 -9999 -9999 -9999 -9999 -9999 -9999 -9999 -9999 -9999 -9999 -9999 -9999 -9999 -9999 -9999 -9999 -9999 -9999 -9999 -9999 -9999 -9999 -9999 -9999 -9999 -9999 -9999 -9999 -9999 -9999 -9999 -9999 -9999 -9999 -9999 -9999 -9999 -9999 -9999 -9999 -9999 -9999 -9999 -9999 -9999 -9999 -9999 -9999 -9999 -9999 -9999 -9999 -9999 -9999 -9999 -9999 -9999 -9999 -9999 -9999 -9999 -9999 -9999 -9999 -9999 -9999 -9999 -9999 -9999 -9999 -9999 -9999 -9999 -9999 -9999 -9999 -9999 -9999 -9999 -9999 -9999 -9999 -9999 -9999 -9999 -9999 -9999 -9999 -9999 -9999 -9999 -9999 -9999 -9999 -9999 -9999 -9999 -9999 -9999 -9999 -9999 -9999 -9999 -9999 -9999 -9999 -9999 -9999 -9999 -9999 -9999 -9999 -9999 -9999 -9999 -9999 -9999 -9999
-9999 -9999 -9999 -9999 -9999 -9999 -9999 -9999 -9999 -9999 -9999 -9999 -9999 -9999 -9999 -9999 -9999 -9999 -9999 -9999 -9999 -9999 -9999 -9999 -9999 -9999 -9999 -9999 -9999 -9999 -9999 -9999 -9999 -9999 -9999 -9999 -9999 -9999 -9999 -9999 -9999 -9999 -9999 -9999 -9999 -9999 -9999 -9999 -9999 -9999 -9999 -9999 -9999 -9999 -9999 -9999 0.079 0.112 0.122 0.139 0.160 0.146 0.177 0.195 0.179 0.156 0.180 0.206 0.213 0.251 0.245 0.115 0.120 0.110 0.123 0.124 0.126 0.136 0.145 0.153 0.153 0.145 0.144 0.147 0.158 0.191 0.148 0.160 0.151 0.158 0.158 0.143 0.156 0.180 0.159 0.135 0.131 -9999 -9999 -9999 -9999 -9999 -9999 -9999 -9999 -9999 -9999 -9999 -9999 -9999 -9999 -9999 -9999 -9999 -9999 -9999 -9999 -9999 -9999 -9999 -9999 -9999 -9999 -9999 -9999 -9999 -9999 -9999 -9999 -9999 -9999 -9999 -9999 -9999 -9999 -9999 -9999 -9999 -9999 -9999 -9999 -9999 -9999 -9999 -9999 -9999 -9999 -9999 -9999 -9999 -9999 -9999 -9999 -9999 -9999 -9999 -9999 -9999 -9999 -9999 -9999 -9999 -9999 -9999 -9999 -9999 -9999 -9999 -9999 -9999 -9999 -9999 -9999 -9999 -9999 -9999 -9999 -9999 -9999 -9999 -9999 -9999 -9999 -9999 -9999 -9999 -9999 -9999 -9999 -9999 -9999 -9999 -9999 -9999 -9999 -9999 -9999 -9999 -9999 -9999 -9999 -9999 -9999 -9999 -9999 -9999 -9999 -9999 -9999 -9999 -9999 -9999 -9999 -9999 -9999 -9999 -9999 -9999 -9999 -9999 -9999 -9999 -9999 -9999 -9999 -9999 -9999 -9999 -9999 -9999 -9999 -9999 -9999 -9999
-9999 -9999 -9999 -9999 -9999 -9999 -9999 -9999 -9999 -9999 -9999 -9999 -9999 -9999 -9999 -9999 -9999 -9999 -9999 -9999 -9999 -9999 -9999 -9999 -9999 -9999 -9999 -9999 -9999 -9999 -9999 -9999 -9999 -9999 -9999 -9999 -9999 -9999 -9999 -9999 -9999 -9999 -9999 -9999 -9999 -9999 -9999 -9999 -9999 -9999 -9999 -9999 -9999 -9999 -9999 -9999 0.032 0.124 0.135 0.157 0.150 0.158 0.175 0.203 0.211 0.183 0.211 0.213 0.220 0.251 0.265 0.155 0.120 0.128 0.129 0.116 0.120 0.129 0.141 0.152 0.132 0.152 0.143 0.146 0.155 0.180 0.148 0.164 0.150 0.175 0.165 0.142 0.158 0.176 0.157 0.133 0.000 -9999 -9999 -9999 -9999 -9999 -9999 -9999 -9999 -9999 -9999 -9999 -9999 -9999 -9999 -9999 -9999 -9999 -9999 -9999 -9999 -9999 -9999 -9999 -9999 -9999 -9999 -9999 -9999 -9999 -9999 -9999 -9999 -9999 -9999 -9999 -9999 -9999 -9999 -9999 -9999 -9999 -9999 -9999 -9999 -9999 -9999 -9999 -9999 -9999 -9999 -9999 -9999 -9999 -9999 -9999 -9999 -9999 -9999 -9999 -9999 -9999 -9999 -9999 -9999 -9999 -9999 -9999 -9999 -9999 -9999 -9999 -9999 -9999 -9999 -9999 -9999 -9999 -9999 -9999 -9999 -9999 -9999 -9999 -9999 -9999 -9999 -9999 -9999 -9999 -9999 -9999 -9999 -9999 -9999 -9999 -9999 -9999 -9999 -9999 -9999 -9999 -9999 -9999 -9999 -9999 -9999 -9999 -9999 -9999 -9999 -9999 -9999 -9999 -9999 -9999 -9999 -9999 -9999 -9999 -9999 -9999 -9999 -9999 -9999 -9999 -9999 -9999 -9999 -9999 -9999 -9999 -9999 -9999 -9999 -9999 -9999 -9999
-9999 -9999 -9999 -9999 -9999 -9999 -9999 -9999 -9999 -9999 -9999 -9999 -9999 -9999 -9999 -9999 -9999 -9999 -9999 -9999 -9999 -9999 -9999 -9999 -9999 -9999 -9999 -9999 -9999 -9999 -9999 -9999 -9999 -9999 -9999 -9999 -9999 -9999 -9999 -9999 -9999 -9999 -9999 -9999 -9999 -9999 -9999 -9999 -9999 -9999 -9999 -9999 -9999 -9999 -9999 0.028 0.121 0.131 0.147 0.146 0.162 0.178 0.192 0.198 0.189 0.200 0.221 0.234 0.232 0.237 0.277 0.155 0.131 0.138 0.130 0.132 0.124 0.127 0.155 0.164 0.170 0.150 0.143 0.149 0.153 0.161 0.153 0.151 0.177 0.168 0.177 0.162 0.170 0.182 0.156 0.144 0.000 -9999 -9999 -9999 -9999 -9999 -9999 -9999 -9999 -9999 -9999 -9999 -9999 -9999 -9999 -9999 -9999 -9999 -9999 -9999 -9999 -9999 -9999 -9999 -9999 -9999 -9999 -9999 -9999 -9999 -9999 -9999 -9999 -9999 -9999 -9999 -9999 -9999 -9999 -9999 -9999 -9999 -9999 -9999 -9999 -9999 -9999 -9999 -9999 -9999 -9999 -9999 -9999 -9999 -9999 -9999 -9999 -9999 -9999 -9999 -9999 -9999 -9999 -9999 -9999 -9999 -9999 -9999 -9999 -9999 -9999 -9999 -9999 -9999 -9999 -9999 -9999 -9999 -9999 -9999 -9999 -9999 -9999 -9999 -9999 -9999 -9999 -9999 -9999 -9999 -9999 -9999 -9999 -9999 -9999 -9999 -9999 -9999 -9999 -9999 -9999 -9999 -9999 -9999 -9999 -9999 -9999 -9999 -9999 -9999 -9999 -9999 -9999 -9999 -9999 -9999 -9999 -9999 -9999 -9999 -9999 -9999 -9999 -9999 -9999 -9999 -9999 -9999 -9999 -9999 -9999 -9999 -9999 -9999 -9999 -9999 -9999 -9999
-9999 -9999 -9999 -9999 -9999 -9999 -9999 -9999 -9999 -9999 -9999 -9999 -9999 -9999 -9999 -9999 -9999 -9999 -9999 -9999 -9999 -9999 -9999 -9999 -9999 -9999 -9999 -9999 -9999 -9999 -9999 -9999 -9999 -9999 -9999 -9999 -9999 -9999 -9999 -9999 -9999 -9999 -9999 -9999 -9999 -9999 -9999 -9999 -9999 -9999 -9999 -9999 -9999 -9999 0.052 0.130 0.143 0.152 0.153 0.167 0.177 0.185 0.214 0.203 0.179 0.212 0.227 0.243 0.271 0.245 0.245 0.266 0.132 0.135 0.127 0.130 0.131 0.158 0.163 0.173 0.149 0.147 0.153 0.136 0.149 0.157 0.162 0.154 0.187 0.190 0.179 0.188 0.158 0.182 0.157 0.160 0.134 -9999 -9999 -9999 -9999 -9999 -9999 -9999 -9999 -9999 -9999 -9999 -9999 -9999 -9999 -9999 -9999 -9999 -9999 -9999 -9999 -9999 -9999 -9999 -9999 -9999 -9999 -9999 -9999 -9999 -9999 -9999 -9999 -9999 -9999 -9999 -9999 -9999 -9999 -9999 -9999 -9999 -9999 -9999 -9999 -9999 -9999 -9999 -9999 -9999 -9999 -9999 -9999 -9999 -9999 -9999 -9999 -9999 -9999 -9999 -9999 -9999 -9999 -9999 -9999 -9999 -9999 -9999 -9999 -9999 -9999 -9999 -9999 -9999 -9999 -9999 -9999 -9999 -9999 -9999 -9999 -9999 -9999 -9999 -9999 -9999 -9999 -9999 -9999 -9999 -9999 -9999 -9999 -9999 -9999 -9999 -9999 -9999 -9999 -9999 -9999 -9999 -9999 -9999 -9999 -9999 -9999 -9999 -9999 -9999 -9999 -9999 -9999 -9999 -9999 -9999 -9999 -9999 -9999 -9999 -9999 -9999 -9999 -9999 -9999 -9999 -9999 -9999 -9999 -9999 -9999 -9999 -9999 -9999 -9999 -9999 -9999 -9999
-9999 -9999 -9999 -9999 -9999 -9999 -9999 -9999 -9999 -9999 -9999 -9999 -9999 -9999 -9999 -9999 -9999 -9999 -9999 -9999 -9999 -9999 -9999 -9999 -9999 -9999 -9999 -9999 -9999 -9999 -9999 -9999 -9999 -9999 -9999 -9999 -9999 -9999 -9999 -9999 -9999 -9999 -9999 -9999 -9999 -9999 -9999 -9999 -9999 -9999 -9999 -9999 -9999 -9999 0.032 0.143 0.153 0.177 0.176 0.169 0.196 0.205 0.186 0.189 0.200 0.215 0.215 0.240 0.273 0.235 0.249 0.247 0.298 0.138 0.142 0.146 0.133 0.133 0.140 0.157 0.139 0.142 0.150 0.147 0.150 0.156 0.144 0.141 0.149 0.149 0.166 0.186 0.169 0.174 0.136 0.146 0.146 0.164 -9999 -9999 -9999 -9999 -9999 -9999 -9999 -9999 -9999 -9999 -9999 -9999 -9999 -9999 -9999 -9999 -9999 -9999 -9999 -9999 -9999 -9999 -9999 -9999 -9999 -9999 -9999 -9999 -9999 -9999 -9999 -9999 -9999 -9999 -9999 -9999 -9999 -9999 -9999 -9999 -9999 -9999 -9999 -9999 -9999 -9999 -9999 -9999 -9999 -9999 -9999 -9999 -9999 -9999 -9999 -9999 -9999 -9999 -9999 -9999 -9999 -9999 -9999 -9999 -9999 -9999 -9999 -9999 -9999 -9999 -9999 -9999 -9999 -9999 -9999 -9999 -9999 -9999 -9999 -9999 -9999 -9999 -9999 -9999 -9999 -9999 -9999 -9999 -9999 -9999 -9999 -9999 -9999 -9999 -9999 -9999 -9999 -9999 -9999 -9999 -9999 -9999 -9999 -9999 -9999 -9999 -9999 -9999 -9999 -9999 -9999 -9999 -9999 -9999 -9999 -9999 -9999 -9999 -9999 -9999 -9999 -9999 -9999 -9999 -9999 -9999 -9999 -9999 -9999 -9999 -9999 -9999 -9999 -9999 -9999 -9999
-9999 -9999 -9999 -9999 -9999 -9999 -9999 -9999 -9999 -9999 -9999 -9999 -9999 -9999 -9999 -9999 -9999 -9999 -9999 -9999 -9999 -9999 -9999 -9999 -9999 -9999 -9999 -9999 -9999 -9999 -9999 -9999 -9999 -9999 -9999 -9999 -9999 -9999 -9999 -9999 -9999 -9999 -9999 -9999 -9999 -9999 -9999 -9999 -9999 -9999 -9999 0.036 0.136 0.141 0.145 0.181 0.164 0.185 0.181 0.173 0.199 0.207 0.204 0.192 0.215 0.233 0.241 0.219 0.250 0.256 0.280 0.263 0.271 0.289 0.158 0.135 0.138 0.140 0.145 0.156 0.137 0.140 0.142 0.154 0.161 0.156 0.144 0.146 0.152 0.163 0.150 0.169 0.168 0.177 0.158 0.131 0.171 0.155 0.227 -9999 -9999 -9999 -9999 -9999 -9999 -9999 -9999 -9999 -9999 -9999 -9999 -9999 -9999 -9999 -9999 -9999 -9999 -9999 -9999 -9999 -9999 -9999 -9999 -9999 -9999 -9999 -9999 -9999 -9999 -9999 -9999 -9999 -9999 -9999 -9999 -9999 -9999 -9999 -9999 -9999 -9999 -9999 -9999 -9999 -9999 -9999 -9999 -9999 -9999 -9999 -9999 -9999 -9999 -9999 -9999 -9999 -9999 -9999 -9999 -9999 -9999 -9999 -9999 -9999 -9999 -9999 -9999 -9999 -9999 -9999 -9999 -9999 -9999 -9999 -9999 -9999 -9999 -9999 -9999 -9999 -9999 -9999 -9999 -9999 -9999 -9999 -9999 -9999 -9999 -9999 -9999 -9999 -9999 -9999 -9999 -9999 -9999 -9999 -9999 -9999 -9999 -9999 -9999 -9999 -9999 -9999 -9999 -9999 -9999 -9999 -9999 -9999 -9999 -9999 -9999 -9999 -9999 -9999 -9999 -9999 -9999 -9999 -9999 -9999 -9999 -9999 -9999 -9999 -9999 -9999 -9999 -9999 -9999 -9999
-9999 -9999 -9999 -9999 -9999 -9999 -9999 -9999 -9999 -9999 -9999 -9999 -9999 -9999 -9999 -9999 -9999 -9999 -9999 -9999 -9999 -9999 -9999 -9999 -9999 -9999 -9999 -9999 -9999 -9999 -9999 -9999 -9999 -9999 -9999 -9999 -9999 -9999 -9999 -9999 -9999 -9999 -9999 -9999 -9999 -9999 -9999 -9999 -9999 -9999 0.034 0.128 0.141 0.149 0.167 0.177 0.186 0.186 0.169 0.179 0.188 0.185 0.193 0.183 0.214 0.229 0.243 0.255 0.265 0.266 0.300 0.271 0.271 0.314 0.320 0.156 0.150 0.145 0.143 0.147 0.118 0.120 0.157 0.161 0.142 0.147 0.147 0.157 0.169 0.153 0.160 0.211 0.159 0.172 0.191 0.177 0.148 0.153 0.146 -9999 -9999 -9999 -9999 -9999 -9999 -9999 -9999 -9999 -9999 -9999 -9999 -9999 -9999 -9999 -9999 -9999 -9999 -9999 -9999 -9999 -9999 -9999 -9999 -9999 -9999 -9999 -9999 -9999 -9999 -9999 -9999 -9999 -9999 -9999 -9999 -9999 -9999 -9999 -9999 -9999 -9999 -9999 -9999 -9999 -9999 -9999 -9999 -9999 -9999 -9999 -9999 -9999 -9999 -9999 -9999 -9999 -9999 -9999 -9999 -9999 -9999 -9999 -9999 -9999 -9999 -9999 -9999 -9999 -9999 -9999 -9999 -9999 -9999 -9999 -9999 -9999 -9999 -9999 -9999 -9999 -9999 -9999 -9999 -9999 -9999 -9999 -9999 -9999 -9999 -9999 -9999 -9999 -9999 -9999 -9999 -9999 -9999 -9999 -9999 -9999 -9999 -9999 -9999 -9999 -9999 -9999 -9999 -9999 -9999 -9999 -9999 -9999 -9999 -9999 -9999 -9999 -9999 -9999 -9999 -9999 -9999 -9999 -9999 -9999 -9999 -9999 -9999 -9999 -9999 -9999 -9999 -9999 -9999 -9999
-9999 -9999 -9999 -9999 -9999 -9999 -9999 -9999 -9999 -9999 -9999 -9999 -9999 -9999 -9999 -9999 -9999 -9999 -9999 -9999 -9999 -9999 -9999 -9999 -9999 -9999 -9999 -9999 -9999 -9999 -9999 -9999 -9999 -9999 -9999 -9999 -9999 -9999 -9999 -9999 -9999 -9999 -9999 -9999 -9999 -9999 -9999 -9999 -9999 -9999 0.031 0.133 0.151 0.163 0.187 0.196 0.175 0.159 0.163 0.205 0.201 0.205 0.192 0.197 0.223 0.235 0.263 0.253 0.278 0.295 0.271 0.293 0.296 0.291 0.308 0.323 0.176 0.163 0.142 0.134 0.131 0.132 0.150 0.156 0.151 0.152 0.133 0.136 0.146 0.152 0.186 0.209 0.165 0.172 0.187 0.192 0.206 0.184 0.150 0.000 0.153 0.214 -9999 -9999 -9999 -9999 -9999 -9999 -9999 -9999 -9999 -9999 -9999 -9999 -9999 -9999 -9999 -9999 -9999 -9999 -9999 -9999 -9999 -9999 -9999 -9999 -9999 -9999 -9999 -9999 -9999 -9999 -9999 -9999 -9999 -9999 -9999 -9999 -9999 -9999 -9999 -9999 -9999 -9999 -9999 -9999 -9999 -9999 -9999 -9999 -9999 -9999 -9999 -9999 -9999 -9999 -9999 -9999 -9999 -9999 -9999 -9999 -9999 -9999 -9999 -9999 -9999 -9999 -9999 -9999 -9999 -9999 -9999 -9999 -9999 -9999 -9999 -9999 -9999 -9999 -9999 -9999 -9999 -9999 -9999 -9999 -9999 -9999 -9999 -9999 -9999 -9999 -9999 -9999 -9999 -9999 -9999 -9999 -9999 -9999 -9999 -9999 -9999 -9999 -9999 -9999 -9999 -9999 -9999 -9999 -9999 -9999 -9999 -9999 -9999 -9999 -9999 -9999 -9999 -9999 -9999 -9999 -9999 -9999 -9999 -9999 -9999 -9999 -9999 -9999 -9999 -9999 -9999 -9999
-9999 -9999 -9999 -9999 -9999 -9999 -9999 -9999 -9999 -9999 -9999 -9999 -9999 -9999 -9999 -9999 -9999 -9999 -9999 -9999 -9999 -9999 -9999 -9999 -9999 -9999 -9999 -9999 -9999 -9999 -9999 -9999 -9999 -9999 -9999 -9999 -9999 -9999 -9999 -9999 -9999 -9999 -9999 -9999 -9999 -9999 -9999 -9999 -9999 -9999 0.031 0.143 0.160 0.178 0.171 0.151 0.158 0.152 0.179 0.202 0.203 0.195 0.215 0.204 0.202 0.270 0.282 0.295 0.307 0.323 0.301 0.300 0.333 0.338 0.361 0.338 0.294 0.289 0.147 0.129 0.133 0.127 0.129 0.144 0.144 0.149 0.138 0.140 0.133 0.150 0.181 0.182 0.177 0.181 0.197 0.203 0.204 0.189 0.000 0.167 0.000 0.152 0.012 -9999 -9999 -9999 -9999 -9999 -9999 -9999 -9999 -9999 -9999 -9999 -9999 -9999 -9999 -9999 -9999 -9999 -9999 -9999 -9999 -9999 -9999 -9999 -9999 -9999 -9999 -9999 -9999 -9999 -9999 -9999 -9999 -9999 -9999 -9999 -9999 -9999 -9999 -9999 -9999 -9999 -9999 -9999 -9999 -9999 -9999 -9999 -9999 -9999 -9999 -9999 -9999 -9999 -9999 -9999 -9999 -9999 -9999 -9999 -9999 -9999 -9999 -9999 -9999 -9999 -9999 -9999 -9999 -9999 -9999 -9999 -9999 -9999 -9999 -9999 -9999 -9999 -9999 -9999 -9999 -9999 -9999 -9999 -9999 -9999 -9999 -9999 -9999 -9999 -9999 -9999 -9999 -9999 -9999 -9999 -9999 -9999 -9999 -9999 -9999 -9999 -9999 -9999 -9999 -9999 -9999 -9999 -9999 -9999 -9999 -9999 -9999 -9999 -9999 -9999 -9999 -9999 -9999 -9999 -9999 -9999 -9999 -9999 -9999 -9999 -9999 -9999 -9999 -9999 -9999 -9999
-9999 -9999 -9999 -9999 -9999 -9999 -9999 -9999 -9999 -9999 -9999 -9999 -9999 -9999 -9999 -9999 -9999 -9999 -9999 -9999 -9999 -9999 -9999 -9999 -9999 -9999 -9999 -9999 -9999 -9999 -9999 -9999 -9999 -9999 -9999 -9999 -9999 -9999 -9999 -9999 -9999 -9999 -9999 -9999 -9999 -9999 -9999 -9999 -9999 -9999 0.030 0.135 0.183 0.157 0.145 0.156 0.170 0.162 0.168 0.193 0.218 0.214 0.213 0.224 0.222 0.274 0.290 0.291 0.282 0.269 0.317 0.343 0.310 0.327 0.343 0.295 0.317 0.344 0.310 0.308 0.131 0.128 0.132 0.138 0.145 0.157 0.150 0.157 0.153 0.184 0.175 0.160 0.178 0.177 0.192 0.197 0.194 0.179 0.175 0.182 0.000 0.159 0.151 -9999 -9999 -9999 -9999 -9999 -9999 -9999 -9999 -9999 -9999 -9999 -9999 -9999 -9999 -9999 -9999 -9999 -9999 -9999 -9999 -9999 -9999 -9999 -9999 -9999 -9999 -9999 -9999 -9999 -9999 -9999 -9999 -9999 -9999 -9999 -9999 -9999 -9999 -9999 -9999 -9999 -9999 -9999 -9999 -9999 -9999 -9999 -9999 -9999 -9999 -9999 -9999 -9999 -9999 -9999 -9999 -9999 -9999 -9999 -9999 -9999 -9999 -9999 -9999 -9999 -9999 -9999 -9999 -9999 -9999 -9999 -9999 -9999 -9999 -9999 -9999 -9999 -9999 -9999 -9999 -9999 -9999 -9999 -9999 -9999 -9999 -9999 -9999 -9999 -9999 -9999 -9999 -9999 -9999 -9999 -9999 -9999 -9999 -9999 -9999 -9999 -9999 -9999 -9999 -9999 -9999 -9999 -9999 -9999 -9999 -9999 -9999 -9999 -9999 -9999 -9999 -9999 -9999 -9999 -9999 -9999 -9999 -9999 -9999 -9999 -9999 -9999 -9999 -9999 -9999 -9999
-9999 -9999 -9999 -9999 -9999 -9999 -9999 -9999 -9999 -9999 -9999 -9999 -9999 -9999 -9999 -9999 -9999 -9999 -9999 -9999 -9999 -9999 -9999 -9999 -9999 -9999 -9999 -9999 -9999 -9999 -9999 -9999 -9999 -9999 -9999 -9999 -9999 -9999 -9999 -9999 -9999 -9999 -9999 -9999 -9999 -9999 -9999 -9999 -9999 -9999 0.033 0.146 0.134 0.146 0.160 0.177 0.184 0.187 0.184 0.213 0.208 0.205 0.234 0.243 0.229 0.251 0.276 0.270 0.236 0.242 0.274 0.327 0.368 0.351 0.335 0.303 0.303 0.326 0.267 0.270 0.122 0.136 0.138 0.140 0.146 0.165 0.162 0.146 0.159 0.162 0.174 0.163 0.176 0.175 0.195 0.217 0.214 0.218 0.184 0.164 0.174 0.176 0.167 0.000 -9999 -9999 -9999 -9999 -9999 -9999 -9999 -9999 -9999 -9999 -9999 -9999 -9999 -9999 -9999 -9999 -9999 -9999 -9999 -9999 -9999 -9999 -9999 -9999 -9999 -9999 -9999 -9999 -9999 -9999 -9999 -9999 -9999 -9999 -9999 -9999 -9999 -9999 -9999 -9999 -9999 -9999 -9999 -9999 -9999 -9999 -9999 -9999 -9999 -9999 -9999 -9999 -9999 -9999 -9999 -9999 -9999 -9999 -9999 -9999 -9999 -9999 -9999 -9999 -9999 -9999 -9999 -9999 -9999 -9999 -9999 -9999 -9999 -9999 -9999 -9999 -9999 -9999 -9999 -9999 -9999 -9999 -9999 -9999 -9999 -9999 -9999 -9999 -9999 -9999 -9999 -9999 -9999 -9999 -9999 -9999 -9999 -9999 -9999 -9999 -9999 -9999 -9999 -9999 -9999 -9999 -9999 -9999 -9999 -9999 -9999 -9999 -9999 -9999 -9999 -9999 -9999 -9999 -9999 -9999 -9999 -9999 -9999 -9999 -9999 -9999 -9999 -9999 -9999 -9999
-9999 -9999 -9999 -9999 -9999 -9999 -9999 -9999 -9999 -9999 -9999 -9999 -9999 -9999 -9999 -9999 -9999 -9999 -9999 -9999 -9999 -9999 -9999 -9999 -9999 -9999 -9999 -9999 -9999 -9999 -9999 -9999 -9999 -9999 -9999 -9999 -9999 -9999 -9999 -9999 -9999 -9999 -9999 -9999 -9999 -9999 -9999 -9999 -9999 -9999 0.029 0.127 0.165 0.183 0.183 0.195 0.172 0.185 0.225 0.213 0.217 0.232 0.239 0.218 0.234 0.257 0.272 0.280 0.251 0.276 0.283 0.333 0.298 0.346 0.369 0.343 0.325 0.328 0.235 0.117 0.125 0.122 0.140 0.144 0.142 0.157 0.159 0.152 0.161 0.158 0.166 0.160 0.171 0.172 0.176 0.188 0.199 0.219 0.216 0.184 0.159 0.177 0.181 0.160 -9999 -9999 -9999 -9999 -9999 -9999 -9999 -9999 -9999 -9999 -9999 -9999 -9999 -9999 -9999 -9999 -9999 -9999 -9999 -9999 -9999 -9999 -9999 -9999 -9999 -9999 -9999 -9999 -9999 -9999 -9999 -9999 -9999 -9999 -9999 -9999 -9999 -9999 -9999 -9999 -9999 -9999 -9999 -9999 -9999 -9999 -9999 -9999 -9999 -9999 -9999 -9999 -9999 -9999 -9999 -9999 -9999 -9999 -9999 -9999 -9999 -9999 -9999 -9999 -9999 -9999 -9999 -9999 -9999 -9999 -9999 -9999 -9999 -9999 -9999 -9999 -9999 -9999 -9999 -9999 -9999 -9999 -9999 -9999 -9999 -9999 -9999 -9999 -9999 -9999 -9999 -9999 -9999 -9999 -9999 -9999 -9999 -9999 -9999 -9999 -9999 -9999 -9999 -9999 -9999 -9999 -9999 -9999 -9999 -9999 -9999 -9999 -9999 -9999 -9999 -9999 -9999 -9999 -9999 -9999 -9999 -9999 -9999 -9999 -9999 -9999 -9999 -9999 -9999 -9999
-9999 -9999 -9999 -9999 -9999 -9999 -9999 -9999 -9999 -9999 -9999 -9999 -9999 -9999 -9999 -9999 -9999 -9999 -9999 -9999 -9999 -9999 -9999 -9999 -9999 -9999 -9999 -9999 -9999 -9999 -9999 -9999 -9999 -9999 -9999 -9999 -9999 -9999 -9999 -9999 -9999 -9999 -9999 -9999 -9999 -9999 -9999 -9999 -9999 -9999 0.040 0.162 0.166 0.170 0.168 0.189 0.220 0.231 0.218 0.241 0.260 0.235 0.234 0.260 0.298 0.310 0.270 0.282 0.306 0.278 0.309 0.339 0.323 0.314 0.322 0.339 0.324 0.303 0.263 0.132 0.138 0.126 0.141 0.162 0.181 0.180 0.170 0.154 0.165 0.174 0.171 0.168 0.168 0.170 0.193 0.188 0.221 0.267 0.226 0.211 0.159 0.154 0.159 0.166 -9999 -9999 -9999 -9999 -9999 -9999 -9999 -9999 -9999 -9999 -9999 -9999 -9999 -9999 -9999 -9999 -9999 -9999 -9999 -9999 -9999 -9999 -9999 -9999 -9999 -9999 -9999 -9999 -9999 -9999 -9999 -9999 -9999 -9999 -9999 -9999 -9999 -9999 -9999 -9999 -9999 -9999 -9999 -9999 -9999 -9999 -9999 -9999 -9999 -9999 -9999 -9999 -9999 -9999 -9999 -9999 -9999 -9999 -9999 -9999 -9999 -9999 -9999 -9999 -9999 -9999 -9999 -9999 -9999 -9999 -9999 -9999 -9999 -9999 -9999 -9999 -9999 -9999 -9999 -9999 -9999 -9999 -9999 -9999 -9999 -9999 -9999 -9999 -9999 -9999 -9999 -9999 -9999 -9999 -9999 -9999 -9999 -9999 -9999 -9999 -9999 -9999 -9999 -9999 -9999 -9999 -9999 -9999 -9999 -9999 -9999 -9999 -9999 -9999 -9999 -9999 -9999 -9999 -9999 -9999 -9999 -9999 -9999 -9999 -9999 -9999 -9999 -9999 -9999 -9999
-9999 -9999 -9999 -9999 -9999 -9999 -9999 -9999 -9999 -9999 -9999 -9999 -9999 -9999 -9999 -9999 -9999 -9999 -9999 -9999 -9999 -9999 -9999 -9999 -9999 -9999 -9999 -9999 -9999 -9999 -9999 -9999 -9999 -9999 -9999 -9999 -9999 -9999 -9999 -9999 -9999 -9999 -9999 -9999 -9999 -9999 -9999 -9999 -9999 -9999 0.041 0.160 0.184 0.207 0.231 0.236 0.239 0.249 0.264 0.312 0.245 0.246 0.255 0.275 0.317 0.301 0.293 0.318 0.320 0.298 0.342 0.351 0.345 0.348 0.372 0.385 0.353 0.317 0.284 0.125 0.118 0.130 0.158 0.185 0.186 0.178 0.194 0.165 0.177 0.170 0.166 0.169 0.180 0.194 0.191 0.185 0.198 0.242 0.228 0.200 0.200 0.179 0.165 0.187 0.194 0.000 -9999 -9999 -9999 -9999 -9999 -9999 -9999 -9999 -9999 -9999 -9999 -9999 -9999 -9999 -9999 -9999 -9999 -9999 -9999 -9999 -9999 -9999 -9999 -9999 -9999 -9999 -9999 -9999 -9999 -9999 -9999 -9999 -9999 -9999 -9999 -9999 -9999 -9999 -9999 -9999 -9999 -9999 -9999 -9999 -9999 -9999 -9999 -9999 -9999 -9999 -9999 -9999 -9999 -9999 -9999 -9999 -9999 -9999 -9999 -9999 -9999 -9999 -9999 -9999 -9999 -9999 -9999 -9999 -9999 -9999 -9999 -9999 -9999 -9999 -9999 -9999 -9999 -9999 -9999 -9999 -9999 -9999 -9999 -9999 -9999 -9999 -9999 -9999 -9999 -9999 -9999 -9999 -9999 -9999 -9999 -9999 -9999 -9999 -9999 -9999 -9999 -9999 -9999 -9999 -9999 -9999 -9999 -9999 -9999 -9999 -9999 -9999 -9999 -9999 -9999 -9999 -9999 -9999 -9999 -9999 -9999 -9999 -9999 -9999 -9999 -9999 -9999 -9999
-9999 -9999 -9999 -9999 -9999 -9999 -9999 -9999 -9999 -9999 -9999 -9999 -9999 -9999 -9999 -9999 -9999 -9999 -9999 -9999 -9999 -9999 -9999 -9999 -9999 -9999 -9999 -9999 -9999 -9999 -9999 -9999 -9999 -9999 -9999 -9999 -9999 -9999 -9999 -9999 -9999 -9999 -9999 -9999 -9999 -9999 -9999 -9999 -9999 -9999 0.043 0.189 0.195 0.211 0.260 0.246 0.258 0.262 0.261 0.300 0.258 0.263 0.304 0.306 0.324 0.303 0.312 0.328 0.358 0.388 0.376 0.350 0.387 0.356 0.344 0.350 0.333 0.323 0.350 0.152 0.121 0.137 0.146 0.192 0.186 0.185 0.190 0.184 0.180 0.173 0.169 0.194 0.194 0.202 0.195 0.205 0.229 0.210 0.205 0.237 0.259 0.208 0.203 0.010 0.008 0.000 -9999 -9999 -9999 -9999 -9999 -9999 -9999 -9999 -9999 -9999 -9999 -9999 -9999 -9999 -9999 -9999 -9999 -9999 -9999 -9999 -9999 -9999 -9999 -9999 -9999 -9999 -9999 -9999 -9999 -9999 -9999 -9999 -9999 -9999 -9999 -9999 -9999 -9999 -9999 -9999 -9999 -9999 -9999 -9999 -9999 -9999 -9999 -9999 -9999 -9999 -9999 -9999 -9999 -9999 -9999 -9999 -9999 -9999 -9999 -9999 -9999 -9999 -9999 -9999 -9999 -9999 -9999 -9999 -9999 -9999 -9999 -9999 -9999 -9999 -9999 -9999 -9999 -9999 -9999 -9999 -9999 -9999 -9999 -9999 -9999 -9999 -9999 -9999 -9999 -9999 -9999 -9999 -9999 -9999 -9999 -9999 -9999 -9999 -9999 -9999 -9999 -9999 -9999 -9999 -9999 -9999 -9999 -9999 -9999 -9999 -9999 -9999 -9999 -9999 -9999 -9999 -9999 -9999 -9999 -9999 -9999 -9999 -9999 -9999 -9999 -9999 -9999 -9999
-9999 -9999 -9999 -9999 -9999 -9999 -9999 -9999 -9999 -9999 -9999 -9999 -9999 -9999 -9999 -9999 -9999 -9999 -9999 -9999 -9999 -9999 -9999 -9999 -9999 -9999 -9999 -9999 -9999 -9999 -9999 -9999 -9999 -9999 -9999 -9999 -9999 -9999 -9999 -9999 -9999 -9999 -9999 -9999 -9999 -9999 -9999 -9999 -9999 0.059 0.205 0.231 0.232 0.245 0.264 0.255 0.263 0.280 0.289 0.289 0.282 0.265 0.271 0.295 0.294 0.349 0.341 0.331 0.323 0.328 0.352 0.288 0.360 0.371 0.344 0.358 0.359 0.376 0.379 0.338 0.325 0.323 0.439 0.206 0.200 0.192 0.204 0.202 0.165 0.176 0.178 0.181 0.178 0.180 0.188 0.195 0.193 0.193 0.216 0.229 0.207 0.010 0.010 0.010 0.011 -9999 -9999 -9999 -9999 -9999 -9999 -9999 -9999 -9999 -9999 -9999 -9999 -9999 -9999 -9999 -9999 -9999 -9999 -9999 -9999 -9999 -9999 -9999 -9999 -9999 -9999 -9999 -9999 -9999 -9999 -9999 -9999 -9999 -9999 -9999 -9999 -9999 -9999 -9999 -9999 -9999 -9999 -9999 -9999 -9999 -9999 -9999 -9999 -9999 -9999 -9999 -9999 -9999 -9999 -9999 -9999 -9999 -9999 -9999 -9999 -9999 -9999 -9999 -9999 -9999 -9999 -9999 -9999 -9999 -9999 -9999 -9999 -9999 -9999 -9999 -9999 -9999 -9999 -9999 -9999 -9999 -9999 -9999 -9999 -9999 -9999 -9999 -9999 -9999 -9999 -9999 -9999 -9999 -9999 -9999 -9999 -9999 -9999 -9999 -9999 -9999 -9999 -9999 -9999 -9999 -9999 -9999 -9999 -9999 -9999 -9999 -9999 -9999 -9999 -9999 -9999 -9999 -9999 -9999 -9999 -9999 -9999 -9999 -9999 -9999 -9999 -9999 -9999 -9999
-9999 -9999 -9999 -9999 -9999 -9999 -9999 -9999 -9999 -9999 -9999 -9999 -9999 -9999 -9999 -9999 -9999 -9999 -9999 -9999 -9999 -9999 -9999 -9999 -9999 -9999 -9999 -9999 -9999 -9999 -9999 -9999 -9999 -9999 -9999 -9999 -9999 -9999 -9999 -9999 -9999 -9999 -9999 -9999 -9999 -9999 -9999 -9999 0.170 0.188 0.224 0.226 0.247 0.242 0.252 0.274 0.276 0.301 0.314 0.285 0.270 0.287 0.270 0.305 0.303 0.350 0.351 0.306 0.337 0.330 0.358 0.384 0.332 0.379 0.309 0.323 0.357 0.385 0.375 0.302 0.328 0.353 0.378 0.443 0.193 0.193 0.199 0.170 0.193 0.197 0.162 0.179 0.179 0.177 0.188 0.189 0.204 0.211 0.193 0.011 0.012 0.013 0.009 0.009 0.000 -9999 -9999 -9999 -9999 -9999 -9999 -9999 -9999 -9999 -9999 -9999 -9999 -9999 -9999 -9999 -9999 -9999 -9999 -9999 -9999 -9999 -9999 -9999 -9999 -9999 -9999 -9999 -9999 -9999 -9999 -9999 -9999 -9999 -9999 -9999 -9999 -9999 -9999 -9999 -9999 -9999 -9999 -9999 -9999 -9999 -9999 -9999 -9999 -9999 -9999 -9999 -9999 -9999 -9999 -9999 -9999 -9999 -9999 -9999 -9999 -9999 -9999 -9999 -9999 -9999 -9999 -9999 -9999 -9999 -9999 -9999 -9999 -9999 -9999 -9999 -9999 -9999 -9999 -9999 -9999 -9999 -9999 -9999 -9999 -9999 -9999 -9999 -9999 -9999 -9999 -9999 -9999 -9999 -9999 -9999 -9999 -9999 -9999 -9999 -9999 -9999 -9999 -9999 -9999 -9999 -9999 -9999 -9999 -9999 -9999 -9999 -9999 -9999 -9999 -9999 -9999 -9999 -9999 -9999 -9999 -9999 -9999 -9999 -9999 -9999 -9999 -9999 -9999 -9999
-9999 -9999 -9999 -9999 -9999 -9999 -9999 -9999 -9999 -9999 -9999 -9999 -9999 -9999 -9999 -9999 -9999 -9999 -9999 -9999 -9999 -9999 -9999 -9999 -9999 -9999 -9999 -9999 -9999 -9999 -9999 -9999 -9999 -9999 -9999 -9999 -9999 -9999 -9999 -9999 -9999 -9999 -9999 -9999 -9999 -9999 -9999 -9999 0.208 0.215 0.239 0.248 0.249 0.251 0.263 0.283 0.299 0.318 0.308 0.295 0.281 0.280 0.290 0.302 0.337 0.361 0.355 0.338 0.331 0.370 0.350 0.362 0.339 0.304 0.317 0.327 0.368 0.388 0.372 0.327 0.339 0.385 0.389 0.386 0.208 0.192 0.194 0.193 0.194 0.204 0.159 0.172 0.177 0.180 0.187 0.010 0.187 0.183 0.011 0.012 0.012 0.013 0.009 0.009 -9999 -9999 -9999 -9999 -9999 -9999 -9999 -9999 -9999 -9999 -9999 -9999 -9999 -9999 -9999 -9999 -9999 -9999 -9999 -9999 -9999 -9999 -9999 -9999 -9999 -9999 -9999 -9999 -9999 -9999 -9999 -9999 -9999 -9999 -9999 -9999 -9999 -9999 -9999 -9999 -9999 -9999 -9999 -9999 -9999 -9999 -9999 -9999 -9999 -9999 -9999 -9999 -9999 -9999 -9999 -9999 -9999 -9999 -9999 -9999 -9999 -9999 -9999 -9999 -9999 -9999 -9999 -9999 -9999 -9999 -9999 -9999 -9999 -9999 -9999 -9999 -9999 -9999 -9999 -9999 -9999 -9999 -9999 -9999 -9999 -9999 -9999 -9999 -9999 -9999 -9999 -9999 -9999 -9999 -9999 -9999 -9999 -9999 -9999 -9999 -9999 -9999 -9999 -9999 -9999 -9999 -9999 -9999 -9999 -9999 -9999 -9999 -9999 -9999 -9999 -9999 -9999 -9999 -9999 -9999 -9999 -9999 -9999 -9999 -9999 -9999 -9999 -9999 -9999 -9999
-9999 -9999 -9999 -9999 -9999 -9999 -9999 -9999 -9999 -9999 -9999 -9999 -9999 -9999 -9999 -9999 -9999 -9999 -9999 -9999 -9999 -9999 -9999 -9999 -9999 -9999 -9999 -9999 -9999 -9999 -9999 -9999 -9999 -9999 -9999 -9999 -9999 -9999 -9999 -9999 -9999 -9999 -9999 -9999 -9999 -9999 -9999 0.596 0.203 0.215 0.240 0.246 0.259 0.342 0.288 0.284 0.287 0.311 0.290 0.320 0.324 0.324 0.334 0.311 0.359 0.333 0.343 0.341 0.372 0.343 0.393 0.346 0.359 0.327 0.321 0.310 0.315 0.314 0.314 0.295 0.343 0.380 0.379 0.221 0.204 0.205 0.211 0.198 0.193 0.199 0.163 0.182 0.186 0.010 0.010 0.012 0.012 0.009 0.011 0.011 0.012 0.012 0.011 0.009 -9999 -9999 -9999 -9999 -9999 -9999 -9999 -9999 -9999 -9999 -9999 -9999 -9999 -9999 -9999 -9999 -9999 -9999 -9999 -9999 -9999 -9999 -9999 -9999 -9999 -9999 -9999 -9999 -9999 -9999 -9999 -9999 -9999 -9999 -9999 -9999 -9999 -9999 -9999 -9999 -9999 -9999 -9999 -9999 -9999 -9999 -9999 -9999 -9999 -9999 -9999 -9999 -9999 -9999 -9999 -9999 -9999 -9999 -9999 -9999 -9999 -9999 -9999 -9999 -9999 -9999 -9999 -9999 -9999 -9999 -9999 -9999 -9999 -9999 -9999 -9999 -9999 -9999 -9999 -9999 -9999 -9999 -9999 -9999 -9999 -9999 -9999 -9999 -9999 -9999 -9999 -9999 -9999 -9999 -9999 -9999 -9999 -9999 -9999 -9999 -9999 -9999 -9999 -9999 -9999 -9999 -9999 -9999 -9999 -9999 -9999 -9999 -9999 -9999 -9999 -9999 -9999 -9999 -9999 -9999 -9999 -9999 -9999 -9999 -9999 -9999 -9999 -9999 -9999 -9999
-9999 -9999 -9999 -9999 -9999 -9999 -9999 -9999 -9999 -9999 -9999 -9999 -9999 -9999 -9999 -9999 -9999 -9999 -9999 -9999 -9999 -9999 -9999 -9999 -9999 -9999 -9999 -9999 -9999 -9999 -9999 -9999 -9999 -9999 -9999 -9999 -9999 -9999 -9999 -9999 -9999 -9999 -9999 -9999 -9999 -9999 -9999 -9999 0.068 0.221 0.248 0.242 0.269 0.358 0.361 0.287 0.313 0.353 0.329 0.305 0.377 0.366 0.388 0.360 0.349 0.379 0.366 0.378 0.356 0.346 0.368 0.364 0.369 0.325 0.329 0.314 0.296 0.375 0.401 0.364 0.363 0.381 0.214 0.216 0.190 0.204 0.205 0.196 0.193 0.205 0.184 0.010 0.010 0.011 0.011 0.012 0.010 0.012 0.012 0.012 0.012 0.013 0.012 0.009 0.000 -9999 -9999 -9999 -9999 -9999 -9999 -9999 -9999 -9999 -9999 -9999 -9999 -9999 -9999 -9999 -9999 -9999 -9999 -9999 -9999 -9999 -9999 -9999 -9999 -9999 -9999 -9999 -9999 -9999 -9999 -9999 -9999 -9999 -9999 -9999 -9999 -9999 -9999 -9999 -9999 -9999 -9999 -9999 -9999 -9999 -9999 -9999 -9999 -9999 -9999 -9999 -9999 -9999 -9999 -9999 -9999 -9999 -9999 -9999 -9999 -9999 -9999 -9999 -9999 -9999 -9999 -9999 -9999 -9999 -9999 -9999 -9999 -9999 -9999 -9999 -9999 -9999 -9999 -9999 -9999 -9999 -9999 -9999 -9999 -9999 -9999 -9999 -9999 -9999 -9999 -9999 -9999 -9999 -9999 -9999 -9999 -9999 -9999 -9999 -9999 -9999 -9999 -9999 -9999 -9999 -9999 -9999 -9999 -9999 -9999 -9999 -9999 -9999 -9999 -9999 -9999 -9999 -9999 -9999 -9999 -9999 -9999 -9999 -9999 -9999 -9999 -9999 -9999 -9999
-9999 -9999 -9999 -9999 -9999 -9999 -9999 -9999 -9999 -9999 -9999 -9999 -9999 -9999 -9999 -9999 -9999 -9999 -9999 -9999 -9999 -9999 -9999 -9999 -9999 -9999 -9999 -9999 -9999 -9999 -9999 -9999 -9999 -9999 -9999 -9999 -9999 -9999 -9999 -9999 -9999 -9999 -9999 -9999 -9999 -9999 -9999 -9999 -9999 0.046 0.199 0.227 0.260 0.274 0.283 0.289 0.305 0.337 0.323 0.310 0.407 0.375 0.350 0.364 0.403 0.328 0.348 0.350 0.337 0.366 0.342 0.390 0.397 0.396 0.408 0.392 0.393 0.415 0.447 0.415 0.367 0.352 0.186 0.195 0.196 0.199 0.201 0.204 0.211 0.195 0.009 0.011 0.011 0.012 0.010 0.010 0.009 0.012 0.013 0.013 0.012 0.012 0.012 0.009 0.000 -9999 -9999 -9999 -9999 -9999 -9999 -9999 -9999 -9999 -9999 -9999 -9999 -9999 -9999 -9999 -9999 -9999 -9999 -9999 -9999 -9999 -9999 -9999 -9999 -9999 -9999 -9999 -9999 -9999 -9999 -9999 -9999 -9999 -9999 -9999 -9999 -9999 -9999 -9999 -9999 -9999 -9999 -9999 -9999 -9999 -9999 -9999 -9999 -9999 -9999 -9999 -9999 -9999 -9999 -9999 -9999 -9999 -9999 -9999 -9999 -9999 -9999 -9999 -9999 -9999 -9999 -9999 -9999 -9999 -9999 -9999 -9999 -9999 -9999 -9999 -9999 -9999 -9999 -9999 -9999 -9999 -9999 -9999 -9999 -9999 -9999 -9999 -9999 -9999 -9999 -9999 -9999 -9999 -9999 -9999 -9999 -9999 -9999 -9999 -9999 -9999 -9999 -9999 -9999 -9999 -9999 -9999 -9999 -9999 -9999 -9999 -9999 -9999 -9999 -9999 -9999 -9999 -9999 -9999 -9999 -9999 -9999 -9999 -9999 -9999 -9999 -9999 -9999 -9999
-9999 -9999 -9999 -9999 -9999 -9999 -9999 -9999 -9999 -9999 -9999 -9999 -9999 -9999 -9999 -9999 -9999 -9999 -9999 -9999 -9999 -9999 -9999 -9999 -9999 -9999 -9999 -9999 -9999 -9999 -9999 -9999 -9999 -9999 -9999 -9999 -9999 -9999 -9999 -9999 -9999 -9999 -9999 -9999 -9999 -9999 -9999 -9999 -9999 0.199 0.183 0.213 0.243 0.288 0.274 0.290 0.300 0.313 0.315 0.290 0.369 0.342 0.376 0.394 0.394 0.326 0.296 0.344 0.362 0.381 0.400 0.364 0.365 0.422 0.433 0.408 0.431 0.448 0.439 0.458 0.299 0.302 0.168 0.158 0.141 0.167 0.011 0.206 0.188 0.009 0.011 0.011 0.013 0.010 0.012 0.010 0.009 0.012 0.012 0.012 0.012 0.012 0.012 0.008 0.000 -9999 -9999 -9999 -9999 -9999 -9999 -9999 -9999 -9999 -9999 -9999 -9999 -9999 -9999 -9999 -9999 -9999 -9999 -9999 -9999 -9999 -9999 -9999 -9999 -9999 -9999 -9999 -9999 -9999 -9999 -9999 -9999 -9999 -9999 -9999 -9999 -9999 -9999 -9999 -9999 -9999 -9999 -9999 -9999 -9999 -9999 -9999 -9999 -9999 -9999 -9999 -9999 -9999 -9999 -9999 -9999 -9999 -9999 -9999 -9999 -9999 -9999 -9999 -9999 -9999 -9999 -9999 -9999 -9999 -9999 -9999 -9999 -9999 -9999 -9999 -9999 -9999 -9999 -9999 -9999 -9999 -9999 -9999 -9999 -9999 -9999 -9999 -9999 -9999 -9999 -9999 -9999 -9999 -9999 -9999 -9999 -9999 -9999 -9999 -9999 -9999 -9999 -9999 -9999 -9999 -9999 -9999 -9999 -9999 -9999 -9999 -9999 -9999 -9999 -9999 -9999 -9999 -9999 -9999 -9999 -9999 -9999 -9999 -9999 -9999 -9999 -9999 -9999 -9999
-9999 -9999 -9999 -9999 -9999 -9999 -9999 -9999 -9999 -9999 -9999 -9999 -9999 -9999 -9999 -9999 -9999 -9999 -9999 -9999 -9999 -9999 -9999 -9999 -9999 -9999 -9999 -9999 -9999 -9999 -9999 -9999 -9999 -9999 -9999 -9999 -9999 -9999 -9999 -9999 -9999 -9999 -9999 -9999 -9999 -9999 -9999 -9999 0.125 0.126 0.206 0.190 0.202 0.230 0.244 0.301 0.280 0.306 0.333 0.296 0.377 0.363 0.401 0.400 0.409 0.341 0.373 0.364 0.376 0.378 0.363 0.371 0.445 0.440 0.449 0.414 0.412 0.410 0.449 0.442 0.360 0.012 0.011 0.012 0.010 0.012 0.011 0.012 0.012 0.011 0.010 0.011 0.013 0.011 0.011 0.010 0.011 0.012 0.011 0.009 0.012 0.012 0.011 0.010 0.011 -9999 -9999 -9999 -9999 -9999 -9999 -9999 -9999 -9999 -9999 -9999 -9999 -9999 -9999 -9999 -9999 -9999 -9999 -9999 -9999 -9999 -9999 -9999 -9999 -9999 -9999 -9999 -9999 -9999 -9999 -9999 -9999 -9999 -9999 -9999 -9999 -9999 -9999 -9999 -9999 -9999 -9999 -9999 -9999 -9999 -9999 -9999 -9999 -9999 -9999 -9999 -9999 -9999 -9999 -9999 -9999 -9999 -9999 -9999 -9999 -9999 -9999 -9999 -9999 -9999 -9999 -9999 -9999 -9999 -9999 -9999 -9999 -9999 -9999 -9999 -9999 -9999 -9999 -9999 -9999 -9999 -9999 -9999 -9999 -9999 -9999 -9999 -9999 -9999 -9999 -9999 -9999 -9999 -9999 -9999 -9999 -9999 -9999 -9999 -9999 -9999 -9999 -9999 -9999 -9999 -9999 -9999 -9999 -9999 -9999 -9999 -9999 -9999 -9999 -9999 -9999 -9999 -9999 -9999 -9999 -9999 -9999 -9999 -9999 -9999 -9999 -9999 -9999 -9999
-9999 -9999 -9999 -9999 -9999 -9999 -9999 -9999 -9999 -9999 -9999 -9999 -9999 -9999 -9999 -9999 -9999 -9999 -9999 -9999 -9999 -9999 -9999 -9999 -9999 -9999 -9999 -9999 -9999 -9999 -9999 -9999 -9999 -9999 -9999 -9999 -9999 -9999 -9999 -9999 -9999 -9999 -9999 -9999 -9999 -9999 -9999 0.153 0.161 0.169 0.125 0.202 0.187 0.199 0.203 0.265 0.272 0.274 0.318 0.266 0.346 0.338 0.348 0.351 0.366 0.304 0.349 0.412 0.348 0.367 0.384 0.378 0.397 0.377 0.370 0.365 0.382 0.371 0.408 0.288 0.009 0.012 0.010 0.010 0.011 0.011 0.012 0.012 0.011 0.011 0.012 0.011 0.012 0.012 0.013 0.011 0.011 0.013 0.012 0.010 0.010 0.011 0.011 0.010 0.010 0.000 -9999 -9999 -9999 -9999 -9999 -9999 -9999 -9999 -9999 -9999 -9999 -9999 -9999 -9999 -9999 -9999 -9999 -9999 -9999 -9999 -9999 -9999 -9999 -9999 -9999 -9999 -9999 -9999 -9999 -9999 -9999 -9999 -9999 -9999 -9999 -9999 -9999 -9999 -9999 -9999 -9999 -9999 -9999 -9999 -9999 -9999 -9999 -9999 -9999 -9999 -9999 -9999 -9999 -9999 -9999 -9999 -9999 -9999 -9999 -9999 -9999 -9999 -9999 -9999 -9999 -9999 -9999 -9999 -9999 -9999 -9999 -9999 -9999 -9999 -9999 -9999 -9999 -9999 -9999 -9999 -9999 -9999 -9999 -9999 -9999 -9999 -9999 -9999 -9999 -9999 -9999 -9999 -9999 -9999 -9999 -9999 -9999 -9999 -9999 -9999 -9999 -9999 -9999 -9999 -9999 -9999 -9999 -9999 -9999 -9999 -9999 -9999 -9999 -9999 -9999 -9999 -9999 -9999 -9999 -9999 -9999 -9999 -9999 -9999 -9999 -9999 -9999 -9999
-9999 -9999 -9999 -9999 -9999 -9999 -9999 -9999 -9999 -9999 -9999 -9999 -9999 -9999 -9999 -9999 -9999 -9999 -9999 -9999 -9999 -9999 -9999 -9999 -9999 -9999 -9999 -9999 -9999 -9999 -9999 -9999 -9999 -9999 -9999 -9999 -9999 -9999 -9999 -9999 -9999 -9999 -9999 -9999 -9999 -9999 0.209 0.205 0.212 0.214 0.167 0.143 0.143 0.142 0.114 0.219 0.255 0.288 0.276 0.254 0.336 0.368 0.329 0.355 0.329 0.358 0.365 0.363 0.335 0.394 0.323 0.010 0.011 0.011 0.011 0.010 0.009 0.011 0.011 0.010 0.012 0.012 0.011 0.012 0.011 0.012 0.015 0.021 0.012 0.012 0.012 0.012 0.013 0.013 0.013 0.012 0.012 0.012 0.012 0.011 0.011 0.010 0.010 0.009 0.012 0.009 -9999 -9999 -9999 -9999 -9999 -9999 -9999 -9999 -9999 -9999 -9999 -9999 -9999 -9999 -9999 -9999 -9999 -9999 -9999 -9999 -9999 -9999 -9999 -9999 -9999 -9999 -9999 -9999 -9999 -9999 -9999 -9999 -9999 -9999 -9999 -9999 -9999 -9999 -9999 -9999 -9999 -9999 -9999 -9999 -9999 -9999 -9999 -9999 -9999 -9999 -9999 -9999 -9999 -9999 -9999 -9999 -9999 -9999 -9999 -9999 -9999 -9999 -9999 -9999 -9999 -9999 -9999 -9999 -9999 -9999 -9999 -9999 -9999 -9999 -9999 -9999 -9999 -9999 -9999 -9999 -9999 -9999 -9999 -9999 -9999 -9999 -9999 -9999 -9999 -9999 -9999 -9999 -9999 -9999 -9999 -9999 -9999 -9999 -9999 -9999 -9999 -9999 -9999 -9999 -9999 -9999 -9999 -9999 -9999 -9999 -9999 -9999 -9999 -9999 -9999 -9999 -9999 -9999 -9999 -9999 -9999 -9999 -9999 -9999 -9999 -9999 -9999 -9999
-9999 -9999 -9999 -9999 -9999 -9999 -9999 -9999 -9999 -9999 -9999 -9999 -9999 -9999 -9999 -9999 -9999 -9999 -9999 -9999 -9999 -9999 -9999 -9999 -9999 -9999 -9999 -9999 -9999 -9999 -9999 -9999 -9999 -9999 -9999 -9999 -9999 -9999 -9999 -9999 -9999 -9999 -9999 -9999 -9999 0.000 0.307 0.323 0.320 0.226 0.188 0.164 0.177 0.177 0.163 0.146 0.239 0.218 0.233 0.238 0.309 0.367 0.344 0.356 0.314 0.279 0.302 0.292 0.315 0.318 0.011 0.011 0.011 0.012 0.011 0.011 0.010 0.011 0.012 0.011 0.012 0.012 0.013 0.013 0.014 0.021 0.038 0.039 0.042 0.014 0.012 0.012 0.012 0.012 0.012 0.012 0.012 0.012 0.011 0.011 0.010 0.011 0.009 0.009 0.009 0.009 -9999 -9999 -9999 -9999 -9999 -9999 -9999 -9999 -9999 -9999 -9999 -9999 -9999 -9999 -9999 -9999 -9999 -9999 -9999 -9999 -9999 -9999 -9999 -9999 -9999 -9999 -9999 -9999 -9999 -9999 -9999 -9999 -9999 -9999 -9999 -9999 -9999 -9999 -9999 -9999 -9999 -9999 -9999 -9999 -9999 -9999 -9999 -9999 -9999 -9999 -9999 -9999 -9999 -9999 -9999 -9999 -9999 -9999 -9999 -9999 -9999 -9999 -9999 -9999 -9999 -9999 -9999 -9999 -9999 -9999 -9999 -9999 -9999 -9999 -9999 -9999 -9999 -9999 -9999 -9999 -9999 -9999 -9999 -9999 -9999 -9999 -9999 -9999 -9999 -9999 -9999 -9999 -9999 -9999 -9999 -9999 -9999 -9999 -9999 -9999 -9999 -9999 -9999 -9999 -9999 -9999 -9999 -9999 -9999 -9999 -9999 -9999 -9999 -9999 -9999 -9999 -9999 -9999 -9999 -9999 -9999 -9999 -9999 -9999 -9999 -9999 -9999 -9999
-9999 -9999 -9999 -9999 -9999 -9999 -9999 -9999 -9999 -9999 -9999 -9999 -9999 -9999 -9999 -9999 -9999 -9999 -9999 -9999 -9999 -9999 -9999 -9999 -9999 -9999 -9999 -9999 -9999 -9999 -9999 -9999 -9999 -9999 -9999 -9999 -9999 -9999 -9999 -9999 -9999 -9999 -9999 -9999 0.000 0.298 0.594 0.577 0.586 0.300 0.318 0.230 0.193 0.174 0.180 0.161 0.138 0.119 0.120 0.141 0.268 0.332 0.359 0.314 0.162 0.187 0.324 0.009 0.011 0.010 0.011 0.012 0.011 0.012 0.012 0.012 0.011 0.011 0.011 0.011 0.012 0.014 0.021 0.020 0.020 0.021 0.037 0.038 0.041 0.012 0.012 0.012 0.012 0.013 0.012 0.012 0.014 0.011 0.011 0.010 0.010 0.009 0.009 0.008 0.008 0.008 0.006 -9999 -9999 -9999 -9999 -9999 0.000 -9999 -9999 -9999 -9999 -9999 -9999 -9999 -9999 -9999 -9999 -9999 -9999 -9999 -9999 -9999 -9999 -9999 -9999 -9999 -9999 -9999 -9999 -9999 -9999 -9999 -9999 -9999 -9999 -9999 -9999 -9999 -9999 -9999 -9999 -9999 -9999 -9999 -9999 -9999 -9999 -9999 -9999 -9999 -9999 -9999 -9999 -9999 -9999 -9999 -9999 -9999 -9999 -9999 -9999 -9999 -9999 -9999 -9999 -9999 -9999 -9999 -9999 -9999 -9999 -9999 -9999 -9999 -9999 -9999 -9999 -9999 -9999 -9999 -9999 -9999 -9999 -9999 -9999 -9999 -9999 -9999 -9999 -9999 -9999 -9999 -9999 -9999 -9999 -9999 -9999 -9999 -9999 -9999 -9999 -9999 -9999 -9999 -9999 -9999 -9999 -9999 -9999 -9999 -9999 -9999 -9999 -9999 -9999 -9999 -9999 -9999 -9999 -9999 -9999 -9999 -9999 -9999 -9999 -9999 -9999 -9999
-9999 -9999 -9999 -9999 -9999 -9999 -9999 -9999 -9999 -9999 -9999 -9999 -9999 -9999 -9999 -9999 -9999 -9999 -9999 -9999 -9999 -9999 -9999 -9999 -9999 -9999 -9999 -9999 -9999 -9999 -9999 -9999 -9999 -9999 -9999 -9999 -9999 -9999 -9999 -9999 -9999 -9999 -9999 0.000 0.541 0.537 0.580 0.590 0.589 0.590 0.617 0.605 0.322 0.251 0.182 0.180 0.149 0.133 0.153 0.126 0.126 0.262 0.294 0.159 0.176 0.201 0.010 0.010 0.011 0.011 0.011 0.011 0.011 0.011 0.011 0.010 0.010 0.012 0.012 0.012 0.019 0.020 0.020 0.019 0.013 0.020 0.020 0.037 0.021 0.011 0.011 0.012 0.012 0.014 0.013 0.013 0.012 0.012 0.010 0.009 0.010 0.011 0.009 0.009 0.007 0.008 0.007 -9999 -9999 -9999 -9999 -9999 0.006 -9999 -9999 -9999 -9999 -9999 -9999 -9999 -9999 -9999 -9999 -9999 -9999 -9999 -9999 -9999 -9999 -9999 -9999 -9999 -9999 -9999 -9999 -9999 -9999 -9999 -9999 -9999 -9999 -9999 -9999 -9999 -9999 -9999 -9999 -9999 -9999 -9999 -9999 -9999 -9999 -9999 -9999 -9999 -9999 -9999 -9999 -9999 -9999 -9999 -9999 -9999 -9999 -9999 -9999 -9999 -9999 -9999 -9999 -9999 -9999 -9999 -9999 -9999 -9999 -9999 -9999 -9999 -9999 -9999 -9999 -9999 -9999 -9999 -9999 -9999 -9999 -9999 -9999 -9999 -9999 -9999 -9999 -9999 -9999 -9999 -9999 -9999 -9999 -9999 -9999 -9999 -9999 -9999 -9999 -9999 -9999 -9999 -9999 -9999 -9999 -9999 -9999 -9999 -9999 -9999 -9999 -9999 -9999 -9999 -9999 -9999 -9999 -9999 -9999 -9999 -9999 -9999 -9999 -9999 -9999 -9999
-9999 -9999 -9999 -9999 -9999 -9999 -9999 -9999 -9999 -9999 -9999 -9999 -9999 -9999 -9999 -9999 -9999 -9999 -9999 -9999 -9999 -9999 -9999 -9999 -9999 -9999 -9999 -9999 -9999 -9999 -9999 -9999 -9999 -9999 -9999 -9999 -9999 -9999 -9999 -9999 -9999 -9999 0.000 0.301 0.000 0.000 0.000 0.000 0.000 0.586 0.584 0.597 0.346 0.245 0.211 0.185 0.154 0.155 0.167 0.133 0.157 0.151 0.165 0.178 0.192 0.212 0.010 0.010 0.011 0.010 0.010 0.011 0.012 0.011 0.011 0.011 0.010 0.010 0.012 0.012 0.017 0.019 0.020 0.019 0.014 0.013 0.019 0.019 0.012 0.011 0.010 0.012 0.011 0.012 0.014 0.014 0.013 0.012 0.010 0.008 0.009 0.010 0.009 0.010 0.008 0.007 0.008 0.008 -9999 -9999 -9999 -9999 0.006 -9999 -9999 -9999 -9999 -9999 -9999 -9999 -9999 -9999 -9999 -9999 -9999 -9999 -9999 -9999 -9999 -9999 -9999 -9999 -9999 -9999 -9999 -9999 -9999 -9999 -9999 -9999 -9999 -9999 -9999 -9999 -9999 -9999 -9999 -9999 -9999 -9999 -9999 -9999 -9999 -9999 -9999 -9999 -9999 -9999 -9999 -9999 -9999 -9999 -9999 -9999 -9999 -9999 -9999 -9999 -9999 -9999 -9999 -9999 -9999 -9999 -9999 -9999 -9999 -9999 -9999 -9999 -9999 -9999 -9999 -9999 -9999 -9999 -9999 -9999 -9999 -9999 -9999 -9999 -9999 -9999 -9999 -9999 -9999 -9999 -9999 -9999 -9999 -9999 -9999 -9999 -9999 -9999 -9999 -9999 -9999 -9999 -9999 -9999 -9999 -9999 -9999 -9999 -9999 -9999 -9999 -9999 -9999 -9999 -9999 -9999 -9999 -9999 -9999 -9999 -9999 -9999 -9999 -9999 -9999 -9999
-9999 -9999 -9999 -9999 -9999 -9999 -9999 -9999 -9999 -9999 -9999 -9999 -9999 -9999 -9999 -9999 -9999 -9999 -9999 -9999 -9999 -9999 -9999 -9999 -9999 -9999 -9999 -9999 -9999 -9999 -9999 -9999 -9999 -9999 -9999 -9999 -9999 -9999 -9999 -9999 -9999 0.283 0.566 0.000 0.000 0.000 0.000 0.000 0.000 0.689 0.727 0.569 0.575 0.323 0.263 0.196 0.188 0.179 0.167 0.168 0.188 0.188 0.182 0.173 0.188 0.010 0.011 0.010 0.011 0.011 0.011 0.011 0.011 0.010 0.011 0.010 0.011 0.011 0.012 0.011 0.011 0.013 0.013 0.012 0.014 0.011 0.019 0.011 0.011 0.010 0.010 0.011 0.014 0.013 0.021 0.014 0.011 0.012 0.011 0.010 0.009 0.009 0.009 0.009 0.008 0.007 0.008 0.008 -9999 -9999 -9999 0.000 0.006 -9999 -9999 -9999 -9999 -9999 -9999 -9999 -9999 -9999 -9999 -9999 -9999 -9999 -9999 -9999 -9999 -9999 -9999 -9999 -9999 -9999 -9999 -9999 -9999 -9999 -9999 -9999 -9999 -9999 -9999 -9999 -9999 -9999 -9999 -9999 -9999 -9999 -9999 -9999 -9999 -9999 -9999 -9999 -9999 -9999 -9999 -9999 -9999 -9999 -9999 -9999 -9999 -9999 -9999 -9999 -9999 -9999 -9999 -9999 -9999 -9999 -9999 -9999 -9999 -9999 -9999 -9999 -9999 -9999 -9999 -9999 -9999 -9999 -9999 -9999 -9999 -9999 -9999 -9999 -9999 -9999 -9999 -9999 -9999 -9999 -9999 -9999 -9999 -9999 -9999 -9999 -9999 -9999 -9999 -9999 -9999 -9999 -9999 -9999 -9999 -9999 -9999 -9999 -9999 -9999 -9999 -9999 -9999 -9999 -9999 -9999 -9999 -9999 -9999 -9999 -9999 -9999 -9999 -9999 -9999 -9999
-9999 -9999 -9999 -9999 -9999 -9999 -9999 -9999 -9999 -9999 -9999 -9999 -9999 -9999 -9999 -9999 -9999 -9999 -9999 -9999 -9999 -9999 -9999 -9999 -9999 -9999 -9999 -9999 -9999 -9999 -9999 -9999 -9999 -9999 -9999 -9999 -9999 -9999 -9999 -9999 -9999 0.572 0.000 0.000 0.592 0.607 0.000 0.000 0.571 0.609 0.317 0.650 0.611 0.320 0.256 0.224 0.191 0.168 0.175 0.173 0.167 0.178 0.180 0.181 0.010 0.011 0.011 0.011 0.011 0.011 0.010 0.010 0.010 0.011 0.010 0.011 0.011 0.010 0.012 0.011 0.011 0.013 0.011 0.010 0.012 0.010 0.010 0.010 0.010 0.009 0.011 0.012 0.014 0.013 0.020 0.013 0.011 0.011 0.011 0.011 0.010 0.009 0.009 0.008 0.007 0.008 0.007 0.007 0.000 -9999 -9999 0.000 0.006 -9999 -9999 -9999 -9999 -9999 -9999 -9999 -9999 -9999 -9999 -9999 -9999 -9999 -9999 -9999 -9999 -9999 -9999 -9999 -9999 -9999 -9999 -9999 -9999 -9999 -9999 -9999 -9999 -9999 -9999 -9999 -9999 -9999 -9999 -9999 -9999 -9999 -9999 -9999 -9999 -9999 -9999 -9999 -9999 -9999 -9999 -9999 -9999 -9999 -9999 -9999 -9999 -9999 -9999 -9999 -9999 -9999 -9999 -9999 -9999 -9999 -9999 -9999 -9999 -9999 -9999 -9999 -9999 -9999 -9999 -9999 -9999 -9999 -9999 -9999 -9999 -9999 -9999 -9999 -9999 -9999 -9999 -9999 -9999 -9999 -9999 -9999 -9999 -9999 -9999 -9999 -9999 -9999 -9999 -9999 -9999 -9999 -9999 -9999 -9999 -9999 -9999 -9999 -9999 -9999 -9999 -9999 -9999 -9999 -9999 -9999 -9999 -9999 -9999 -9999 -9999 -9999 -9999 -9999 -9999 -9999
-9999 -9999 -9999 -9999 -9999 -9999 -9999 -9999 -9999 -9999 -9999 -9999 -9999 -9999 -9999 -9999 -9999 -9999 -9999 -9999 -9999 -9999 -9999 -9999 -9999 -9999 -9999 -9999 -9999 -9999 -9999 -9999 -9999 -9999 -9999 -9999 -9999 -9999 -9999 -9999 0.570 0.000 0.000 0.575 0.582 0.552 0.578 0.559 0.582 0.573 0.599 0.617 0.635 0.613 0.249 0.199 0.198 0.180 0.184 0.194 0.169 0.171 0.209 0.202 0.011 0.012 0.011 0.012 0.010 0.010 0.011 0.011 0.011 0.010 0.011 0.010 0.010 0.009 0.009 0.009 0.010 0.011 0.011 0.010 0.010 0.011 0.011 0.010 0.009 0.010 0.011 0.011 0.012 0.013 0.013 0.013 0.011 0.011 0.009 0.010 0.010 0.009 0.009 0.008 0.007 0.007 0.009 0.008 0.007 -9999 -9999 0.006 0.000 -9999 -9999 -9999 -9999 -9999 -9999 -9999 -9999 -9999 -9999 -9999 -9999 -9999 -9999 -9999 -9999 -9999 -9999 -9999 -9999 -9999 -9999 -9999 -9999 -9999 -9999 -9999 -9999 -9999 -9999 -9999 -9999 -9999 -9999 -9999 -9999 -9999 -9999 -9999 -9999 -9999 -9999 -9999 -9999 -9999 -9999 -9999 -9999 -9999 -9999 -9999 -9999 -9999 -9999 -9999 -9999 -9999 -9999 -9999 -9999 -9999 -9999 -9999 -9999 -9999 -9999 -9999 -9999 -9999 -9999 -9999 -9999 -9999 -9999 -9999 -9999 -9999 -9999 -9999 -9999 -9999 -9999 -9999 -9999 -9999 -9999 -9999 -9999 -9999 -9999 -9999 -9999 -9999 -9999 -9999 -9999 -9999 -9999 -9999 -9999 -9999 -9999 -9999 -9999 -9999 -9999 -9999 -9999 -9999 -9999 -9999 -9999 -9999 -9999 -9999 -9999 -9999 -9999 -9999 -9999 -9999
-9999 -9999 -9999 -9999 -9999 -9999 -9999 -9999 -9999 -9999 -9999 -9999 -9999 -9999 -9999 -9999 -9999 -9999 -9999 -9999 -9999 -9999 -9999 -9999 -9999 -9999 -9999 -9999 -9999 -9999 -9999 -9999 -9999 -9999 -9999 -9999 -9999 -9999 -9999 0.298 0.000 0.000 0.000 0.565 0.558 0.564 0.598 0.540 0.594 0.603 0.622 0.593 0.307 0.318 0.327 0.254 0.163 0.160 0.179 0.211 0.198 0.181 0.200 0.213 0.011 0.011 0.012 0.011 0.011 0.012 0.012 0.010 0.011 0.011 0.009 0.009 0.009 0.009 0.010 0.009 0.010 0.011 0.011 0.010 0.009 0.010 0.011 0.010 0.009 0.010 0.010 0.010 0.011 0.011 0.013 0.012 0.010 0.011 0.010 0.010 0.011 0.009 0.010 0.008 0.007 0.007 0.008 0.007 0.007 -9999 -9999 0.000 -9999 -9999 -9999 -9999 -9999 -9999 -9999 -9999 -9999 -9999 -9999 -9999 -9999 -9999 -9999 -9999 -9999 -9999 -9999 -9999 -9999 -9999 -9999 -9999 -9999 -9999 -9999 -9999 -9999 -9999 -9999 -9999 -9999 -9999 -9999 -9999 -9999 -9999 -9999 -9999 -9999 -9999 -9999 -9999 -9999 -9999 -9999 -9999 -9999 -9999 -9999 -9999 -9999 -9999 -9999 -9999 -9999 -9999 -9999 -9999 -9999 -9999 -9999 -9999 -9999 -9999 -9999 -9999 -9999 -9999 -9999 -9999 -9999 -9999 -9999 -9999 -9999 -9999 -9999 -9999 -9999 -9999 -9999 -9999 -9999 -9999 -9999 -9999 -9999 -9999 -9999 -9999 -9999 -9999 -9999 -9999 -9999 -9999 -9999 -9999 -9999 -9999 -9999 -9999 -9999 -9999 -9999 -9999 -9999 -9999 -9999 -9999 -9999 -9999 -9999 -9999 -9999 -9999 -9999 -9999 -9999 -9999
-9999 -9999 -9999 -9999 -9999 -9999 -9999 -9999 -9999 -9999 -9999 -9999 -9999 -9999 -9999 -9999 -9999 -9999 -9999 -9999 -9999 -9999 -9999 -9999 -9999 -9999 -9999 -9999 -9999 -9999 -9999 -9999 -9999 -9999 -9999 -9999 -9999 -9999 0.284 0.537 0.000 0.577 0.574 0.561 0.576 0.563 0.575 0.543 0.589 0.588 0.597 0.594 0.314 0.331 0.311 0.242 0.197 0.174 0.191 0.192 0.179 0.176 0.194 0.228 0.013 0.011 0.012 0.012 0.012 0.012 0.011 0.012 0.011 0.011 0.010 0.009 0.008 0.008 0.010 0.008 0.009 0.008 0.010 0.010 0.008 0.008 0.009 0.009 0.008 0.007 0.009 0.010 0.010 0.011 0.013 0.012 0.010 0.010 0.009 0.010 0.010 0.010 0.009 0.009 0.008 0.007 0.007 0.007 0.008 -9999 -9999 -9999 0.000 -9999 -9999 -9999 -9999 -9999 -9999 -9999 -9999 -9999 -9999 -9999 -9999 -9999 -9999 -9999 -9999 -9999 -9999 -9999 -9999 -9999 -9999 -9999 -9999 -9999 -9999 -9999 -9999 -9999 -9999 -9999 -9999 -9999 -9999 -9999 -9999 -9999 -9999 -9999 -9999 -9999 -9999 -9999 -9999 -9999 -9999 -9999 -9999 -9999 -9999 -9999 -9999 -9999 -9999 -9999 -9999 -9999 -9999 -9999 -9999 -9999 -9999 -9999 -9999 -9999 -9999 -9999 -9999 -9999 -9999 -9999 -9999 -9999 -9999 -9999 -9999 -9999 -9999 -9999 -9999 -9999 -9999 -9999 -9999 -9999 -9999 -9999 -9999 -9999 -9999 -9999 -9999 -9999 -9999 -9999 -9999 -9999 -9999 -9999 -9999 -9999 -9999 -9999 -9999 -9999 -9999 -9999 -9999 -9999 -9999 -9999 -9999 -9999 -9999 -9999 -9999 -9999 -9999 -9999 -9999 -9999
-9999 -9999 -9999 -9999 -9999 -9999 -9999 -9999 -9999 -9999 -9999 -9999 -9999 -9999 -9999 -9999 -9999 -9999 -9999 -9999 -9999 -9999 -9999 -9999 -9999 -9999 -9999 -9999 -9999 -9999 -9999 -9999 -9999 -9999 -9999 -9999 -9999 0.265 0.278 0.537 0.536 0.545 0.554 0.586 0.566 0.555 0.549 0.596 0.609 0.578 0.610 0.610 0.603 0.328 0.343 0.341 0.189 0.165 0.180 0.210 0.186 0.215 0.209 0.214 0.241 0.011 0.011 0.011 0.011 0.011 0.011 0.012 0.011 0.011 0.009 0.009 0.009 0.008 0.009 0.007 0.008 0.008 0.008 0.008 0.007 0.007 0.009 0.009 0.009 0.008 0.010 0.009 0.009 0.009 0.011 0.011 0.011 0.010 0.009 0.008 0.009 0.009 0.009 0.008 0.008 0.008 0.006 0.007 0.008 -9999 -9999 0.007 -9999 -9999 -9999 -9999 -9999 -9999 -9999 -9999 -9999 -9999 -9999 -9999 -9999 -9999 -9999 -9999 -9999 -9999 -9999 -9999 -9999 -9999 -9999 -9999 -9999 -9999 -9999 -9999 -9999 -9999 -9999 -9999 -9999 -9999 -9999 -9999 -9999 -9999 -9999 -9999 -9999 -9999 -9999 -9999 -9999 -9999 -9999 -9999 -9999 -9999 -9999 -9999 -9999 -9999 -9999 -9999 -9999 -9999 -9999 -9999 -9999 -9999 -9999 -9999 -9999 -9999 -9999 -9999 -9999 -9999 -9999 -9999 -9999 -9999 -9999 -9999 -9999 -9999 -9999 -9999 -9999 -9999 -9999 -9999 -9999 -9999 -9999 -9999 -9999 -9999 -9999 -9999 -9999 -9999 -9999 -9999 -9999 -9999 -9999 -9999 -9999 -9999 -9999 -9999 -9999 -9999 -9999 -9999 -9999 -9999 -9999 -9999 -9999 -9999 -9999 -9999 -9999 -9999 -9999 -9999 -9999 -9999
-9999 -9999 -9999 -9999 -9999 -9999 -9999 -9999 -9999 -9999 -9999 -9999 -9999 -9999 -9999 -9999 -9999 -9999 -9999 -9999 -9999 -9999 -9999 -9999 -9999 -9999 -9999 -9999 -9999 -9999 -9999 -9999 -9999 -9999 -9999 -9999 0.147 0.133 0.135 0.150 0.287 0.531 0.305 0.297 0.285 0.574 0.575 0.568 0.566 0.587 0.620 0.592 0.583 0.628 0.659 0.335 0.208 0.170 0.178 0.184 0.225 0.260 0.249 0.281 0.282 0.289 0.010 0.016 0.017 0.017 0.018 0.013 0.012 0.010 0.009 0.009 0.009 0.009 0.009 0.008 0.008 0.008 0.007 0.008 0.007 0.007 0.008 0.008 0.008 0.008 0.009 0.008 0.009 0.009 0.011 0.011 0.010 0.009 0.009 0.008 0.008 0.008 0.008 0.008 0.007 0.007 0.006 0.007 0.000 -9999 -9999 0.007 -9999 -9999 -9999 -9999 -9999 -9999 -9999 -9999 -9999 -9999 -9999 -9999 -9999 -9999 -9999 -9999 -9999 -9999 -9999 -9999 -9999 -9999 -9999 -9999 -9999 -9999 -9999 -9999 -9999 -9999 -9999 -9999 -9999 -9999 -9999 -9999 -9999 -9999 -9999 -9999 -9999 -9999 -9999 -9999 -9999 -9999 -9999 -9999 -9999 -9999 -9999 -9999 -9999 -9999 -9999 -9999 -9999 -9999 -9999 -9999 -9999 -9999 -9999 -9999 -9999 -9999 -9999 -9999 -9999 -9999 -9999 -9999 -9999 -9999 -9999 -9999 -9999 -9999 -9999 -9999 -9999 -9999 -9999 -9999 -9999 -9999 -9999 -9999 -9999 -9999 -9999 -9999 -9999 -9999 -9999 -9999 -9999 -9999 -9999 -9999 -9999 -9999 -9999 -9999 -9999 -9999 -9999 -9999 -9999 -9999 -9999 -9999 -9999 -9999 -9999 -9999 -9999 -9999 -9999 -9999 -9999 -9999
-9999 -9999 -9999 -9999 -9999 -9999 -9999 -9999 -9999 -9999 -9999 -9999 -9999 -9999 -9999 -9999 -9999 -9999 -9999 -9999 -9999 -9999 -9999 -9999 -9999 -9999 -9999 -9999 -9999 -9999 -9999 -9999 -9999 -9999 -9999 0.133 0.110 0.136 0.144 0.153 0.142 0.155 0.144 0.149 0.220 0.308 0.576 0.612 0.598 0.598 0.641 0.657 0.646 0.629 0.656 0.345 0.212 0.183 0.176 0.209 0.263 0.282 0.271 0.283 0.279 0.289 0.265 0.017 0.016 0.011 0.012 0.012 0.012 0.011 0.009 0.009 0.009 0.010 0.010 0.009 0.007 0.008 0.007 0.007 0.008 0.008 0.008 0.007 0.007 0.009 0.008 0.008 0.009 0.010 0.011 0.010 0.010 0.009 0.009 0.009 0.008 0.009 0.008 0.007 0.006 0.006 0.007 0.006 0.005 -9999 -9999 -9999 -9999 -9999 -9999 -9999 -9999 -9999 -9999 -9999 -9999 -9999 -9999 -9999 -9999 -9999 -9999 -9999 -9999 -9999 -9999 -9999 -9999 -9999 -9999 -9999 -9999 -9999 -9999 -9999 -9999 -9999 -9999 -9999 -9999 -9999 -9999 -9999 -9999 -9999 -9999 -9999 -9999 -9999 -9999 -9999 -9999 -9999 -9999 -9999 -9999 -9999 -9999 -9999 -9999 -9999 -9999 -9999 -9999 -9999 -9999 -9999 -9999 -9999 -9999 -9999 -9999 -9999 -9999 -9999 -9999 -9999 -9999 -9999 -9999 -9999 -9999 -9999 -9999 -9999 -9999 -9999 -9999 -9999 -9999 -9999 -9999 -9999 -9999 -9999 -9999 -9999 -9999 -9999 -9999 -9999 -9999 -9999 -9999 -9999 -9999 -9999 -9999 -9999 -9999 -9999 -9999 -9999 -9999 -9999 -9999 -9999 -9999 -9999 -9999 -9999 -9999 -9999 -9999 -9999 -9999 -9999 -9999 -9999
-9999 -9999 -9999 -9999 -9999 -9999 -9999 -9999 -9999 -9999 -9999 -9999 -9999 -9999 -9999 -9999 -9999 -9999 -9999 -9999 -9999 -9999 -9999 -9999 -9999 -9999 -9999 -9999 -9999 -9999 -9999 -9999 -9999 -9999 0.259 0.108 0.116 0.123 0.162 0.170 0.147 0.152 0.156 0.158 0.136 0.304 0.332 0.601 0.579 0.608 0.625 0.620 0.628 0.657 0.639 0.271 0.198 0.195 0.226 0.241 0.265 0.279 0.366 0.375 0.273 0.269 0.269 0.265 0.017 0.012 0.011 0.012 0.011 0.011 0.011 0.010 0.010 0.011 0.009 0.008 0.007 0.008 0.008 0.007 0.006 0.008 0.009 0.007 0.007 0.010 0.009 0.009 0.008 0.009 0.009 0.010 0.010 0.010 0.009 0.009 0.009 0.009 0.008 0.007 0.007 0.006 0.006 0.006 0.005 -9999 -9999 -9999 -9999 -9999 -9999 -9999 -9999 -9999 -9999 -9999 -9999 -9999 -9999 -9999 -9999 -9999 -9999 -9999 -9999 -9999 -9999 -9999 -9999 -9999 -9999 -9999 -9999 -9999 -9999 -9999 -9999 -9999 -9999 -9999 -9999 -9999 -9999 -9999 -9999 -9999 -9999 -9999 -9999 -9999 -9999 -9999 -9999 -9999 -9999 -9999 -9999 -9999 -9999 -9999 -9999 -9999 -9999 -9999 -9999 -9999 -9999 -9999 -9999 -9999 -9999 -9999 -9999 -9999 -9999 -9999 -9999 -9999 -9999 -9999 -9999 -9999 -9999 -9999 -9999 -9999 -9999 -9999 -9999 -9999 -9999 -9999 -9999 -9999 -9999 -9999 -9999 -9999 -9999 -9999 -9999 -9999 -9999 -9999 -9999 -9999 -9999 -9999 -9999 -9999 -9999 -9999 -9999 -9999 -9999 -9999 -9999 -9999 -9999 -9999 -9999 -9999 -9999 -9999 -9999 -9999 -9999 -9999 -9999 -9999
-9999 -9999 -9999 -9999 -9999 -9999 -9999 -9999 -9999 -9999 -9999 -9999 -9999 -9999 -9999 -9999 -9999 -9999 -9999 -9999 -9999 -9999 -9999 -9999 -9999 -9999 -9999 -9999 -9999 -9999 -9999 -9999 -9999 0.038 0.084 0.114 0.115 0.127 0.146 0.159 0.163 0.177 0.166 0.145 0.146 0.221 0.603 0.576 0.580 0.599 0.620 0.621 0.650 0.318 0.246 0.199 0.184 0.178 0.227 0.270 0.263 0.267 0.354 0.278 0.272 0.254 0.265 0.266 0.011 0.012 0.012 0.011 0.010 0.010 0.010 0.010 0.011 0.010 0.010 0.009 0.009 0.008 0.008 0.007 0.006 0.007 0.006 0.007 0.007 0.008 0.010 0.009 0.008 0.008 0.008 0.008 0.009 0.010 0.009 0.008 0.009 0.008 0.008 0.008 0.008 0.006 0.006 0.006 0.006 -9999 -9999 -9999 -9999 -9999 -9999 -9999 -9999 -9999 -9999 -9999 -9999 -9999 -9999 -9999 -9999 -9999 -9999 -9999 -9999 -9999 -9999 -9999 -9999 -9999 -9999 -9999 -9999 -9999 -9999 -9999 -9999 -9999 -9999 -9999 -9999 -9999 -9999 -9999 -9999 -9999 -9999 -9999 -9999 -9999 -9999 -9999 -9999 -9999 -9999 -9999 -9999 -9999 -9999 -9999 -9999 -9999 -9999 -9999 -9999 -9999 -9999 -9999 -9999 -9999 -9999 -9999 -9999 -9999 -9999 -9999 -9999 -9999 -9999 -9999 -9999 -9999 -9999 -9999 -9999 -9999 -9999 -9999 -9999 -9999 -9999 -9999 -9999 -9999 -9999 -9999 -9999 -9999 -9999 -9999 -9999 -9999 -9999 -9999 -9999 -9999 -9999 -9999 -9999 -9999 -9999 -9999 -9999 -9999 -9999 -9999 -9999 -9999 -9999 -9999 -9999 -9999 -9999 -9999 -9999 -9999 -9999 -9999 -9999 -9999
-9999 -9999 -9999 -9999 -9999 -9999 -9999 -9999 -9999 -9999 -9999 -9999 -9999 -9999 -9999 -9999 -9999 -9999 -9999 -9999 -9999 -9999 -9999 -9999 -9999 -9999 -9999 -9999 -9999 -9999 -9999 -9999 0.118 0.086 0.082 0.112 0.110 0.127 0.141 0.162 0.213 0.293 0.293 0.170 0.157 0.164 0.313 0.588 0.611 0.613 0.620 0.336 0.345 0.324 0.247 0.196 0.186 0.197 0.259 0.261 0.265 0.269 0.365 0.369 0.279 0.264 0.248 0.282 0.263 0.012 0.010 0.010 0.009 0.010 0.011 0.010 0.010 0.010 0.010 0.007 0.008 0.009 0.009 0.007 0.007 0.008 0.007 0.006 0.006 0.007 0.007 0.008 0.008 0.008 0.009 0.008 0.008 0.008 0.009 0.009 0.008 0.008 0.008 0.008 0.007 0.006 0.006 0.007 0.006 -9999 -9999 0.000 0.008 -9999 -9999 -9999 -9999 -9999 -9999 -9999 -9999 -9999 -9999 -9999 -9999 -9999 -9999 -9999 -9999 -9999 -9999 -9999 -9999 -9999 -9999 -9999 -9999 -9999 -9999 -9999 -9999 -9999 -9999 -9999 -9999 -9999 -9999 -9999 -9999 -9999 -9999 -9999 -9999 -9999 -9999 -9999 -9999 -9999 -9999 -9999 -9999 -9999 -9999 -9999 -9999 -9999 -9999 -9999 -9999 -9999 -9999 -9999 -9999 -9999 -9999 -9999 -9999 -9999 -9999 -9999 -9999 -9999 -9999 -9999 -9999 -9999 -9999 -9999 -9999 -9999 -9999 -9999 -9999 -9999 -9999 -9999 -9999 -9999 -9999 -9999 -9999 -9999 -9999 -9999 -9999 -9999 -9999 -9999 -9999 -9999 -9999 -9999 -9999 -9999 -9999 -9999 -9999 -9999 -9999 -9999 -9999 -9999 -9999 -9999 -9999 -9999 -9999 -9999 -9999 -9999 -9999 -9999 -9999 -9999
-9999 -9999 -9999 -9999 -9999 -9999 -9999 -9999 -9999 -9999 -9999 -9999 -9999 -9999 -9999 -9999 -9999 -9999 -9999 -9999 -9999 -9999 -9999 -9999 -9999 -9999 -9999 -9999 -9999 -9999 -9999 0.128 0.056 0.094 0.096 0.112 0.105 0.126 0.150 0.172 0.221 0.288 0.557 0.294 0.181 0.187 0.187 0.589 0.617 0.335 0.243 0.249 0.251 0.340 0.250 0.244 0.201 0.185 0.218 0.260 0.265 0.271 0.276 0.283 0.280 0.284 0.221 0.229 0.205 0.010 0.010 0.009 0.008 0.009 0.010 0.010 0.009 0.010 0.009 0.007 0.007 0.009 0.008 0.008 0.007 0.007 0.008 0.008 0.008 0.009 0.008 0.007 0.008 0.008 0.007 0.008 0.006 0.008 0.008 0.008 0.008 0.008 0.008 0.007 0.006 0.006 0.006 0.006 0.006 -9999 -9999 0.000 0.006 0.008 -9999 -9999 -9999 -9999 -9999 -9999 -9999 -9999 -9999 -9999 -9999 -9999 -9999 -9999 -9999 -9999 -9999 -9999 -9999 -9999 -9999 -9999 -9999 -9999 -9999 -9999 -9999 -9999 -9999 -9999 -9999 -9999 -9999 -9999 -9999 -9999 -9999 -9999 -9999 -9999 -9999 -9999 -9999 -9999 -9999 -9999 -9999 -9999 -9999 -9999 -9999 -9999 -9999 -9999 -9999 -9999 -9999 -9999 -9999 -9999 -9999 -9999 -9999 -9999 -9999 -9999 -9999 -9999 -9999 -9999 -9999 -9999 -9999 -9999 -9999 -9999 -9999 -9999 -9999 -9999 -9999 -9999 -9999 -9999 -9999 -9999 -9999 -9999 -9999 -9999 -9999 -9999 -9999 -9999 -9999 -9999 -9999 -9999 -9999 -9999 -9999 -9999 -9999 -9999 -9999 -9999 -9999 -9999 -9999 -9999 -9999 -9999 -9999 -9999 -9999 -9999 -9999 -9999 -9999 -9999
-9999 -9999 -9999 -9999 -9999 -9999 -9999 -9999 -9999 -9999 -9999 -9999 -9999 -9999 -9999 -9999 -9999 -9999 -9999 -9999 -9999 -9999 -9999 -9999 -9999 -9999 -9999 -9999 -9999 -9999 -9999 0.075 0.093 0.094 0.095 0.116 0.105 0.127 0.171 0.210 0.294 0.549 0.553 0.290 0.222 0.233 0.238 0.237 0.243 0.194 0.182 0.234 0.237 0.318 0.317 0.257 0.257 0.215 0.194 0.254 0.261 0.272 0.259 0.223 0.209 0.195 0.191 0.198 0.010 0.010 0.010 0.010 0.010 0.011 0.009 0.008 0.007 0.009 0.009 0.007 0.007 0.008 0.008 0.008 0.008 0.008 0.008 0.008 0.010 0.009 0.009 0.008 0.008 0.007 0.007 0.007 0.006 0.007 0.007 0.007 0.007 0.007 0.007 0.007 0.007 0.006 0.006 0.006 0.006 0.000 0.000 0.005 0.006 0.000 -9999 -9999 -9999 -9999 -9999 -9999 -9999 -9999 -9999 -9999 -9999 -9999 -9999 -9999 -9999 -9999 -9999 -9999 -9999 -9999 -9999 -9999 -9999 -9999 -9999 -9999 -9999 -9999 -9999 -9999 -9999 -9999 -9999 -9999 -9999 -9999 -9999 -9999 -9999 -9999 -9999 -9999 -9999 -9999 -9999 -9999 -9999 -9999 -9999 -9999 -9999 -9999 -9999 -9999 -9999 -9999 -9999 -9999 -9999 -9999 -9999 -9999 -9999 -9999 -9999 -9999 -9999 -9999 -9999 -9999 -9999 -9999 -9999 -9999 -9999 -9999 -9999 -9999 -9999 -9999 -9999 -9999 -9999 -9999 -9999 -9999 -9999 -9999 -9999 -9999 -9999 -9999 -9999 -9999 -9999 -9999 -9999 -9999 -9999 -9999 -9999 -9999 -9999 -9999 -9999 -9999 -9999 -9999 -9999 -9999 -9999 -9999 -9999 -9999 -9999 -9999 -9999 -9999 -9999 -9999
-9999 -9999 -9999 -9999 -9999 -9999 -9999 -9999 -9999 -9999 -9999 -9999 -9999 -9999 -9999 -9999 -9999 -9999 -9999 -9999 -9999 -9999 -9999 -9999 -9999 -9999 -9999 -9999 -9999 -9999 0.074 0.115 0.103 0.095 0.106 0.116 0.120 0.125 0.134 0.161 0.283 0.575 0.571 0.565 0.296 0.223 0.228 0.233 0.232 0.186 0.179 0.192 0.241 0.349 0.345 0.355 0.274 0.266 0.184 0.173 0.189 0.184 0.182 0.182 0.216 0.260 0.262 0.278 0.011 0.012 0.012 0.011 0.010 0.011 0.010 0.010 0.009 0.010 0.009 0.008 0.008 0.009 0.010 0.008 0.008 0.009 0.008 0.009 0.008 0.008 0.008 0.009 0.008 0.006 0.007 0.007 0.006 0.005 0.005 0.007 0.007 0.006 0.006 0.007 0.006 0.006 0.006 0.007 0.006 0.006 0.005 0.005 0.006 0.006 -9999 -9999 -9999 -9999 -9999 -9999 -9999 -9999 -9999 -9999 -9999 -9999 -9999 -9999 -9999 -9999 -9999 -9999 -9999 -9999 -9999 -9999 -9999 -9999 -9999 -9999 -9999 -9999 -9999 -9999 -9999 -9999 -9999 -9999 -9999 -9999 -9999 -9999 -9999 -9999 -9999 -9999 -9999 -9999 -9999 -9999 -9999 -9999 -9999 -9999 -9999 -9999 -9999 -9999 -9999 -9999 -9999 -9999 -9999 -9999 -9999 -9999 -9999 -9999 -9999 -9999 -9999 -9999 -9999 -9999 -9999 -9999 -9999 -9999 -9999 -9999 -9999 -9999 -9999 -9999 -9999 -9999 -9999 -9999 -9999 -9999 -9999 -9999 -9999 -9999 -9999 -9999 -9999 -9999 -9999 -9999 -9999 -9999 -9999 -9999 -9999 -9999 -9999 -9999 -9999 -9999 -9999 -9999 -9999 -9999 -9999 -9999 -9999 -9999 -9999 -9999 -9999 -9999 -9999 -9999
-9999 -9999 -9999 -9999 -9999 -9999 -9999 -9999 -9999 -9999 -9999 -9999 -9999 -9999 -9999 -9999 -9999 -9999 -9999 -9999 -9999 -9999 -9999 -9999 -9999 -9999 -9999 -9999 -9999 0.067 0.107 0.110 0.104 0.108 0.105 0.126 0.120 0.135 0.149 0.160 0.212 0.299 0.561 0.552 0.548 0.294 0.306 0.231 0.231 0.189 0.177 0.186 0.192 0.251 0.257 0.261 0.253 0.212 0.188 0.195 0.207 0.194 0.255 0.262 0.268 0.248 0.343 0.334 0.011 0.011 0.011 0.012 0.010 0.010 0.011 0.010 0.009 0.010 0.010 0.010 0.009 0.010 0.009 0.007 0.008 0.009 0.008 0.008 0.007 0.006 0.005 0.007 0.007 0.007 0.007 0.007 0.006 0.006 0.006 0.007 0.006 0.005 0.006 0.006 0.005 0.005 0.006 0.006 0.006 0.006 0.006 0.005 0.005 0.006 -9999 -9999 -9999 -9999 -9999 -9999 -9999 -9999 -9999 -9999 -9999 -9999 -9999 -9999 -9999 -9999 -9999 -9999 -9999 -9999 -9999 -9999 -9999 -9999 -9999 -9999 -9999 -9999 -9999 -9999 -9999 -9999 -9999 -9999 -9999 -9999 -9999 -9999 -9999 -9999 -9999 -9999 -9999 -9999 -9999 -9999 -9999 -9999 -9999 -9999 -9999 -9999 -9999 -9999 -9999 -9999 -9999 -9999 -9999 -9999 -9999 -9999 -9999 -9999 -9999 -9999 -9999 -9999 -9999 -9999 -9999 -9999 -9999 -9999 -9999 -9999 -9999 -9999 -9999 -9999 -9999 -9999 -9999 -9999 -9999 -9999 -9999 -9999 -9999 -9999 -9999 -9999 -9999 -9999 -9999 -9999 -9999 -9999 -9999 -9999 -9999 -9999 -9999 -9999 -9999 -9999 -9999 -9999 -9999 -9999 -9999 -9999 -9999 -9999 -9999 -9999 -9999 -9999 -9999 -9999
-9999 -9999 -9999 -9999 -9999 -9999 -9999 -9999 -9999 -9999 -9999 -9999 -9999 -9999 -9999 -9999 -9999 -9999 -9999 -9999 -9999 -9999 -9999 -9999 -9999 -9999 -9999 -9999 0.031 0.082 0.089 0.093 0.101 0.105 0.148 0.125 0.103 0.135 0.130 0.136 0.160 0.302 0.291 0.296 0.296 0.316 0.288 0.219 0.220 0.169 0.178 0.184 0.202 0.245 0.184 0.233 0.200 0.181 0.182 0.230 0.208 0.193 0.181 0.258 0.259 0.345 0.356 0.359 0.011 0.017 0.018 0.018 0.012 0.010 0.010 0.010 0.010 0.012 0.010 0.010 0.010 0.009 0.008 0.008 0.006 0.008 0.008 0.008 0.008 0.006 0.006 0.007 0.007 0.007 0.007 0.007 0.006 0.007 0.006 0.006 0.005 0.005 0.006 0.006 0.005 0.005 0.005 0.005 0.005 0.006 0.006 0.006 0.006 0.006 -9999 -9999 -9999 -9999 -9999 -9999 -9999 -9999 -9999 -9999 -9999 -9999 -9999 -9999 -9999 -9999 -9999 -9999 -9999 -9999 -9999 -9999 -9999 -9999 -9999 -9999 -9999 -9999 -9999 -9999 -9999 -9999 -9999 -9999 -9999 -9999 -9999 -9999 -9999 -9999 -9999 -9999 -9999 -9999 -9999 -9999 -9999 -9999 -9999 -9999 -9999 -9999 -9999 -9999 -9999 -9999 -9999 -9999 -9999 -9999 -9999 -9999 -9999 -9999 -9999 -9999 -9999 -9999 -9999 -9999 -9999 -9999 -9999 -9999 -9999 -9999 -9999 -9999 -9999 -9999 -9999 -9999 -9999 -9999 -9999 -9999 -9999 -9999 -9999 -9999 -9999 -9999 -9999 -9999 -9999 -9999 -9999 -9999 -9999 -9999 -9999 -9999 -9999 -9999 -9999 -9999 -9999 -9999 -9999 -9999 -9999 -9999 -9999 -9999 -9999 -9999 -9999 -9999 -9999 -9999
-9999 -9999 -9999 -9999 -9999 -9999 -9999 -9999 -9999 -9999 -9999 -9999 -9999 -9999 -9999 -9999 -9999 -9999 -9999 -9999 -9999 -9999 -9999 -9999 -9999 -9999 -9999 0.032 0.078 0.094 0.103 0.091 0.097 0.103 0.104 0.136 0.118 0.108 0.135 0.141 0.169 0.230 0.233 0.219 0.225 0.233 0.296 0.212 0.218 0.208 0.177 0.180 0.182 0.195 0.173 0.184 0.183 0.204 0.266 0.276 0.283 0.196 0.179 0.176 0.214 0.252 0.326 0.327 0.017 0.017 0.017 0.017 0.012 0.010 0.010 0.010 0.010 0.012 0.010 0.010 0.010 0.009 0.009 0.008 0.006 0.006 0.007 0.008 0.009 0.008 0.008 0.008 0.007 0.006 0.007 0.006 0.006 0.006 0.006 0.004 0.005 0.006 0.006 0.005 0.005 0.006 0.005 0.006 0.006 0.006 0.006 0.006 0.005 0.006 -9999 -9999 -9999 -9999 -9999 -9999 -9999 -9999 -9999 -9999 -9999 -9999 -9999 -9999 -9999 -9999 -9999 -9999 -9999 -9999 -9999 -9999 -9999 -9999 -9999 -9999 -9999 -9999 -9999 -9999 -9999 -9999 -9999 -9999 -9999 -9999 -9999 -9999 -9999 -9999 -9999 -9999 -9999 -9999 -9999 -9999 -9999 -9999 -9999 -9999 -9999 -9999 -9999 -9999 -9999 -9999 -9999 -9999 -9999 -9999 -9999 -9999 -9999 -9999 -9999 -9999 -9999 -9999 -9999 -9999 -9999 -9999 -9999 -9999 -9999 -9999 -9999 -9999 -9999 -9999 -9999 -9999 -9999 -9999 -9999 -9999 -9999 -9999 -9999 -9999 -9999 -9999 -9999 -9999 -9999 -9999 -9999 -9999 -9999 -9999 -9999 -9999 -9999 -9999 -9999 -9999 -9999 -9999 -9999 -9999 -9999 -9999 -9999 -9999 -9999 -9999 -9999 -9999 -9999 -9999
-9999 -9999 -9999 -9999 -9999 -9999 -9999 -9999 -9999 -9999 -9999 -9999 -9999 -9999 -9999 -9999 -9999 -9999 -9999 -9999 -9999 -9999 -9999 -9999 -9999 -9999 0.080 0.084 0.084 0.079 0.086 0.078 0.084 0.103 0.098 0.125 0.120 0.100 0.112 0.146 0.150 0.156 0.179 0.224 0.214 0.216 0.220 0.217 0.220 0.173 0.175 0.187 0.156 0.171 0.175 0.198 0.209 0.214 0.259 0.264 0.264 0.244 0.255 0.175 0.169 0.183 0.247 0.327 0.016 0.017 0.017 0.017 0.016 0.011 0.011 0.010 0.010 0.011 0.009 0.009 0.009 0.009 0.008 0.008 0.008 0.007 0.007 0.009 0.009 0.009 0.009 0.009 0.009 0.008 0.007 0.006 0.007 0.007 0.007 0.007 0.005 0.006 0.006 0.005 0.006 0.006 0.006 0.006 0.006 0.006 0.007 0.006 0.005 -9999 -9999 -9999 -9999 -9999 -9999 -9999 -9999 -9999 -9999 -9999 -9999 -9999 -9999 -9999 -9999 -9999 -9999 -9999 -9999 -9999 -9999 -9999 -9999 -9999 -9999 -9999 -9999 -9999 -9999 -9999 -9999 -9999 -9999 -9999 -9999 -9999 -9999 -9999 -9999 -9999 -9999 -9999 -9999 -9999 -9999 -9999 -9999 -9999 -9999 -9999 -9999 -9999 -9999 -9999 -9999 -9999 -9999 -9999 -9999 -9999 -9999 -9999 -9999 -9999 -9999 -9999 -9999 -9999 -9999 -9999 -9999 -9999 -9999 -9999 -9999 -9999 -9999 -9999 -9999 -9999 -9999 -9999 -9999 -9999 -9999 -9999 -9999 -9999 -9999 -9999 -9999 -9999 -9999 -9999 -9999 -9999 -9999 -9999 -9999 -9999 -9999 -9999 -9999 -9999 -9999 -9999 -9999 -9999 -9999 -9999 -9999 -9999 -9999 -9999 -9999 -9999 -9999 -9999 -9999 -9999
-9999 -9999 -9999 -9999 -9999 -9999 -9999 -9999 -9999 -9999 -9999 -9999 -9999 -9999 -9999 -9999 -9999 -9999 -9999 -9999 -9999 -9999 -9999 -9999 -9999 -9999 0.002 0.089 0.089 0.080 0.078 0.078 0.079 0.097 0.101 0.105 0.105 0.105 0.098 0.139 0.149 0.156 0.178 0.222 0.173 0.180 0.219 0.213 0.208 0.167 0.170 0.162 0.156 0.162 0.198 0.245 0.247 0.249 0.252 0.344 0.251 0.236 0.258 0.258 0.185 0.170 0.205 0.011 0.016 0.016 0.017 0.017 0.017 0.016 0.010 0.011 0.011 0.017 0.010 0.009 0.009 0.009 0.009 0.008 0.007 0.007 0.007 0.008 0.009 0.008 0.009 0.009 0.008 0.008 0.007 0.006 0.006 0.006 0.006 0.006 0.005 0.005 0.005 0.006 0.005 0.005 0.006 0.007 0.006 0.006 0.006 0.005 0.005 -9999 -9999 -9999 -9999 -9999 -9999 -9999 -9999 -9999 -9999 -9999 -9999 -9999 -9999 -9999 -9999 -9999 -9999 -9999 -9999 -9999 -9999 -9999 -9999 -9999 -9999 -9999 -9999 -9999 -9999 -9999 -9999 -9999 -9999 -9999 -9999 -9999 -9999 -9999 -9999 -9999 -9999 -9999 -9999 -9999 -9999 -9999 -9999 -9999 -9999 -9999 -9999 -9999 -9999 -9999 -9999 -9999 -9999 -9999 -9999 -9999 -9999 -9999 -9999 -9999 -9999 -9999 -9999 -9999 -9999 -9999 -9999 -9999 -9999 -9999 -9999 -9999 -9999 -9999 -9999 -9999 -9999 -9999 -9999 -9999 -9999 -9999 -9999 -9999 -9999 -9999 -9999 -9999 -9999 -9999 -9999 -9999 -9999 -9999 -9999 -9999 -9999 -9999 -9999 -9999 -9999 -9999 -9999 -9999 -9999 -9999 -9999 -9999 -9999 -9999 -9999 -9999 -9999 -9999 -9999 -9999
-9999 -9999 -9999 -9999 -9999 -9999 -9999 -9999 -9999 -9999 -9999 -9999 -9999 -9999 -9999 -9999 -9999 -9999 -9999 -9999 -9999 -9999 -9999 -9999 -9999 -9999 0.017 0.112 0.119 0.120 0.127 0.091 0.081 0.098 0.098 0.103 0.105 0.111 0.103 0.114 0.150 0.177 0.186 0.226 0.174 0.173 0.180 0.184 0.158 0.161 0.158 0.145 0.153 0.171 0.199 0.242 0.249 0.250 0.338 0.241 0.320 0.310 0.316 0.240 0.239 0.178 0.176 0.010 0.016 0.017 0.017 0.017 0.017 0.018 0.016 0.016 0.016 0.016 0.016 0.010 0.009 0.008 0.009 0.009 0.006 0.005 0.006 0.007 0.008 0.008 0.009 0.009 0.008 0.008 0.008 0.007 0.008 0.007 0.006 0.006 0.006 0.006 0.005 0.006 0.005 0.005 0.005 0.006 0.006 0.006 0.007 0.006 0.005 -9999 -9999 -9999 -9999 -9999 -9999 -9999 -9999 -9999 -9999 -9999 -9999 -9999 -9999 -9999 -9999 -9999 -9999 -9999 -9999 -9999 -9999 -9999 -9999 -9999 -9999 -9999 -9999 -9999 -9999 -9999 -9999 -9999 -9999 -9999 -9999 -9999 -9999 -9999 -9999 -9999 -9999 -9999 -9999 -9999 -9999 -9999 -9999 -9999 -9999 -9999 -9999 -9999 -9999 -9999 -9999 -9999 -9999 -9999 -9999 -9999 -9999 -9999 -9999 -9999 -9999 -9999 -9999 -9999 -9999 -9999 -9999 -9999 -9999 -9999 -9999 -9999 -9999 -9999 -9999 -9999 -9999 -9999 -9999 -9999 -9999 -9999 -9999 -9999 -9999 -9999 -9999 -9999 -9999 -9999 -9999 -9999 -9999 -9999 -9999 -9999 -9999 -9999 -9999 -9999 -9999 -9999 -9999 -9999 -9999 -9999 -9999 -9999 -9999 -9999 -9999 -9999 -9999 -9999 -9999 -9999
-9999 -9999 -9999 -9999 -9999 -9999 -9999 -9999 -9999 -9999 -9999 -9999 -9999 -9999 -9999 -9999 -9999 -9999 -9999 -9999 -9999 -9999 -9999 -9999 -9999 -9999 0.000 0.171 0.166 0.179 0.184 0.118 0.088 0.089 0.117 0.110 0.105 0.108 0.106 0.099 0.116 0.158 0.213 0.217 0.212 0.221 0.169 0.188 0.168 0.146 0.140 0.166 0.177 0.173 0.247 0.244 0.251 0.249 0.352 0.247 0.230 0.306 0.299 0.222 0.218 0.184 0.168 0.010 0.010 0.017 0.018 0.017 0.016 0.017 0.017 0.016 0.017 0.031 0.016 0.016 0.000 0.007 0.008 0.008 0.006 0.005 0.005 0.007 0.008 0.008 0.009 0.009 0.008 0.008 0.009 0.014 0.014 0.009 0.008 0.007 0.008 0.007 0.006 0.006 0.005 0.005 0.006 0.006 0.007 0.006 0.006 0.006 0.006 -9999 -9999 -9999 -9999 -9999 -9999 -9999 -9999 -9999 -9999 -9999 -9999 -9999 -9999 -9999 -9999 -9999 -9999 -9999 -9999 -9999 -9999 -9999 -9999 -9999 -9999 -9999 -9999 -9999 -9999 -9999 -9999 -9999 -9999 -9999 -9999 -9999 -9999 -9999 -9999 -9999 -9999 -9999 -9999 -9999 -9999 -9999 -9999 -9999 -9999 -9999 -9999 -9999 -9999 -9999 -9999 -9999 -9999 -9999 -9999 -9999 -9999 -9999 -9999 -9999 -9999 -9999 -9999 -9999 -9999 -9999 -9999 -9999 -9999 -9999 -9999 -9999 -9999 -9999 -9999 -9999 -9999 -9999 -9999 -9999 -9999 -9999 -9999 -9999 -9999 -9999 -9999 -9999 -9999 -9999 -9999 -9999 -9999 -9999 -9999 -9999 -9999 -9999 -9999 -9999 -9999 -9999 -9999 -9999 -9999 -9999 -9999 -9999 -9999 -9999 -9999 -9999 -9999 -9999 -9999 -9999
-9999 -9999 -9999 -9999 -9999 -9999 -9999 -9999 -9999 -9999 -9999 -9999 -9999 -9999 -9999 -9999 -9999 -9999 -9999 -9999 -9999 -9999 -9999 -9999 -9999 -9999 -9999 0.044 0.232 0.257 0.248 0.165 0.171 0.102 0.121 0.145 0.116 0.106 0.121 0.099 0.117 0.143 0.138 0.156 0.171 0.214 0.147 0.137 0.148 0.172 0.166 0.173 0.176 0.172 0.234 0.242 0.242 0.241 0.325 0.244 0.230 0.308 0.289 0.210 0.211 0.173 0.171 0.169 0.009 0.011 0.011 0.017 0.017 0.017 0.017 0.016 0.017 0.031 0.016 0.016 0.029 0.009 0.008 0.008 0.007 0.007 0.007 0.007 0.008 0.008 0.009 0.009 0.008 0.009 0.014 0.030 0.029 0.014 0.008 0.007 0.007 0.007 0.007 0.006 0.005 0.006 0.006 0.005 0.005 0.006 0.006 0.006 0.006 -9999 -9999 -9999 -9999 -9999 -9999 -9999 -9999 -9999 -9999 -9999 -9999 -9999 -9999 -9999 -9999 -9999 -9999 -9999 -9999 -9999 -9999 -9999 -9999 -9999 -9999 -9999 -9999 -9999 -9999 -9999 -9999 -9999 -9999 -9999 -9999 -9999 -9999 -9999 -9999 -9999 -9999 -9999 -9999 -9999 -9999 -9999 -9999 -9999 -9999 -9999 -9999 -9999 -9999 -9999 -9999 -9999 -9999 -9999 -9999 -9999 -9999 -9999 -9999 -9999 -9999 -9999 -9999 -9999 -9999 -9999 -9999 -9999 -9999 -9999 -9999 -9999 -9999 -9999 -9999 -9999 -9999 -9999 -9999 -9999 -9999 -9999 -9999 -9999 -9999 -9999 -9999 -9999 -9999 -9999 -9999 -9999 -9999 -9999 -9999 -9999 -9999 -9999 -9999 -9999 -9999 -9999 -9999 -9999 -9999 -9999 -9999 -9999 -9999 -9999 -9999 -9999 -9999 -9999 -9999 -9999
-9999 -9999 -9999 -9999 -9999 -9999 -9999 -9999 -9999 -9999 -9999 -9999 -9999 -9999 -9999 -9999 -9999 -9999 -9999 -9999 -9999 -9999 -9999 -9999 -9999 -9999 -9999 0.000 0.424 0.435 0.443 0.231 0.232 0.178 0.105 0.093 0.096 0.099 0.115 0.120 0.107 0.116 0.121 0.123 0.134 0.139 0.122 0.139 0.154 0.168 0.188 0.180 0.184 0.179 0.228 0.227 0.248 0.258 0.311 0.308 0.228 0.226 0.218 0.212 0.211 0.192 0.169 0.167 0.009 0.009 0.011 0.011 0.011 0.011 0.011 0.017 0.017 0.031 0.031 0.016 0.015 0.009 0.008 0.008 0.008 0.008 0.007 0.008 0.008 0.009 0.008 0.009 0.009 0.015 0.015 0.015 0.014 0.013 0.008 0.008 0.008 0.007 0.006 0.005 0.005 0.006 0.006 0.005 0.005 0.005 0.005 0.006 0.006 -9999 -9999 -9999 -9999 -9999 -9999 -9999 -9999 -9999 -9999 -9999 -9999 -9999 -9999 -9999 -9999 -9999 -9999 -9999 -9999 -9999 -9999 -9999 -9999 -9999 -9999 -9999 -9999 -9999 -9999 -9999 -9999 -9999 -9999 -9999 -9999 -9999 -9999 -9999 -9999 -9999 -9999 -9999 -9999 -9999 -9999 -9999 -9999 -9999 -9999 -9999 -9999 -9999 -9999 -9999 -9999 -9999 -9999 -9999 -9999 -9999 -9999 -9999 -9999 -9999 -9999 -9999 -9999 -9999 -9999 -9999 -9999 -9999 -9999 -9999 -9999 -9999 -9999 -9999 -9999 -9999 -9999 -9999 -9999 -9999 -9999 -9999 -9999 -9999 -9999 -9999 -9999 -9999 -9999 -9999 -9999 -9999 -9999 -9999 -9999 -9999 -9999 -9999 -9999 -9999 -9999 -9999 -9999 -9999 -9999 -9999 -9999 -9999 -9999 -9999 -9999 -9999 -9999 -9999 -9999 -9999
-9999 -9999 -9999 -9999 -9999 -9999 -9999 -9999 -9999 -9999 -9999 -9999 -9999 -9999 -9999 -9999 -9999 -9999 -9999 -9999 -9999 -9999 -9999 -9999 -9999 -9999 -9999 0.000 0.456 0.000 0.473 0.499 0.479 0.246 0.178 0.147 0.100 0.096 0.104 0.129 0.116 0.124 0.110 0.102 0.126 0.127 0.161 0.152 0.154 0.189 0.188 0.185 0.237 0.235 0.239 0.231 0.231 0.246 0.253 0.221 0.224 0.220 0.203 0.211 0.218 0.201 0.186 0.153 0.155 0.009 0.009 0.011 0.011 0.011 0.011 0.017 0.017 0.030 0.030 0.016 0.015 0.015 0.010 0.008 0.008 0.008 0.008 0.008 0.009 0.007 0.014 0.009 0.009 0.014 0.014 0.009 0.009 0.009 0.009 0.007 0.007 0.007 0.007 0.006 0.005 0.006 0.006 0.005 0.005 0.005 0.004 0.005 0.006 -9999 -9999 -9999 -9999 -9999 -9999 -9999 -9999 -9999 -9999 -9999 -9999 -9999 -9999 -9999 -9999 -9999 -9999 -9999 -9999 -9999 -9999 -9999 -9999 -9999 -9999 -9999 -9999 -9999 -9999 -9999 -9999 -9999 -9999 -9999 -9999 -9999 -9999 -9999 -9999 -9999 -9999 -9999 -9999 -9999 -9999 -9999 -9999 -9999 -9999 -9999 -9999 -9999 -9999 -9999 -9999 -9999 -9999 -9999 -9999 -9999 -9999 -9999 -9999 -9999 -9999 -9999 -9999 -9999 -9999 -9999 -9999 -9999 -9999 -9999 -9999 -9999 -9999 -9999 -9999 -9999 -9999 -9999 -9999 -9999 -9999 -9999 -9999 -9999 -9999 -9999 -9999 -9999 -9999 -9999 -9999 -9999 -9999 -9999 -9999 -9999 -9999 -9999 -9999 -9999 -9999 -9999 -9999 -9999 -9999 -9999 -9999 -9999 -9999 -9999 -9999 -9999 -9999 -9999 -9999 -9999
-9999 -9999 -9999 -9999 -9999 -9999 -9999 -9999 -9999 -9999 -9999 -9999 -9999 -9999 -9999 -9999 -9999 -9999 -9999 -9999 -9999 -9999 -9999 -9999 -9999 -9999 -9999 -9999 0.000 0.000 0.000 0.000 0.000 0.472 0.245 0.245 0.147 0.098 0.094 0.115 0.117 0.084 0.093 0.097 0.113 0.128 0.144 0.170 0.173 0.216 0.229 0.235 0.234 0.240 0.239 0.318 0.325 0.325 0.312 0.223 0.225 0.220 0.201 0.211 0.208 0.240 0.198 0.179 0.169 0.168 0.008 0.009 0.011 0.011 0.010 0.016 0.016 0.032 0.016 0.015 0.016 0.010 0.010 0.010 0.009 0.010 0.010 0.010 0.009 0.007 0.014 0.009 0.009 0.008 0.015 0.009 0.009 0.009 0.014 0.008 0.007 0.008 0.008 0.005 0.005 0.006 0.006 0.006 0.006 0.005 0.005 0.005 0.006 -9999 -9999 -9999 -9999 -9999 -9999 -9999 -9999 -9999 -9999 -9999 -9999 -9999 -9999 -9999 -9999 -9999 -9999 -9999 -9999 -9999 -9999 -9999 -9999 -9999 -9999 -9999 -9999 -9999 -9999 -9999 -9999 -9999 -9999 -9999 -9999 -9999 -9999 -9999 -9999 -9999 -9999 -9999 -9999 -9999 -9999 -9999 -9999 -9999 -9999 -9999 -9999 -9999 -9999 -9999 -9999 -9999 -9999 -9999 -9999 -9999 -9999 -9999 -9999 -9999 -9999 -9999 -9999 -9999 -9999 -9999 -9999 -9999 -9999 -9999 -9999 -9999 -9999 -9999 -9999 -9999 -9999 -9999 -9999 -9999 -9999 -9999 -9999 -9999 -9999 -9999 -9999 -9999 -9999 -9999 -9999 -9999 -9999 -9999 -9999 -9999 -9999 -9999 -9999 -9999 -9999 -9999 -9999 -9999 -9999 -9999 -9999 -9999 -9999 -9999 -9999 -9999 -9999 -9999 -9999 -9999
-9999 -9999 -9999 -9999 -9999 -9999 -9999 -9999 -9999 -9999 -9999 -9999 -9999 -9999 -9999 -9999 -9999 -9999 -9999 -9999 -9999 -9999 -9999 -9999 -9999 -9999 -9999 -9999 0.000 0.000 0.000 0.000 0.000 0.000 0.472 0.241 0.265 0.188 0.103 0.098 0.116 0.086 0.105 0.098 0.121 0.138 0.149 0.211 0.207 0.212 0.224 0.232 0.240 0.239 0.237 0.321 0.317 0.311 0.319 0.319 0.226 0.226 0.232 0.214 0.296 0.296 0.244 0.200 0.177 0.166 0.008 0.009 0.011 0.011 0.017 0.017 0.010 0.016 0.016 0.016 0.015 0.010 0.010 0.015 0.015 0.016 0.016 0.010 0.010 0.009 0.008 0.009 0.009 0.009 0.008 0.009 0.009 0.009 0.014 0.008 0.009 0.007 0.006 0.006 0.006 0.006 0.006 0.006 0.006 0.005 0.005 0.005 0.000 -9999 -9999 -9999 -9999 -9999 -9999 -9999 -9999 -9999 -9999 -9999 -9999 -9999 -9999 -9999 -9999 -9999 -9999 -9999 -9999 -9999 -9999 -9999 -9999 -9999 -9999 -9999 -9999 -9999 -9999 -9999 -9999 -9999 -9999 -9999 -9999 -9999 -9999 -9999 -9999 -9999 -9999 -9999 -9999 -9999 -9999 -9999 -9999 -9999 -9999 -9999 -9999 -9999 -9999 -9999 -9999 -9999 -9999 -9999 -9999 -9999 -9999 -9999 -9999 -9999 -9999 -9999 -9999 -9999 -9999 -9999 -9999 -9999 -9999 -9999 -9999 -9999 -9999 -9999 -9999 -9999 -9999 -9999 -9999 -9999 -9999 -9999 -9999 -9999 -9999 -9999 -9999 -9999 -9999 -9999 -9999 -9999 -9999 -9999 -9999 -9999 -9999 -9999 -9999 -9999 -9999 -9999 -9999 -9999 -9999 -9999 -9999 -9999 -9999 -9999 -9999 -9999 -9999 -9999 -9999 -9999
-9999 -9999 -9999 -9999 -9999 -9999 -9999 -9999 -9999 -9999 -9999 -9999 -9999 -9999 -9999 -9999 -9999 -9999 -9999 -9999 -9999 -9999 -9999 -9999 -9999 -9999 -9999 -9999 0.000 0.452 0.000 0.000 0.000 0.000 0.493 0.504 0.255 0.192 0.106 0.100 0.113 0.116 0.107 0.112 0.134 0.138 0.159 0.284 0.203 0.218 0.241 0.245 0.311 0.234 0.238 0.240 0.323 0.329 0.322 0.311 0.316 0.331 0.314 0.325 0.295 0.531 0.316 0.237 0.188 0.168 0.172 0.161 0.011 0.016 0.017 0.011 0.011 0.016 0.010 0.010 0.010 0.008 0.008 0.010 0.015 0.015 0.010 0.011 0.010 0.009 0.008 0.008 0.009 0.009 0.008 0.008 0.009 0.009 0.014 0.009 0.009 0.008 0.006 0.006 0.005 0.005 0.006 0.005 0.005 0.006 0.004 0.005 0.000 -9999 -9999 -9999 -9999 -9999 -9999 -9999 -9999 -9999 -9999 -9999 -9999 -9999 -9999 -9999 -9999 -9999 -9999 -9999 -9999 -9999 -9999 -9999 -9999 -9999 -9999 -9999 -9999 -9999 -9999 -9999 -9999 -9999 -9999 -9999 -9999 -9999 -9999 -9999 -9999 -9999 -9999 -9999 -9999 -9999 -9999 -9999 -9999 -9999 -9999 -9999 -9999 -9999 -9999 -9999 -9999 -9999 -9999 -9999 -9999 -9999 -9999 -9999 -9999 -9999 -9999 -9999 -9999 -9999 -9999 -9999 -9999 -9999 -9999 -9999 -9999 -9999 -9999 -9999 -9999 -9999 -9999 -9999 -9999 -9999 -9999 -9999 -9999 -9999 -9999 -9999 -9999 -9999 -9999 -9999 -9999 -9999 -9999 -9999 -9999 -9999 -9999 -9999 -9999 -9999 -9999 -9999 -9999 -9999 -9999 -9999 -9999 -9999 -9999 -9999 -9999 -9999 -9999 -9999 -9999 -9999
-9999 -9999 -9999 -9999 -9999 -9999 -9999 -9999 -9999 -9999 -9999 -9999 -9999 -9999 -9999 -9999 -9999 -9999 -9999 -9999 -9999 -9999 -9999 -9999 -9999 -9999 -9999 -9999 -9999 0.043 0.452 0.000 0.000 0.000 0.000 0.000 0.483 0.257 0.114 0.111 0.103 0.118 0.123 0.120 0.133 0.163 0.279 0.276 0.231 0.186 0.246 0.228 0.226 0.248 0.245 0.258 0.254 0.337 0.329 0.316 0.316 0.325 0.321 0.328 0.320 0.308 0.307 0.230 0.190 0.188 0.168 0.181 0.248 0.016 0.016 0.011 0.011 0.010 0.009 0.009 0.009 0.010 0.009 0.009 0.010 0.010 0.008 0.009 0.009 0.008 0.008 0.007 0.007 0.008 0.008 0.007 0.008 0.007 0.009 0.009 0.009 0.008 0.007 0.005 0.006 0.005 0.006 0.005 0.005 0.005 0.005 0.005 0.005 -9999 -9999 -9999 -9999 -9999 -9999 -9999 -9999 -9999 -9999 -9999 -9999 -9999 -9999 -9999 -9999 -9999 -9999 -9999 -9999 -9999 -9999 -9999 -9999 -9999 -9999 -9999 -9999 -9999 -9999 -9999 -9999 -9999 -9999 -9999 -9999 -9999 -9999 -9999 -9999 -9999 -9999 -9999 -9999 -9999 -9999 -9999 -9999 -9999 -9999 -9999 -9999 -9999 -9999 -9999 -9999 -9999 -9999 -9999 -9999 -9999 -9999 -9999 -9999 -9999 -9999 -9999 -9999 -9999 -9999 -9999 -9999 -9999 -9999 -9999 -9999 -9999 -9999 -9999 -9999 -9999 -9999 -9999 -9999 -9999 -9999 -9999 -9999 -9999 -9999 -9999 -9999 -9999 -9999 -9999 -9999 -9999 -9999 -9999 -9999 -9999 -9999 -9999 -9999 -9999 -9999 -9999 -9999 -9999 -9999 -9999 -9999 -9999 -9999 -9999 -9999 -9999 -9999 -9999 -9999 -9999
-9999 -9999 -9999 -9999 -9999 -9999 -9999 -9999 -9999 -9999 -9999 -9999 -9999 -9999 -9999 -9999 -9999 -9999 -9999 -9999 -9999 -9999 -9999 -9999 -9999 -9999 -9999 -9999 -9999 0.046 0.249 0.453 0.000 0.000 0.000 0.484 0.492 0.259 0.132 0.150 0.164 0.106 0.115 0.115 0.114 0.130 0.149 0.296 0.217 0.173 0.173 0.228 0.232 0.253 0.255 0.240 0.333 0.335 0.634 0.614 0.332 0.327 0.314 0.241 0.234 0.243 0.235 0.234 0.202 0.173 0.152 0.176 0.255 0.241 0.009 0.010 0.011 0.009 0.011 0.010 0.010 0.011 0.011 0.009 0.010 0.006 0.007 0.006 0.006 0.007 0.007 0.007 0.008 0.008 0.008 0.007 0.007 0.007 0.007 0.008 0.009 0.009 0.008 0.006 0.006 0.006 0.006 0.005 0.005 0.005 0.005 0.006 0.005 0.000 -9999 -9999 -9999 -9999 -9999 -9999 -9999 -9999 -9999 -9999 -9999 -9999 -9999 -9999 -9999 -9999 -9999 -9999 -9999 -9999 -9999 -9999 -9999 -9999 -9999 -9999 -9999 -9999 -9999 -9999 -9999 -9999 -9999 -9999 -9999 -9999 -9999 -9999 -9999 -9999 -9999 -9999 -9999 -9999 -9999 -9999 -9999 -9999 -9999 -9999 -9999 -9999 -9999 -9999 -9999 -9999 -9999 -9999 -9999 -9999 -9999 -9999 -9999 -9999 -9999 -9999 -9999 -9999 -9999 -9999 -9999 -9999 -9999 -9999 -9999 -9999 -9999 -9999 -9999 -9999 -9999 -9999 -9999 -9999 -9999 -9999 -9999 -9999 -9999 -9999 -9999 -9999 -9999 -9999 -9999 -9999 -9999 -9999 -9999 -9999 -9999 -9999 -9999 -9999 -9999 -9999 -9999 -9999 -9999 -9999 -9999 -9999 -9999 -9999 -9999 -9999 -9999 -9999 -9999 -9999
-9999 -9999 -9999 -9999 -9999 -9999 -9999 -9999 -9999 -9999 -9999 -9999 -9999 -9999 -9999 -9999 -9999 -9999 -9999 -9999 -9999 -9999 -9999 -9999 -9999 -9999 -9999 -9999 -9999 0.000 0.250 0.510 0.000 0.000 0.469 0.497 0.513 0.268 0.251 0.260 0.163 0.104 0.120 0.124 0.128 0.126 0.137 0.168 0.282 0.224 0.224 0.218 0.301 0.239 0.241 0.240 0.327 0.333 0.628 0.602 0.320 0.315 0.319 0.236 0.239 0.239 0.187 0.243 0.192 0.176 0.141 0.176 0.175 0.201 0.151 0.008 0.009 0.011 0.017 0.016 0.010 0.016 0.011 0.008 0.008 0.007 0.007 0.006 0.006 0.007 0.008 0.007 0.008 0.008 0.008 0.008 0.007 0.007 0.007 0.008 0.009 0.008 0.007 0.006 0.006 0.006 0.005 0.006 0.006 0.006 0.005 0.006 0.004 0.004 0.000 -9999 -9999 -9999 -9999 -9999 -9999 -9999 -9999 -9999 -9999 -9999 -9999 -9999 -9999 -9999 -9999 -9999 -9999 -9999 -9999 -9999 -9999 -9999 -9999 -9999 -9999 -9999 -9999 -9999 -9999 -9999 -9999 -9999 -9999 -9999 -9999 -9999 -9999 -9999 -9999 -9999 -9999 -9999 -9999 -9999 -9999 -9999 -9999 -9999 -9999 -9999 -9999 -9999 -9999 -9999 -9999 -9999 -9999 -9999 -9999 -9999 -9999 -9999 -9999 -9999 -9999 -9999 -9999 -9999 -9999 -9999 -9999 -9999 -9999 -9999 -9999 -9999 -9999 -9999 -9999 -9999 -9999 -9999 -9999 -9999 -9999 -9999 -9999 -9999 -9999 -9999 -9999 -9999 -9999 -9999 -9999 -9999 -9999 -9999 -9999 -9999 -9999 -9999 -9999 -9999 -9999 -9999 -9999 -9999 -9999 -9999 -9999 -9999 -9999 -9999 -9999 -9999 -9999 -9999
-9999 -9999 -9999 -9999 -9999 -9999 -9999 -9999 -9999 -9999 -9999 -9999 -9999 -9999 -9999 -9999 -9999 -9999 -9999 -9999 -9999 -9999 -9999 -9999 -9999 -9999 -9999 -9999 -9999 -9999 0.470 0.502 0.521 0.482 0.501 0.480 0.264 0.512 0.492 0.481 0.266 0.278 0.098 0.107 0.122 0.121 0.147 0.157 0.299 0.306 0.293 0.295 0.563 0.319 0.319 0.612 0.629 0.629 0.650 0.326 0.323 0.228 0.245 0.244 0.238 0.231 0.238 0.245 0.241 0.176 0.147 0.154 0.172 0.194 0.170 0.008 0.008 0.010 0.016 0.016 0.016 0.017 0.010 0.009 0.008 0.008 0.007 0.006 0.005 0.006 0.008 0.007 0.007 0.008 0.007 0.007 0.007 0.007 0.007 0.008 0.008 0.007 0.006 0.006 0.006 0.006 0.005 0.005 0.005 0.006 0.006 0.006 0.006 0.004 0.000 -9999 -9999 -9999 -9999 -9999 -9999 -9999 -9999 -9999 -9999 -9999 -9999 -9999 -9999 -9999 -9999 -9999 -9999 -9999 -9999 -9999 -9999 -9999 -9999 -9999 -9999 -9999 -9999 -9999 -9999 -9999 -9999 -9999 -9999 -9999 -9999 -9999 -9999 -9999 -9999 -9999 -9999 -9999 -9999 -9999 -9999 -9999 -9999 -9999 -9999 -9999 -9999 -9999 -9999 -9999 -9999 -9999 -9999 -9999 -9999 -9999 -9999 -9999 -9999 -9999 -9999 -9999 -9999 -9999 -9999 -9999 -9999 -9999 -9999 -9999 -9999 -9999 -9999 -9999 -9999 -9999 -9999 -9999 -9999 -9999 -9999 -9999 -9999 -9999 -9999 -9999 -9999 -9999 -9999 -9999 -9999 -9999 -9999 -9999 -9999 -9999 -9999 -9999 -9999 -9999 -9999 -9999 -9999 -9999 -9999 -9999 -9999 -9999 -9999 -9999 -9999 -9999 -9999 -9999
-9999 -9999 -9999 -9999 -9999 -9999 -9999 -9999 -9999 -9999 -9999 -9999 -9999 -9999 -9999 -9999 -9999 -9999 -9999 -9999 -9999 -9999 -9999 -9999 -9999 -9999 -9999 -9999 -9999 -9999 0.057 0.483 0.518 0.515 0.279 0.524 0.491 0.000 0.000 0.519 0.499 0.282 0.147 0.101 0.106 0.114 0.121 0.141 0.175 0.212 0.221 0.309 0.572 0.579 0.604 0.638 0.638 0.630 0.635 0.316 0.324 0.234 0.243 0.244 0.249 0.185 0.189 0.232 0.194 0.169 0.142 0.136 0.152 0.168 0.169 0.009 0.009 0.015 0.016 0.016 0.016 0.011 0.009 0.009 0.009 0.008 0.007 0.007 0.005 0.005 0.006 0.007 0.007 0.008 0.008 0.007 0.007 0.007 0.007 0.007 0.007 0.007 0.006 0.005 0.005 0.005 0.005 0.005 0.006 0.005 0.005 0.005 0.005 0.000 -9999 -9999 -9999 -9999 -9999 -9999 -9999 -9999 -9999 -9999 -9999 -9999 -9999 -9999 -9999 -9999 -9999 -9999 -9999 -9999 -9999 -9999 -9999 -9999 -9999 -9999 -9999 -9999 -9999 -9999 -9999 -9999 -9999 -9999 -9999 -9999 -9999 -9999 -9999 -9999 -9999 -9999 -9999 -9999 -9999 -9999 -9999 -9999 -9999 -9999 -9999 -9999 -9999 -9999 -9999 -9999 -9999 -9999 -9999 -9999 -9999 -9999 -9999 -9999 -9999 -9999 -9999 -9999 -9999 -9999 -9999 -9999 -9999 -9999 -9999 -9999 -9999 -9999 -9999 -9999 -9999 -9999 -9999 -9999 -9999 -9999 -9999 -9999 -9999 -9999 -9999 -9999 -9999 -9999 -9999 -9999 -9999 -9999 -9999 -9999 -9999 -9999 -9999 -9999 -9999 -9999 -9999 -9999 -9999 -9999 -9999 -9999 -9999 -9999 -9999 -9999 -9999 -9999 -9999 -9999
-9999 -9999 -9999 -9999 -9999 -9999 -9999 -9999 -9999 -9999 -9999 -9999 -9999 -9999 -9999 -9999 -9999 -9999 -9999 -9999 -9999 -9999 -9999 -9999 -9999 -9999 -9999 -9999 -9999 -9999 0.000 0.246 0.261 0.286 0.512 0.000 0.000 0.000 0.000 0.000 0.529 0.542 0.304 0.304 0.148 0.108 0.125 0.115 0.142 0.146 0.162 0.227 0.304 0.589 0.555 0.561 0.577 0.593 0.594 0.312 0.305 0.305 0.306 0.307 0.304 0.192 0.242 0.186 0.196 0.153 0.139 0.138 0.135 0.170 0.154 0.162 0.009 0.015 0.015 0.011 0.009 0.009 0.009 0.009 0.009 0.008 0.007 0.007 0.005 0.005 0.006 0.007 0.007 0.008 0.006 0.006 0.007 0.006 0.006 0.007 0.006 0.005 0.005 0.004 0.005 0.005 0.005 0.005 0.005 0.005 0.005 0.005 0.000 -9999 -9999 -9999 -9999 -9999 -9999 -9999 -9999 -9999 -9999 -9999 -9999 -9999 -9999 -9999 -9999 -9999 -9999 -9999 -9999 -9999 -9999 -9999 -9999 -9999 -9999 -9999 -9999 -9999 -9999 -9999 -9999 -9999 -9999 -9999 -9999 -9999 -9999 -9999 -9999 -9999 -9999 -9999 -9999 -9999 -9999 -9999 -9999 -9999 -9999 -9999 -9999 -9999 -9999 -9999 -9999 -9999 -9999 -9999 -9999 -9999 -9999 -9999 -9999 -9999 -9999 -9999 -9999 -9999 -9999 -9999 -9999 -9999 -9999 -9999 -9999 -9999 -9999 -9999 -9999 -9999 -9999 -9999 -9999 -9999 -9999 -9999 -9999 -9999 -9999 -9999 -9999 -9999 -9999 -9999 -9999 -9999 -9999 -9999 -9999 -9999 -9999 -9999 -9999 -9999 -9999 -9999 -9999 -9999 -9999 -9999 -9999 -9999 -9999 -9999 -9999 -9999 -9999 -9999 -9999 -9999
-9999 -9999 -9999 -9999 -9999 -9999 -9999 -9999 -9999 -9999 -9999 -9999 -9999 -9999 -9999 -9999 -9999 -9999 -9999 -9999 -9999 -9999 -9999 -9999 -9999 -9999 -9999 -9999 -9999 -9999 -9999 0.181 0.193 0.520 0.000 0.000 0.000 0.000 0.000 0.000 0.000 0.000 0.558 0.559 0.290 0.137 0.135 0.135 0.112 0.117 0.140 0.169 0.179 0.234 0.332 0.617 0.575 0.586 0.608 0.601 0.306 0.303 0.304 0.302 0.306 0.217 0.221 0.175 0.170 0.159 0.140 0.135 0.154 0.168 0.185 0.160 0.166 0.008 0.008 0.009 0.009 0.009 0.009 0.009 0.009 0.008 0.008 0.007 0.005 0.005 0.006 0.007 0.006 0.007 0.006 0.007 0.007 0.007 0.006 0.007 0.005 0.005 0.005 0.004 0.005 0.005 0.005 0.005 0.005 0.005 0.005 0.005 -9999 -9999 -9999 -9999 -9999 -9999 -9999 -9999 -9999 -9999 -9999 -9999 -9999 -9999 -9999 -9999 -9999 -9999 -9999 -9999 -9999 -9999 -9999 -9999 -9999 -9999 -9999 -9999 -9999 -9999 -9999 -9999 -9999 -9999 -9999 -9999 -9999 -9999 -9999 -9999 -9999 -9999 -9999 -9999 -9999 -9999 -9999 -9999 -9999 -9999 -9999 -9999 -9999 -9999 -9999 -9999 -9999 -9999 -9999 -9999 -9999 -9999 -9999 -9999 -9999 -9999 -9999 -9999 -9999 -9999 -9999 -9999 -9999 -9999 -9999 -9999 -9999 -9999 -9999 -9999 -9999 -9999 -9999 -9999 -9999 -9999 -9999 -9999 -9999 -9999 -9999 -9999 -9999 -9999 -9999 -9999 -9999 -9999 -9999 -9999 -9999 -9999 -9999 -9999 -9999 -9999 -9999 -9999 -9999 -9999 -9999 -9999 -9999 -9999 -9999 -9999 -9999 -9999 -9999 -9999 -9999 -9999
-9999 -9999 -9999 -9999 -9999 -9999 -9999 -9999 -9999 -9999 -9999 -9999 -9999 -9999 -9999 -9999 -9999 -9999 -9999 -9999 -9999 -9999 -9999 -9999 -9999 -9999 -9999 -9999 -9999 -9999 -9999 0.250 0.160 0.252 0.515 0.000 0.000 0.000 0.000 0.000 0.000 0.000 0.000 0.572 0.294 0.105 0.123 0.150 0.136 0.119 0.110 0.133 0.150 0.203 0.322 0.613 0.616 0.619 0.612 0.585 0.315 0.306 0.315 0.297 0.553 0.220 0.184 0.167 0.171 0.160 0.162 0.144 0.183 0.189 0.181 0.173 0.176 0.145 0.008 0.009 0.009 0.008 0.009 0.009 0.008 0.009 0.008 0.007 0.007 0.006 0.007 0.007 0.007 0.007 0.007 0.008 0.007 0.006 0.006 0.006 0.005 0.005 0.005 0.005 0.004 0.005 0.005 0.005 0.006 0.005 0.005 0.004 -9999 -9999 -9999 -9999 -9999 -9999 -9999 -9999 -9999 -9999 -9999 -9999 -9999 -9999 -9999 -9999 -9999 -9999 -9999 -9999 -9999 -9999 -9999 -9999 -9999 -9999 -9999 -9999 -9999 -9999 -9999 -9999 -9999 -9999 -9999 -9999 -9999 -9999 -9999 -9999 -9999 -9999 -9999 -9999 -9999 -9999 -9999 -9999 -9999 -9999 -9999 -9999 -9999 -9999 -9999 -9999 -9999 -9999 -9999 -9999 -9999 -9999 -9999 -9999 -9999 -9999 -9999 -9999 -9999 -9999 -9999 -9999 -9999 -9999 -9999 -9999 -9999 -9999 -9999 -9999 -9999 -9999 -9999 -9999 -9999 -9999 -9999 -9999 -9999 -9999 -9999 -9999 -9999 -9999 -9999 -9999 -9999 -9999 -9999 -9999 -9999 -9999 -9999 -9999 -9999 -9999 -9999 -9999 -9999 -9999 -9999 -9999 -9999 -9999 -9999 -9999 -9999 -9999 -9999 -9999 -9999 -9999
-9999 -9999 -9999 -9999 -9999 -9999 -9999 -9999 -9999 -9999 -9999 -9999 -9999 -9999 -9999 -9999 -9999 -9999 -9999 -9999 -9999 -9999 -9999 -9999 -9999 -9999 -9999 -9999 -9999 -9999 -9999 0.107 0.117 0.255 0.507 0.000 0.000 0.000 0.000 0.000 0.000 0.000 0.000 0.560 0.563 0.122 0.137 0.128 0.115 0.124 0.128 0.110 0.152 0.161 0.239 0.312 0.607 0.623 0.580 0.575 0.316 0.296 0.296 0.310 0.309 0.218 0.157 0.162 0.147 0.140 0.156 0.142 0.184 0.173 0.169 0.174 0.145 0.142 0.008 0.009 0.009 0.009 0.009 0.008 0.008 0.008 0.009 0.007 0.007 0.007 0.007 0.007 0.006 0.007 0.008 0.008 0.008 0.007 0.008 0.006 0.005 0.006 0.005 0.005 0.005 0.005 0.005 0.005 0.005 0.005 0.005 0.004 -9999 -9999 -9999 -9999 -9999 -9999 -9999 -9999 -9999 -9999 -9999 -9999 -9999 -9999 -9999 -9999 -9999 -9999 -9999 -9999 -9999 -9999 -9999 -9999 -9999 -9999 -9999 -9999 -9999 -9999 -9999 -9999 -9999 -9999 -9999 -9999 -9999 -9999 -9999 -9999 -9999 -9999 -9999 -9999 -9999 -9999 -9999 -9999 -9999 -9999 -9999 -9999 -9999 -9999 -9999 -9999 -9999 -9999 -9999 -9999 -9999 -9999 -9999 -9999 -9999 -9999 -9999 -9999 -9999 -9999 -9999 -9999 -9999 -9999 -9999 -9999 -9999 -9999 -9999 -9999 -9999 -9999 -9999 -9999 -9999 -9999 -9999 -9999 -9999 -9999 -9999 -9999 -9999 -9999 -9999 -9999 -9999 -9999 -9999 -9999 -9999 -9999 -9999 -9999 -9999 -9999 -9999 -9999 -9999 -9999 -9999 -9999 -9999 -9999 -9999 -9999 -9999 -9999 -9999 -9999 -9999 -9999
-9999 -9999 -9999 -9999 -9999 -9999 -9999 -9999 -9999 -9999 -9999 -9999 -9999 -9999 -9999 -9999 -9999 -9999 -9999 -9999 -9999 -9999 -9999 -9999 -9999 -9999 -9999 -9999 -9999 -9999 -9999 0.148 0.118 0.198 0.505 0.000 0.000 0.000 0.000 0.000 0.000 0.000 0.000 0.000 0.570 0.167 0.109 0.141 0.124 0.129 0.135 0.130 0.143 0.168 0.198 0.238 0.329 0.584 0.580 0.302 0.306 0.322 0.324 0.304 0.220 0.225 0.192 0.193 0.180 0.161 0.160 0.128 0.162 0.177 0.185 0.167 0.136 0.133 0.152 0.008 0.009 0.009 0.008 0.009 0.009 0.009 0.009 0.008 0.007 0.007 0.007 0.007 0.007 0.008 0.008 0.008 0.008 0.007 0.008 0.006 0.005 0.006 0.005 0.005 0.005 0.005 0.005 0.005 0.005 0.005 0.005 0.004 -9999 -9999 -9999 -9999 -9999 -9999 -9999 -9999 -9999 -9999 -9999 -9999 -9999 -9999 -9999 -9999 -9999 -9999 -9999 -9999 -9999 -9999 -9999 -9999 -9999 -9999 -9999 -9999 -9999 -9999 -9999 -9999 -9999 -9999 -9999 -9999 -9999 -9999 -9999 -9999 -9999 -9999 -9999 -9999 -9999 -9999 -9999 -9999 -9999 -9999 -9999 -9999 -9999 -9999 -9999 -9999 -9999 -9999 -9999 -9999 -9999 -9999 -9999 -9999 -9999 -9999 -9999 -9999 -9999 -9999 -9999 -9999 -9999 -9999 -9999 -9999 -9999 -9999 -9999 -9999 -9999 -9999 -9999 -9999 -9999 -9999 -9999 -9999 -9999 -9999 -9999 -9999 -9999 -9999 -9999 -9999 -9999 -9999 -9999 -9999 -9999 -9999 -9999 -9999 -9999 -9999 -9999 -9999 -9999 -9999 -9999 -9999 -9999 -9999 -9999 -9999 -9999 -9999 -9999 -9999 -9999 -9999
-9999 -9999 -9999 -9999 -9999 -9999 -9999 -9999 -9999 -9999 -9999 -9999 -9999 -9999 -9999 -9999 -9999 -9999 -9999 -9999 -9999 -9999 -9999 -9999 -9999 -9999 -9999 -9999 -9999 -9999 -9999 0.150 0.114 0.159 0.522 0.000 0.000 0.000 0.000 0.000 0.000 0.000 0.000 0.000 0.569 0.297 0.110 0.112 0.137 0.142 0.140 0.140 0.138 0.166 0.168 0.195 0.256 0.313 0.313 0.317 0.253 0.243 0.250 0.225 0.153 0.177 0.230 0.185 0.166 0.180 0.152 0.138 0.154 0.168 0.168 0.155 0.122 0.130 0.157 0.009 0.009 0.009 0.009 0.009 0.009 0.009 0.008 0.008 0.008 0.008 0.007 0.007 0.008 0.008 0.007 0.007 0.007 0.007 0.008 0.006 0.006 0.006 0.005 0.005 0.005 0.005 0.005 0.004 0.005 0.005 0.005 0.004 -9999 -9999 -9999 -9999 -9999 -9999 -9999 -9999 -9999 -9999 -9999 -9999 -9999 -9999 -9999 -9999 -9999 -9999 -9999 -9999 -9999 -9999 -9999 -9999 -9999 -9999 -9999 -9999 -9999 -9999 -9999 -9999 -9999 -9999 -9999 -9999 -9999 -9999 -9999 -9999 -9999 -9999 -9999 -9999 -9999 -9999 -9999 -9999 -9999 -9999 -9999 -9999 -9999 -9999 -9999 -9999 -9999 -9999 -9999 -9999 -9999 -9999 -9999 -9999 -9999 -9999 -9999 -9999 -9999 -9999 -9999 -9999 -9999 -9999 -9999 -9999 -9999 -9999 -9999 -9999 -9999 -9999 -9999 -9999 -9999 -9999 -9999 -9999 -9999 -9999 -9999 -9999 -9999 -9999 -9999 -9999 -9999 -9999 -9999 -9999 -9999 -9999 -9999 -9999 -9999 -9999 -9999 -9999 -9999 -9999 -9999 -9999 -9999 -9999 -9999 -9999 -9999 -9999 -9999 -9999 -9999 -9999
-9999 -9999 -9999 -9999 -9999 -9999 -9999 -9999 -9999 -9999 -9999 -9999 -9999 -9999 -9999 -9999 -9999 -9999 -9999 -9999 -9999 -9999 -9999 -9999 -9999 -9999 -9999 -9999 -9999 -9999 -9999 0.194 0.141 0.161 0.523 0.522 0.000 0.000 0.000 0.000 0.000 0.000 0.000 0.000 0.565 0.302 0.225 0.120 0.112 0.159 0.138 0.124 0.124 0.152 0.167 0.166 0.184 0.229 0.241 0.223 0.217 0.311 0.234 0.189 0.159 0.174 0.247 0.172 0.150 0.147 0.145 0.129 0.148 0.160 0.156 0.146 0.142 0.129 0.146 0.166 0.009 0.010 0.009 0.009 0.009 0.009 0.009 0.008 0.009 0.009 0.008 0.007 0.008 0.008 0.008 0.007 0.008 0.007 0.007 0.006 0.006 0.006 0.005 0.006 0.005 0.005 0.005 0.005 0.005 0.005 0.005 0.000 -9999 -9999 -9999 -9999 -9999 -9999 -9999 -9999 -9999 -9999 -9999 -9999 -9999 -9999 -9999 -9999 -9999 -9999 -9999 -9999 -9999 -9999 -9999 -9999 -9999 -9999 -9999 -9999 -9999 -9999 -9999 -9999 -9999 -9999 -9999 -9999 -9999 -9999 -9999 -9999 -9999 -9999 -9999 -9999 -9999 -9999 -9999 -9999 -9999 -9999 -9999 -9999 -9999 -9999 -9999 -9999 -9999 -9999 -9999 -9999 -9999 -9999 -9999 -9999 -9999 -9999 -9999 -9999 -9999 -9999 -9999 -9999 -9999 -9999 -9999 -9999 -9999 -9999 -9999 -9999 -9999 -9999 -9999 -9999 -9999 -9999 -9999 -9999 -9999 -9999 -9999 -9999 -9999 -9999 -9999 -9999 -9999 -9999 -9999 -9999 -9999 -9999 -9999 -9999 -9999 -9999 -9999 -9999 -9999 -9999 -9999 -9999 -9999 -9999 -9999 -9999 -9999 -9999 -9999 -9999 -9999 -9999
-9999 -9999 -9999 -9999 -9999 -9999 -9999 -9999 -9999 -9999 -9999 -9999 -9999 -9999 -9999 -9999 -9999 -9999 -9999 -9999 -9999 -9999 -9999 -9999 -9999 -9999 -9999 -9999 -9999 -9999 -9999 0.197 0.139 0.135 0.206 0.274 0.495 0.534 0.000 0.000 0.000 0.000 0.000 0.000 0.578 0.583 0.301 0.164 0.115 0.125 0.151 0.119 0.106 0.131 0.144 0.158 0.175 0.236 0.224 0.311 0.224 0.228 0.219 0.152 0.157 0.183 0.181 0.151 0.149 0.130 0.129 0.150 0.151 0.146 0.156 0.145 0.148 0.151 0.131 0.008 0.009 0.010 0.009 0.010 0.009 0.009 0.009 0.009 0.009 0.009 0.009 0.007 0.008 0.008 0.007 0.008 0.007 0.008 0.007 0.006 0.006 0.006 0.005 0.005 0.005 0.005 0.006 0.006 0.005 0.005 0.006 0.000 -9999 -9999 -9999 -9999 -9999 -9999 -9999 -9999 -9999 -9999 -9999 -9999 -9999 -9999 -9999 -9999 -9999 -9999 -9999 -9999 -9999 -9999 -9999 -9999 -9999 -9999 -9999 -9999 -9999 -9999 -9999 -9999 -9999 -9999 -9999 -9999 -9999 -9999 -9999 -9999 -9999 -9999 -9999 -9999 -9999 -9999 -9999 -9999 -9999 -9999 -9999 -9999 -9999 -9999 -9999 -9999 -9999 -9999 -9999 -9999 -9999 -9999 -9999 -9999 -9999 -9999 -9999 -9999 -9999 -9999 -9999 -9999 -9999 -9999 -9999 -9999 -9999 -9999 -9999 -9999 -9999 -9999 -9999 -9999 -9999 -9999 -9999 -9999 -9999 -9999 -9999 -9999 -9999 -9999 -9999 -9999 -9999 -9999 -9999 -9999 -9999 -9999 -9999 -9999 -9999 -9999 -9999 -9999 -9999 -9999 -9999 -9999 -9999 -9999 -9999 -9999 -9999 -9999 -9999 -9999 -9999 -9999
-9999 -9999 -9999 -9999 -9999 -9999 -9999 -9999 -9999 -9999 -9999 -9999 -9999 -9999 -9999 -9999 -9999 -9999 -9999 -9999 -9999 -9999 -9999 -9999 -9999 -9999 -9999 -9999 -9999 -9999 -9999 0.026 0.160 0.203 0.151 0.141 0.136 0.267 0.513 0.528 0.000 0.000 0.000 0.000 0.000 0.605 0.569 0.291 0.148 0.116 0.127 0.128 0.126 0.137 0.143 0.157 0.157 0.171 0.228 0.224 0.320 0.290 0.218 0.180 0.224 0.239 0.205 0.176 0.145 0.122 0.119 0.138 0.132 0.136 0.133 0.179 0.141 0.147 0.148 0.009 0.009 0.010 0.009 0.009 0.009 0.009 0.009 0.009 0.009 0.008 0.009 0.007 0.007 0.007 0.007 0.007 0.008 0.007 0.007 0.005 0.005 0.006 0.006 0.006 0.006 0.006 0.006 0.006 0.005 0.005 0.005 -9999 -9999 -9999 -9999 -9999 -9999 -9999 -9999 -9999 -9999 -9999 -9999 -9999 -9999 -9999 -9999 -9999 -9999 -9999 -9999 -9999 -9999 -9999 -9999 -9999 -9999 -9999 -9999 -9999 -9999 -9999 -9999 -9999 -9999 -9999 -9999 -9999 -9999 -9999 -9999 -9999 -9999 -9999 -9999 -9999 -9999 -9999 -9999 -9999 -9999 -9999 -9999 -9999 -9999 -9999 -9999 -9999 -9999 -9999 -9999 -9999 -9999 -9999 -9999 -9999 -9999 -9999 -9999 -9999 -9999 -9999 -9999 -9999 -9999 -9999 -9999 -9999 -9999 -9999 -9999 -9999 -9999 -9999 -9999 -9999 -9999 -9999 -9999 -9999 -9999 -9999 -9999 -9999 -9999 -9999 -9999 -9999 -9999 -9999 -9999 -9999 -9999 -9999 -9999 -9999 -9999 -9999 -9999 -9999 -9999 -9999 -9999 -9999 -9999 -9999 -9999 -9999 -9999 -9999 -9999 -9999 -9999 -9999
-9999 -9999 -9999 -9999 -9999 -9999 -9999 -9999 -9999 -9999 -9999 -9999 -9999 -9999 -9999 -9999 -9999 -9999 -9999 -9999 -9999 -9999 -9999 -9999 -9999 -9999 -9999 -9999 -9999 -9999 -9999 0.048 0.157 0.201 0.195 0.157 0.147 0.139 0.131 0.519 0.561 0.593 0.000 0.000 0.000 0.000 0.591 0.312 0.182 0.128 0.118 0.136 0.142 0.144 0.157 0.167 0.154 0.179 0.235 0.219 0.216 0.295 0.217 0.225 0.227 0.252 0.217 0.178 0.153 0.135 0.141 0.146 0.164 0.133 0.145 0.159 0.155 0.157 0.144 0.008 0.009 0.010 0.010 0.009 0.009 0.008 0.009 0.009 0.009 0.009 0.008 0.009 0.008 0.007 0.007 0.007 0.007 0.007 0.005 0.006 0.006 0.006 0.006 0.006 0.006 0.005 0.005 0.005 0.006 0.005 0.005 -9999 -9999 -9999 -9999 -9999 -9999 -9999 -9999 -9999 -9999 -9999 -9999 -9999 -9999 -9999 -9999 -9999 -9999 -9999 -9999 -9999 -9999 -9999 -9999 -9999 -9999 -9999 -9999 -9999 -9999 -9999 -9999 -9999 -9999 -9999 -9999 -9999 -9999 -9999 -9999 -9999 -9999 -9999 -9999 -9999 -9999 -9999 -9999 -9999 -9999 -9999 -9999 -9999 -9999 -9999 -9999 -9999 -9999 -9999 -9999 -9999 -9999 -9999 -9999 -9999 -9999 -9999 -9999 -9999 -9999 -9999 -9999 -9999 -9999 -9999 -9999 -9999 -9999 -9999 -9999 -9999 -9999 -9999 -9999 -9999 -9999 -9999 -9999 -9999 -9999 -9999 -9999 -9999 -9999 -9999 -9999 -9999 -9999 -9999 -9999 -9999 -9999 -9999 -9999 -9999 -9999 -9999 -9999 -9999 -9999 -9999 -9999 -9999 -9999 -9999 -9999 -9999 -9999 -9999 -9999 -9999 -9999 -9999
-9999 -9999 -9999 -9999 -9999 -9999 -9999 -9999 -9999 -9999 -9999 -9999 -9999 -9999 -9999 -9999 -9999 -9999 -9999 -9999 -9999 -9999 -9999 -9999 -9999 -9999 -9999 -9999 -9999 -9999 -9999 -9999 0.049 0.199 0.275 0.202 0.197 0.135 0.103 0.148 0.300 0.587 0.605 0.000 0.000 0.578 0.587 0.594 0.316 0.156 0.133 0.139 0.140 0.126 0.163 0.169 0.173 0.196 0.235 0.240 0.235 0.184 0.173 0.239 0.232 0.235 0.224 0.189 0.163 0.160 0.149 0.169 0.154 0.146 0.151 0.160 0.165 0.165 0.157 0.184 0.009 0.010 0.009 0.009 0.009 0.009 0.009 0.009 0.009 0.009 0.008 0.008 0.008 0.007 0.007 0.007 0.007 0.007 0.005 0.005 0.006 0.006 0.005 0.005 0.005 0.004 0.005 0.005 0.006 0.005 0.000 -9999 -9999 -9999 -9999 -9999 -9999 -9999 -9999 -9999 -9999 -9999 -9999 -9999 -9999 -9999 -9999 -9999 -9999 -9999 -9999 -9999 -9999 -9999 -9999 -9999 -9999 -9999 -9999 -9999 -9999 -9999 -9999 -9999 -9999 -9999 -9999 -9999 -9999 -9999 -9999 -9999 -9999 -9999 -9999 -9999 -9999 -9999 -9999 -9999 -9999 -9999 -9999 -9999 -9999 -9999 -9999 -9999 -9999 -9999 -9999 -9999 -9999 -9999 -9999 -9999 -9999 -9999 -9999 -9999 -9999 -9999 -9999 -9999 -9999 -9999 -9999 -9999 -9999 -9999 -9999 -9999 -9999 -9999 -9999 -9999 -9999 -9999 -9999 -9999 -9999 -9999 -9999 -9999 -9999 -9999 -9999 -9999 -9999 -9999 -9999 -9999 -9999 -9999 -9999 -9999 -9999 -9999 -9999 -9999 -9999 -9999 -9999 -9999 -9999 -9999 -9999 -9999 -9999 -9999 -9999 -9999 -9999 -9999
-9999 -9999 -9999 -9999 -9999 -9999 -9999 -9999 -9999 -9999 -9999 -9999 -9999 -9999 -9999 -9999 -9999 -9999 -9999 -9999 -9999 -9999 -9999 -9999 -9999 -9999 -9999 -9999 -9999 -9999 -9999 -9999 -9999 0.049 0.201 0.268 0.203 0.157 0.113 0.111 0.144 0.224 0.316 0.303 0.224 0.190 0.162 0.163 0.166 0.138 0.115 0.120 0.130 0.138 0.160 0.173 0.171 0.194 0.188 0.192 0.243 0.157 0.167 0.170 0.171 0.233 0.204 0.183 0.173 0.173 0.162 0.172 0.164 0.167 0.163 0.147 0.164 0.167 0.164 0.161 0.010 0.010 0.009 0.010 0.009 0.009 0.009 0.009 0.009 0.009 0.009 0.008 0.009 0.007 0.007 0.007 0.007 0.008 0.005 0.005 0.005 0.005 0.004 0.004 0.004 0.005 0.005 0.005 0.005 0.005 0.000 -9999 -9999 -9999 -9999 -9999 -9999 -9999 -9999 -9999 -9999 -9999 -9999 -9999 -9999 -9999 -9999 -9999 -9999 -9999 -9999 -9999 -9999 -9999 -9999 -9999 -9999 -9999 -9999 -9999 -9999 -9999 -9999 -9999 -9999 -9999 -9999 -9999 -9999 -9999 -9999 -9999 -9999 -9999 -9999 -9999 -9999 -9999 -9999 -9999 -9999 -9999 -9999 -9999 -9999 -9999 -9999 -9999 -9999 -9999 -9999 -9999 -9999 -9999 -9999 -9999 -9999 -9999 -9999 -9999 -9999 -9999 -9999 -9999 -9999 -9999 -9999 -9999 -9999 -9999 -9999 -9999 -9999 -9999 -9999 -9999 -9999 -9999 -9999 -9999 -9999 -9999 -9999 -9999 -9999 -9999 -9999 -9999 -9999 -9999 -9999 -9999 -9999 -9999 -9999 -9999 -9999 -9999 -9999 -9999 -9999 -9999 -9999 -9999 -9999 -9999 -9999 -9999 -9999 -9999 -9999 -9999 -9999 -9999
-9999 -9999 -9999 -9999 -9999 -9999 -9999 -9999 -9999 -9999 -9999 -9999 -9999 -9999 -9999 -9999 -9999 -9999 -9999 -9999 -9999 -9999 -9999 -9999 -9999 -9999 -9999 -9999 -9999 -9999 -9999 -9999 -9999 -9999 0.026 0.276 0.297 0.179 0.136 0.122 0.135 0.159 0.173 0.241 0.233 0.190 0.150 0.159 0.148 0.136 0.113 0.121 0.138 0.126 0.141 0.157 0.162 0.163 0.161 0.175 0.170 0.171 0.170 0.151 0.156 0.193 0.203 0.172 0.165 0.160 0.159 0.162 0.167 0.154 0.151 0.146 0.158 0.171 0.171 0.151 0.017 0.010 0.009 0.009 0.009 0.010 0.009 0.009 0.009 0.009 0.009 0.009 0.010 0.009 0.007 0.008 0.007 0.007 0.006 0.006 0.005 0.005 0.005 0.004 0.004 0.005 0.005 0.005 0.005 0.004 0.000 -9999 -9999 -9999 -9999 -9999 -9999 -9999 -9999 -9999 -9999 -9999 -9999 -9999 -9999 -9999 -9999 -9999 -9999 -9999 -9999 -9999 -9999 -9999 -9999 -9999 -9999 -9999 -9999 -9999 -9999 -9999 -9999 -9999 -9999 -9999 -9999 -9999 -9999 -9999 -9999 -9999 -9999 -9999 -9999 -9999 -9999 -9999 -9999 -9999 -9999 -9999 -9999 -9999 -9999 -9999 -9999 -9999 -9999 -9999 -9999 -9999 -9999 -9999 -9999 -9999 -9999 -9999 -9999 -9999 -9999 -9999 -9999 -9999 -9999 -9999 -9999 -9999 -9999 -9999 -9999 -9999 -9999 -9999 -9999 -9999 -9999 -9999 -9999 -9999 -9999 -9999 -9999 -9999 -9999 -9999 -9999 -9999 -9999 -9999 -9999 -9999 -9999 -9999 -9999 -9999 -9999 -9999 -9999 -9999 -9999 -9999 -9999 -9999 -9999 -9999 -9999 -9999 -9999 -9999 -9999 -9999 -9999 -9999
-9999 -9999 -9999 -9999 -9999 -9999 -9999 -9999 -9999 -9999 -9999 -9999 -9999 -9999 -9999 -9999 -9999 -9999 -9999 -9999 -9999 -9999 -9999 -9999 -9999 -9999 -9999 -9999 -9999 -9999 -9999 -9999 -9999 -9999 0.065 0.531 0.549 0.227 0.158 0.127 0.124 0.122 0.157 0.178 0.178 0.190 0.190 0.167 0.149 0.132 0.099 0.103 0.135 0.130 0.138 0.152 0.160 0.148 0.171 0.166 0.168 0.168 0.177 0.177 0.147 0.175 0.205 0.140 0.163 0.148 0.137 0.164 0.164 0.150 0.160 0.165 0.185 0.168 0.169 0.168 0.011 0.012 0.010 0.010 0.009 0.010 0.010 0.009 0.009 0.009 0.009 0.008 0.009 0.008 0.007 0.008 0.009 0.006 0.007 0.005 0.005 0.005 0.005 0.004 0.005 0.005 0.005 0.005 0.004 0.000 0.000 -9999 -9999 -9999 -9999 -9999 -9999 -9999 -9999 -9999 -9999 -9999 -9999 -9999 -9999 -9999 -9999 -9999 -9999 -9999 -9999 -9999 -9999 -9999 -9999 -9999 -9999 -9999 -9999 -9999 -9999 -9999 -9999 -9999 -9999 -9999 -9999 -9999 -9999 -9999 -9999 -9999 -9999 -9999 -9999 -9999 -9999 -9999 -9999 -9999 -9999 -9999 -9999 -9999 -9999 -9999 -9999 -9999 -9999 -9999 -9999 -9999 -9999 -9999 -9999 -9999 -9999 -9999 -9999 -9999 -9999 -9999 -9999 -9999 -9999 -9999 -9999 -9999 -9999 -9999 -9999 -9999 -9999 -9999 -9999 -9999 -9999 -9999 -9999 -9999 -9999 -9999 -9999 -9999 -9999 -9999 -9999 -9999 -9999 -9999 -9999 -9999 -9999 -9999 -9999 -9999 -9999 -9999 -9999 -9999 -9999 -9999 -9999 -9999 -9999 -9999 -9999 -9999 -9999 -9999 -9999 -9999 -9999 -9999
-9999 -9999 -9999 -9999 -9999 -9999 -9999 -9999 -9999 -9999 -9999 -9999 -9999 -9999 -9999 -9999 -9999 -9999 -9999 -9999 -9999 -9999 -9999 -9999 -9999 -9999 -9999 -9999 -9999 -9999 -9999 -9999 -9999 -9999 0.000 0.554 0.551 0.230 0.142 0.141 0.143 0.119 0.141 0.165 0.163 0.172 0.190 0.169 0.143 0.135 0.101 0.106 0.127 0.131 0.131 0.141 0.141 0.141 0.168 0.164 0.165 0.167 0.171 0.165 0.157 0.181 0.157 0.159 0.169 0.143 0.131 0.168 0.150 0.160 0.158 0.187 0.183 0.177 0.205 0.326 0.013 0.012 0.011 0.017 0.033 0.016 0.017 0.016 0.016 0.009 0.008 0.008 0.009 0.009 0.008 0.008 0.007 0.007 0.006 0.006 0.005 0.004 0.005 0.005 0.005 0.005 0.005 0.005 0.004 0.005 -9999 -9999 -9999 -9999 -9999 -9999 -9999 -9999 -9999 -9999 -9999 -9999 -9999 -9999 -9999 -9999 -9999 -9999 -9999 -9999 -9999 -9999 -9999 -9999 -9999 -9999 -9999 -9999 -9999 -9999 -9999 -9999 -9999 -9999 -9999 -9999 -9999 -9999 -9999 -9999 -9999 -9999 -9999 -9999 -9999 -9999 -9999 -9999 -9999 -9999 -9999 -9999 -9999 -9999 -9999 -9999 -9999 -9999 -9999 -9999 -9999 -9999 -9999 -9999 -9999 -9999 -9999 -9999 -9999 -9999 -9999 -9999 -9999 -9999 -9999 -9999 -9999 -9999 -9999 -9999 -9999 -9999 -9999 -9999 -9999 -9999 -9999 -9999 -9999 -9999 -9999 -9999 -9999 -9999 -9999 -9999 -9999 -9999 -9999 -9999 -9999 -9999 -9999 -9999 -9999 -9999 -9999 -9999 -9999 -9999 -9999 -9999 -9999 -9999 -9999 -9999 -9999 -9999 -9999 -9999 -9999 -9999 -9999 -9999
-9999 -9999 -9999 -9999 -9999 -9999 -9999 -9999 -9999 -9999 -9999 -9999 -9999 -9999 -9999 -9999 -9999 -9999 -9999 -9999 -9999 -9999 -9999 -9999 -9999 -9999 -9999 -9999 -9999 -9999 -9999 -9999 -9999 -9999 0.000 0.289 0.208 0.178 0.152 0.135 0.133 0.132 0.117 0.124 0.154 0.154 0.162 0.185 0.165 0.124 0.106 0.099 0.118 0.124 0.133 0.133 0.136 0.130 0.161 0.168 0.162 0.168 0.161 0.157 0.148 0.139 0.155 0.155 0.153 0.157 0.155 0.157 0.160 0.159 0.183 0.175 0.167 0.192 0.648 0.192 0.010 0.011 0.012 0.017 0.017 0.033 0.031 0.033 0.016 0.010 0.009 0.009 0.009 0.008 0.009 0.009 0.007 0.008 0.007 0.006 0.005 0.005 0.005 0.005 0.005 0.005 0.005 0.005 0.005 0.005 -9999 -9999 -9999 -9999 -9999 -9999 -9999 -9999 -9999 -9999 -9999 -9999 -9999 -9999 -9999 -9999 -9999 -9999 -9999 -9999 -9999 -9999 -9999 -9999 -9999 -9999 -9999 -9999 -9999 -9999 -9999 -9999 -9999 -9999 -9999 -9999 -9999 -9999 -9999 -9999 -9999 -9999 -9999 -9999 -9999 -9999 -9999 -9999 -9999 -9999 -9999 -9999 -9999 -9999 -9999 -9999 -9999 -9999 -9999 -9999 -9999 -9999 -9999 -9999 -9999 -9999 -9999 -9999 -9999 -9999 -9999 -9999 -9999 -9999 -9999 -9999 -9999 -9999 -9999 -9999 -9999 -9999 -9999 -9999 -9999 -9999 -9999 -9999 -9999 -9999 -9999 -9999 -9999 -9999 -9999 -9999 -9999 -9999 -9999 -9999 -9999 -9999 -9999 -9999 -9999 -9999 -9999 -9999 -9999 -9999 -9999 -9999 -9999 -9999 -9999 -9999 -9999 -9999 -9999 -9999 -9999 -9999 -9999 -9999
-9999 -9999 -9999 -9999 -9999 -9999 -9999 -9999 -9999 -9999 -9999 -9999 -9999 -9999 -9999 -9999 -9999 -9999 -9999 -9999 -9999 -9999 -9999 -9999 -9999 -9999 -9999 -9999 -9999 -9999 -9999 -9999 -9999 -9999 -9999 0.027 0.167 0.158 0.130 0.148 0.128 0.105 0.114 0.109 0.113 0.107 0.129 0.175 0.158 0.137 0.130 0.106 0.099 0.107 0.135 0.128 0.139 0.133 0.161 0.163 0.167 0.174 0.152 0.148 0.143 0.138 0.145 0.138 0.148 0.133 0.174 0.153 0.161 0.162 0.184 0.160 0.164 0.642 0.351 0.138 0.009 0.010 0.011 0.016 0.016 0.034 0.032 0.035 0.011 0.008 0.008 0.009 0.008 0.008 0.008 0.008 0.007 0.007 0.006 0.006 0.005 0.005 0.005 0.005 0.005 0.006 0.006 0.006 0.006 0.000 -9999 0.000 0.004 -9999 -9999 -9999 -9999 -9999 -9999 -9999 -9999 -9999 -9999 -9999 -9999 -9999 -9999 -9999 -9999 -9999 -9999 -9999 -9999 -9999 -9999 -9999 -9999 -9999 -9999 -9999 -9999 -9999 -9999 -9999 -9999 -9999 -9999 -9999 -9999 -9999 -9999 -9999 -9999 -9999 -9999 -9999 -9999 -9999 -9999 -9999 -9999 -9999 -9999 -9999 -9999 -9999 -9999 -9999 -9999 -9999 -9999 -9999 -9999 -9999 -9999 -9999 -9999 -9999 -9999 -9999 -9999 -9999 -9999 -9999 -9999 -9999 -9999 -9999 -9999 -9999 -9999 -9999 -9999 -9999 -9999 -9999 -9999 -9999 -9999 -9999 -9999 -9999 -9999 -9999 -9999 -9999 -9999 -9999 -9999 -9999 -9999 -9999 -9999 -9999 -9999 -9999 -9999 -9999 -9999 -9999 -9999 -9999 -9999 -9999 -9999 -9999 -9999 -9999 -9999 -9999 -9999 -9999 -9999 -9999
-9999 -9999 -9999 -9999 -9999 -9999 -9999 -9999 -9999 -9999 -9999 -9999 -9999 -9999 -9999 -9999 -9999 -9999 -9999 -9999 -9999 -9999 -9999 -9999 -9999 -9999 -9999 -9999 -9999 -9999 -9999 -9999 -9999 -9999 -9999 0.022 0.166 0.156 0.120 0.123 0.112 0.107 0.143 0.094 0.107 0.094 0.114 0.140 0.164 0.135 0.130 0.111 0.102 0.087 0.132 0.124 0.124 0.142 0.142 0.165 0.161 0.158 0.137 0.142 0.144 0.138 0.149 0.144 0.137 0.129 0.137 0.140 0.157 0.181 0.192 0.186 0.222 0.633 0.341 0.189 0.010 0.009 0.011 0.017 0.017 0.033 0.032 0.017 0.008 0.009 0.007 0.008 0.008 0.008 0.008 0.008 0.008 0.008 0.005 0.005 0.005 0.005 0.005 0.006 0.006 0.006 0.005 0.006 0.006 0.000 0.000 0.005 0.004 -9999 -9999 -9999 -9999 -9999 -9999 -9999 -9999 -9999 -9999 -9999 -9999 -9999 -9999 -9999 -9999 -9999 -9999 -9999 -9999 -9999 -9999 -9999 -9999 -9999 -9999 -9999 -9999 -9999 -9999 -9999 -9999 -9999 -9999 -9999 -9999 -9999 -9999 -9999 -9999 -9999 -9999 -9999 -9999 -9999 -9999 -9999 -9999 -9999 -9999 -9999 -9999 -9999 -9999 -9999 -9999 -9999 -9999 -9999 -9999 -9999 -9999 -9999 -9999 -9999 -9999 -9999 -9999 -9999 -9999 -9999 -9999 -9999 -9999 -9999 -9999 -9999 -9999 -9999 -9999 -9999 -9999 -9999 -9999 -9999 -9999 -9999 -9999 -9999 -9999 -9999 -9999 -9999 -9999 -9999 -9999 -9999 -9999 -9999 -9999 -9999 -9999 -9999 -9999 -9999 -9999 -9999 -9999 -9999 -9999 -9999 -9999 -9999 -9999 -9999 -9999 -9999 -9999 -9999 -9999 -9999
-9999 -9999 -9999 -9999 -9999 -9999 -9999 -9999 -9999 -9999 -9999 -9999 -9999 -9999 -9999 -9999 -9999 -9999 -9999 -9999 -9999 -9999 -9999 -9999 -9999 -9999 -9999 -9999 -9999 -9999 -9999 -9999 -9999 -9999 -9999 -9999 0.015 0.156 0.144 0.109 0.147 0.092 0.092 0.093 0.097 0.103 0.112 0.131 0.141 0.140 0.142 0.138 0.114 0.109 0.110 0.111 0.125 0.127 0.159 0.166 0.175 0.167 0.161 0.158 0.147 0.153 0.143 0.157 0.162 0.139 0.125 0.151 0.163 0.166 0.147 0.196 0.607 0.623 0.335 0.190 0.010 0.009 0.011 0.017 0.017 0.032 0.016 0.010 0.008 0.007 0.007 0.007 0.008 0.007 0.008 0.007 0.009 0.007 0.007 0.005 0.006 0.005 0.005 0.006 0.005 0.005 0.005 0.007 0.006 0.000 0.005 0.005 0.005 -9999 -9999 -9999 -9999 -9999 -9999 -9999 -9999 -9999 -9999 -9999 -9999 -9999 -9999 -9999 -9999 -9999 -9999 -9999 -9999 -9999 -9999 -9999 -9999 -9999 -9999 -9999 -9999 -9999 -9999 -9999 -9999 -9999 -9999 -9999 -9999 -9999 -9999 -9999 -9999 -9999 -9999 -9999 -9999 -9999 -9999 -9999 -9999 -9999 -9999 -9999 -9999 -9999 -9999 -9999 -9999 -9999 -9999 -9999 -9999 -9999 -9999 -9999 -9999 -9999 -9999 -9999 -9999 -9999 -9999 -9999 -9999 -9999 -9999 -9999 -9999 -9999 -9999 -9999 -9999 -9999 -9999 -9999 -9999 -9999 -9999 -9999 -9999 -9999 -9999 -9999 -9999 -9999 -9999 -9999 -9999 -9999 -9999 -9999 -9999 -9999 -9999 -9999 -9999 -9999 -9999 -9999 -9999 -9999 -9999 -9999 -9999 -9999 -9999 -9999 -9999 -9999 -9999 -9999 -9999 -9999
-9999 -9999 -9999 -9999 -9999 -9999 -9999 -9999 -9999 -9999 -9999 -9999 -9999 -9999 -9999 -9999 -9999 -9999 -9999 -9999 -9999 -9999 -9999 -9999 -9999 -9999 -9999 -9999 -9999 -9999 -9999 -9999 -9999 -9999 -9999 -9999 -9999 0.054 0.124 0.119 0.134 0.122 0.142 0.138 0.137 0.119 0.111 0.112 0.109 0.131 0.136 0.140 0.114 0.102 0.126 0.132 0.137 0.146 0.155 0.181 0.166 0.160 0.161 0.155 0.168 0.158 0.141 0.145 0.156 0.135 0.139 0.153 0.169 0.243 0.196 0.634 0.627 0.611 0.311 0.314 0.011 0.009 0.010 0.017 0.018 0.017 0.016 0.012 0.007 0.006 0.006 0.007 0.007 0.008 0.008 0.008 0.007 0.007 0.007 0.007 0.006 0.006 0.006 0.006 0.005 0.005 0.006 0.006 0.005 0.005 0.005 0.005 0.005 -9999 -9999 -9999 -9999 -9999 -9999 -9999 -9999 -9999 -9999 -9999 -9999 -9999 -9999 -9999 -9999 -9999 -9999 -9999 -9999 -9999 -9999 -9999 -9999 -9999 -9999 -9999 -9999 -9999 -9999 -9999 -9999 -9999 -9999 -9999 -9999 -9999 -9999 -9999 -9999 -9999 -9999 -9999 -9999 -9999 -9999 -9999 -9999 -9999 -9999 -9999 -9999 -9999 -9999 -9999 -9999 -9999 -9999 -9999 -9999 -9999 -9999 -9999 -9999 -9999 -9999 -9999 -9999 -9999 -9999 -9999 -9999 -9999 -9999 -9999 -9999 -9999 -9999 -9999 -9999 -9999 -9999 -9999 -9999 -9999 -9999 -9999 -9999 -9999 -9999 -9999 -9999 -9999 -9999 -9999 -9999 -9999 -9999 -9999 -9999 -9999 -9999 -9999 -9999 -9999 -9999 -9999 -9999 -9999 -9999 -9999 -9999 -9999 -9999 -9999 -9999 -9999 -9999 -9999 -9999 -9999
-9999 -9999 -9999 -9999 -9999 -9999 -9999 -9999 -9999 -9999 -9999 -9999 -9999 -9999 -9999 -9999 -9999 -9999 -9999 -9999 -9999 -9999 -9999 -9999 -9999 -9999 -9999 -9999 -9999 -9999 -9999 -9999 -9999 -9999 -9999 -9999 -9999 -9999 0.127 0.135 0.156 0.130 0.151 0.138 0.132 0.126 0.134 0.127 0.121 0.112 0.117 0.138 0.128 0.112 0.127 0.136 0.149 0.154 0.164 0.167 0.161 0.170 0.172 0.151 0.149 0.160 0.144 0.153 0.139 0.143 0.163 0.164 0.160 0.196 0.598 0.620 0.625 0.319 0.318 0.599 0.011 0.010 0.009 0.016 0.017 0.017 0.016 0.009 0.007 0.006 0.007 0.007 0.008 0.007 0.007 0.006 0.006 0.007 0.007 0.006 0.007 0.007 0.005 0.005 0.006 0.005 0.006 0.006 0.005 0.005 0.006 0.005 0.000 -9999 -9999 -9999 -9999 -9999 -9999 -9999 -9999 -9999 -9999 -9999 -9999 -9999 -9999 -9999 -9999 -9999 -9999 -9999 -9999 -9999 -9999 -9999 -9999 -9999 -9999 -9999 -9999 -9999 -9999 -9999 -9999 -9999 -9999 -9999 -9999 -9999 -9999 -9999 -9999 -9999 -9999 -9999 -9999 -9999 -9999 -9999 -9999 -9999 -9999 -9999 -9999 -9999 -9999 -9999 -9999 -9999 -9999 -9999 -9999 -9999 -9999 -9999 -9999 -9999 -9999 -9999 -9999 -9999 -9999 -9999 -9999 -9999 -9999 -9999 -9999 -9999 -9999 -9999 -9999 -9999 -9999 -9999 -9999 -9999 -9999 -9999 -9999 -9999 -9999 -9999 -9999 -9999 -9999 -9999 -9999 -9999 -9999 -9999 -9999 -9999 -9999 -9999 -9999 -9999 -9999 -9999 -9999 -9999 -9999 -9999 -9999 -9999 -9999 -9999 -9999 -9999 -9999 -9999 -9999 -9999
-9999 -9999 -9999 -9999 -9999 -9999 -9999 -9999 -9999 -9999 -9999 -9999 -9999 -9999 -9999 -9999 -9999 -9999 -9999 -9999 -9999 -9999 -9999 -9999 -9999 -9999 -9999 -9999 -9999 -9999 -9999 -9999 -9999 -9999 -9999 -9999 -9999 -9999 0.010 0.143 0.147 0.142 0.154 0.152 0.145 0.147 0.149 0.148 0.144 0.120 0.111 0.126 0.131 0.116 0.127 0.141 0.164 0.147 0.147 0.183 0.159 0.154 0.157 0.168 0.151 0.164 0.155 0.129 0.131 0.133 0.163 0.155 0.150 0.201 0.621 0.643 0.246 0.201 0.339 0.335 0.010 0.011 0.009 0.009 0.011 0.010 0.010 0.008 0.007 0.007 0.007 0.009 0.008 0.007 0.006 0.006 0.007 0.007 0.007 0.007 0.007 0.006 0.005 0.006 0.006 0.005 0.005 0.006 0.005 0.006 0.007 0.005 -9999 -9999 -9999 -9999 -9999 -9999 -9999 -9999 -9999 -9999 -9999 -9999 -9999 -9999 -9999 -9999 -9999 -9999 -9999 -9999 -9999 -9999 -9999 -9999 -9999 -9999 -9999 -9999 -9999 -9999 -9999 -9999 -9999 -9999 -9999 -9999 -9999 -9999 -9999 -9999 -9999 -9999 -9999 -9999 -9999 -9999 -9999 -9999 -9999 -9999 -9999 -9999 -9999 -9999 -9999 -9999 -9999 -9999 -9999 -9999 -9999 -9999 -9999 -9999 -9999 -9999 -9999 -9999 -9999 -9999 -9999 -9999 -9999 -9999 -9999 -9999 -9999 -9999 -9999 -9999 -9999 -9999 -9999 -9999 -9999 -9999 -9999 -9999 -9999 -9999 -9999 -9999 -9999 -9999 -9999 -9999 -9999 -9999 -9999 -9999 -9999 -9999 -9999 -9999 -9999 -9999 -9999 -9999 -9999 -9999 -9999 -9999 -9999 -9999 -9999 -9999 -9999 -9999 -9999 -9999 -9999 -9999
-9999 -9999 -9999 -9999 -9999 -9999 -9999 -9999 -9999 -9999 -9999 -9999 -9999 -9999 -9999 -9999 -9999 -9999 -9999 -9999 -9999 -9999 -9999 -9999 -9999 -9999 -9999 -9999 -9999 -9999 -9999 -9999 -9999 -9999 -9999 -9999 -9999 -9999 0.020 0.153 0.150 0.155 0.152 0.163 0.151 0.163 0.158 0.152 0.154 0.138 0.124 0.119 0.139 0.120 0.110 0.133 0.132 0.144 0.154 0.162 0.163 0.151 0.164 0.177 0.151 0.183 0.174 0.148 0.151 0.149 0.145 0.147 0.138 0.191 0.635 0.326 0.164 0.156 0.179 0.170 0.161 0.010 0.010 0.009 0.009 0.010 0.009 0.007 0.008 0.010 0.008 0.008 0.006 0.007 0.007 0.007 0.007 0.007 0.007 0.007 0.008 0.006 0.006 0.006 0.005 0.005 0.006 0.007 0.006 0.006 0.006 0.005 -9999 -9999 -9999 -9999 -9999 -9999 -9999 -9999 -9999 -9999 -9999 -9999 -9999 -9999 -9999 -9999 -9999 -9999 -9999 -9999 -9999 -9999 -9999 -9999 -9999 -9999 -9999 -9999 -9999 -9999 -9999 -9999 -9999 -9999 -9999 -9999 -9999 -9999 -9999 -9999 -9999 -9999 -9999 -9999 -9999 -9999 -9999 -9999 -9999 -9999 -9999 -9999 -9999 -9999 -9999 -9999 -9999 -9999 -9999 -9999 -9999 -9999 -9999 -9999 -9999 -9999 -9999 -9999 -9999 -9999 -9999 -9999 -9999 -9999 -9999 -9999 -9999 -9999 -9999 -9999 -9999 -9999 -9999 -9999 -9999 -9999 -9999 -9999 -9999 -9999 -9999 -9999 -9999 -9999 -9999 -9999 -9999 -9999 -9999 -9999 -9999 -9999 -9999 -9999 -9999 -9999 -9999 -9999 -9999 -9999 -9999 -9999 -9999 -9999 -9999 -9999 -9999 -9999 -9999 -9999 -9999 -9999
-9999 -9999 -9999 -9999 -9999 -9999 -9999 -9999 -9999 -9999 -9999 -9999 -9999 -9999 -9999 -9999 -9999 -9999 -9999 -9999 -9999 -9999 -9999 -9999 -9999 -9999 -9999 -9999 -9999 -9999 -9999 -9999 -9999 -9999 -9999 -9999 -9999 -9999 0.062 0.155 0.147 0.160 0.157 0.160 0.166 0.172 0.168 0.140 0.161 0.156 0.122 0.118 0.131 0.122 0.119 0.114 0.130 0.136 0.158 0.157 0.169 0.161 0.168 0.168 0.190 0.169 0.157 0.168 0.193 0.151 0.146 0.153 0.139 0.173 0.340 0.202 0.149 0.158 0.134 0.141 0.149 0.010 0.010 0.009 0.009 0.009 0.009 0.008 0.009 0.009 0.008 0.008 0.007 0.008 0.007 0.007 0.006 0.007 0.006 0.007 0.007 0.006 0.006 0.006 0.006 0.007 0.009 0.007 0.006 0.007 0.006 0.006 -9999 -9999 -9999 -9999 -9999 -9999 -9999 -9999 -9999 -9999 -9999 -9999 -9999 -9999 -9999 -9999 -9999 -9999 -9999 -9999 -9999 -9999 -9999 -9999 -9999 -9999 -9999 -9999 -9999 -9999 -9999 -9999 -9999 -9999 -9999 -9999 -9999 -9999 -9999 -9999 -9999 -9999 -9999 -9999 -9999 -9999 -9999 -9999 -9999 -9999 -9999 -9999 -9999 -9999 -9999 -9999 -9999 -9999 -9999 -9999 -9999 -9999 -9999 -9999 -9999 -9999 -9999 -9999 -9999 -9999 -9999 -9999 -9999 -9999 -9999 -9999 -9999 -9999 -9999 -9999 -9999 -9999 -9999 -9999 -9999 -9999 -9999 -9999 -9999 -9999 -9999 -9999 -9999 -9999 -9999 -9999 -9999 -9999 -9999 -9999 -9999 -9999 -9999 -9999 -9999 -9999 -9999 -9999 -9999 -9999 -9999 -9999 -9999 -9999 -9999 -9999 -9999 -9999 -9999 -9999 -9999 -9999
-9999 -9999 -9999 -9999 -9999 -9999 -9999 -9999 -9999 -9999 -9999 -9999 -9999 -9999 -9999 -9999 -9999 -9999 -9999 -9999 -9999 -9999 -9999 -9999 -9999 -9999 -9999 -9999 -9999 -9999 -9999 -9999 -9999 -9999 -9999 -9999 -9999 -9999 0.000 0.165 0.158 0.157 0.166 0.160 0.170 0.162 0.159 0.145 0.155 0.151 0.124 0.120 0.129 0.133 0.137 0.135 0.148 0.125 0.123 0.156 0.168 0.155 0.154 0.161 0.181 0.180 0.162 0.181 0.146 0.155 0.152 0.147 0.153 0.151 0.187 0.183 0.176 0.173 0.150 0.139 0.138 0.010 0.009 0.009 0.010 0.009 0.008 0.008 0.008 0.010 0.011 0.011 0.007 0.007 0.007 0.006 0.007 0.007 0.007 0.008 0.008 0.007 0.006 0.007 0.007 0.007 0.008 0.008 0.007 0.006 0.006 0.000 -9999 -9999 -9999 -9999 -9999 -9999 -9999 -9999 -9999 -9999 -9999 -9999 -9999 -9999 -9999 -9999 -9999 -9999 -9999 -9999 -9999 -9999 -9999 -9999 -9999 -9999 -9999 -9999 -9999 -9999 -9999 -9999 -9999 -9999 -9999 -9999 -9999 -9999 -9999 -9999 -9999 -9999 -9999 -9999 -9999 -9999 -9999 -9999 -9999 -9999 -9999 -9999 -9999 -9999 -9999 -9999 -9999 -9999 -9999 -9999 -9999 -9999 -9999 -9999 -9999 -9999 -9999 -9999 -9999 -9999 -9999 -9999 -9999 -9999 -9999 -9999 -9999 -9999 -9999 -9999 -9999 -9999 -9999 -9999 -9999 -9999 -9999 -9999 -9999 -9999 -9999 -9999 -9999 -9999 -9999 -9999 -9999 -9999 -9999 -9999 -9999 -9999 -9999 -9999 -9999 -9999 -9999 -9999 -9999 -9999 -9999 -9999 -9999 -9999 -9999 -9999 -9999 -9999 -9999 -9999 -9999 -9999
-9999 -9999 -9999 -9999 -9999 -9999 -9999 -9999 -9999 -9999 -9999 -9999 -9999 -9999 -9999 -9999 -9999 -9999 -9999 -9999 -9999 -9999 -9999 -9999 -9999 -9999 -9999 -9999 -9999 -9999 -9999 -9999 -9999 -9999 -9999 -9999 -9999 -9999 -9999 0.011 0.174 0.072 0.072 0.168 0.166 0.169 0.153 0.207 0.168 0.161 0.152 0.143 0.142 0.167 0.155 0.131 0.144 0.125 0.120 0.164 0.156 0.161 0.153 0.155 0.153 0.171 0.178 0.137 0.151 0.166 0.150 0.129 0.133 0.141 0.147 0.175 0.299 0.174 0.180 0.149 0.133 0.010 0.011 0.008 0.010 0.011 0.010 0.008 0.009 0.011 0.008 0.007 0.008 0.007 0.008 0.007 0.007 0.007 0.007 0.008 0.008 0.008 0.007 0.008 0.008 0.007 0.008 0.008 0.008 0.006 0.000 -9999 -9999 -9999 -9999 -9999 -9999 -9999 -9999 -9999 -9999 -9999 -9999 -9999 -9999 -9999 -9999 -9999 -9999 -9999 -9999 -9999 -9999 -9999 -9999 -9999 -9999 -9999 -9999 -9999 -9999 -9999 -9999 -9999 -9999 -9999 -9999 -9999 -9999 -9999 -9999 -9999 -9999 -9999 -9999 -9999 -9999 -9999 -9999 -9999 -9999 -9999 -9999 -9999 -9999 -9999 -9999 -9999 -9999 -9999 -9999 -9999 -9999 -9999 -9999 -9999 -9999 -9999 -9999 -9999 -9999 -9999 -9999 -9999 -9999 -9999 -9999 -9999 -9999 -9999 -9999 -9999 -9999 -9999 -9999 -9999 -9999 -9999 -9999 -9999 -9999 -9999 -9999 -9999 -9999 -9999 -9999 -9999 -9999 -9999 -9999 -9999 -9999 -9999 -9999 -9999 -9999 -9999 -9999 -9999 -9999 -9999 -9999 -9999 -9999 -9999 -9999 -9999 -9999 -9999 -9999 -9999 -9999 -9999
-9999 -9999 -9999 -9999 -9999 -9999 -9999 -9999 -9999 -9999 -9999 -9999 -9999 -9999 -9999 -9999 -9999 -9999 -9999 -9999 -9999 -9999 -9999 -9999 -9999 -9999 -9999 -9999 -9999 -9999 -9999 -9999 -9999 -9999 -9999 -9999 -9999 -9999 -9999 0.000 0.114 0.096 0.091 0.103 0.098 0.092 0.216 0.275 0.170 0.165 0.172 0.165 0.157 0.159 0.154 0.139 0.142 0.134 0.141 0.169 0.153 0.141 0.154 0.152 0.148 0.179 0.148 0.160 0.155 0.157 0.165 0.135 0.116 0.117 0.123 0.139 0.138 0.128 0.146 0.150 0.131 0.008 0.008 0.008 0.009 0.011 0.012 0.008 0.008 0.008 0.007 0.008 0.008 0.008 0.009 0.009 0.008 0.008 0.007 0.007 0.007 0.008 0.008 0.007 0.007 0.008 0.008 0.008 0.008 0.000 -9999 -9999 -9999 -9999 -9999 -9999 -9999 -9999 -9999 -9999 -9999 -9999 -9999 -9999 -9999 -9999 -9999 -9999 -9999 -9999 -9999 -9999 -9999 -9999 -9999 -9999 -9999 -9999 -9999 -9999 -9999 -9999 -9999 -9999 -9999 -9999 -9999 -9999 -9999 -9999 -9999 -9999 -9999 -9999 -9999 -9999 -9999 -9999 -9999 -9999 -9999 -9999 -9999 -9999 -9999 -9999 -9999 -9999 -9999 -9999 -9999 -9999 -9999 -9999 -9999 -9999 -9999 -9999 -9999 -9999 -9999 -9999 -9999 -9999 -9999 -9999 -9999 -9999 -9999 -9999 -9999 -9999 -9999 -9999 -9999 -9999 -9999 -9999 -9999 -9999 -9999 -9999 -9999 -9999 -9999 -9999 -9999 -9999 -9999 -9999 -9999 -9999 -9999 -9999 -9999 -9999 -9999 -9999 -9999 -9999 -9999 -9999 -9999 -9999 -9999 -9999 -9999 -9999 -9999 -9999 -9999 -9999 -9999 -9999
-9999 -9999 -9999 -9999 -9999 -9999 -9999 -9999 -9999 -9999 -9999 -9999 -9999 -9999 -9999 -9999 -9999 -9999 -9999 -9999 -9999 -9999 -9999 -9999 -9999 -9999 -9999 -9999 -9999 -9999 -9999 -9999 -9999 -9999 -9999 -9999 -9999 -9999 -9999 -9999 0.024 0.099 0.122 0.117 0.123 0.128 0.177 0.180 0.117 0.093 0.170 0.167 0.158 0.163 0.156 0.154 0.135 0.146 0.149 0.150 0.142 0.141 0.150 0.159 0.154 0.166 0.212 0.158 0.188 0.160 0.151 0.135 0.120 0.108 0.134 0.128 0.129 0.128 0.149 0.158 0.160 0.010 0.009 0.008 0.008 0.010 0.008 0.008 0.008 0.008 0.009 0.009 0.009 0.009 0.008 0.008 0.007 0.007 0.008 0.007 0.007 0.008 0.006 0.008 0.007 0.008 0.009 0.009 0.007 -9999 -9999 -9999 -9999 -9999 -9999 -9999 -9999 -9999 -9999 -9999 -9999 -9999 -9999 -9999 -9999 -9999 -9999 -9999 -9999 -9999 -9999 -9999 -9999 -9999 -9999 -9999 -9999 -9999 -9999 -9999 -9999 -9999 -9999 -9999 -9999 -9999 -9999 -9999 -9999 -9999 -9999 -9999 -9999 -9999 -9999 -9999 -9999 -9999 -9999 -9999 -9999 -9999 -9999 -9999 -9999 -9999 -9999 -9999 -9999 -9999 -9999 -9999 -9999 -9999 -9999 -9999 -9999 -9999 -9999 -9999 -9999 -9999 -9999 -9999 -9999 -9999 -9999 -9999 -9999 -9999 -9999 -9999 -9999 -9999 -9999 -9999 -9999 -9999 -9999 -9999 -9999 -9999 -9999 -9999 -9999 -9999 -9999 -9999 -9999 -9999 -9999 -9999 -9999 -9999 -9999 -9999 -9999 -9999 -9999 -9999 -9999 -9999 -9999 -9999 -9999 -9999 -9999 -9999 -9999 -9999 -9999 -9999 -9999 -9999
-9999 -9999 -9999 -9999 -9999 -9999 -9999 -9999 -9999 -9999 -9999 -9999 -9999 -9999 -9999 -9999 -9999 -9999 -9999 -9999 -9999 -9999 -9999 -9999 -9999 -9999 -9999 -9999 -9999 -9999 -9999 -9999 -9999 -9999 -9999 -9999 -9999 -9999 -9999 -9999 0.048 0.133 0.131 0.132 0.176 0.181 0.174 0.184 0.172 0.115 0.092 0.154 0.154 0.181 0.191 0.167 0.143 0.150 0.148 0.161 0.141 0.157 0.148 0.159 0.158 0.179 0.192 0.192 0.161 0.165 0.158 0.143 0.123 0.112 0.117 0.135 0.136 0.131 0.151 0.136 0.127 0.193 0.009 0.008 0.008 0.008 0.008 0.008 0.008 0.009 0.008 0.008 0.008 0.008 0.009 0.009 0.008 0.008 0.008 0.007 0.007 0.007 0.007 0.009 0.008 0.009 0.008 0.008 0.000 -9999 -9999 -9999 -9999 -9999 -9999 -9999 -9999 -9999 -9999 -9999 -9999 -9999 -9999 -9999 -9999 -9999 -9999 -9999 -9999 -9999 -9999 -9999 -9999 -9999 -9999 -9999 -9999 -9999 -9999 -9999 -9999 -9999 -9999 -9999 -9999 -9999 -9999 -9999 -9999 -9999 -9999 -9999 -9999 -9999 -9999 -9999 -9999 -9999 -9999 -9999 -9999 -9999 -9999 -9999 -9999 -9999 -9999 -9999 -9999 -9999 -9999 -9999 -9999 -9999 -9999 -9999 -9999 -9999 -9999 -9999 -9999 -9999 -9999 -9999 -9999 -9999 -9999 -9999 -9999 -9999 -9999 -9999 -9999 -9999 -9999 -9999 -9999 -9999 -9999 -9999 -9999 -9999 -9999 -9999 -9999 -9999 -9999 -9999 -9999 -9999 -9999 -9999 -9999 -9999 -9999 -9999 -9999 -9999 -9999 -9999 -9999 -9999 -9999 -9999 -9999 -9999 -9999 -9999 -9999 -9999 -9999 -9999 -9999 -9999
-9999 -9999 -9999 -9999 -9999 -9999 -9999 -9999 -9999 -9999 -9999 -9999 -9999 -9999 -9999 -9999 -9999 -9999 -9999 -9999 -9999 -9999 -9999 -9999 -9999 -9999 -9999 -9999 -9999 -9999 -9999 -9999 -9999 -9999 -9999 -9999 -9999 -9999 -9999 -9999 0.047 0.131 0.128 0.127 0.193 0.190 0.182 0.191 0.174 0.095 0.084 0.084 0.096 0.089 0.076 0.166 0.140 0.167 0.164 0.171 0.174 0.179 0.163 0.163 0.161 0.167 0.181 0.178 0.253 0.188 0.135 0.127 0.130 0.114 0.128 0.135 0.138 0.135 0.143 0.128 0.141 0.131 0.008 0.009 0.008 0.008 0.008 0.008 0.008 0.008 0.009 0.008 0.008 0.008 0.008 0.008 0.007 0.008 0.009 0.008 0.007 0.007 0.009 0.009 0.009 0.009 0.007 0.008 -9999 -9999 -9999 -9999 -9999 -9999 -9999 -9999 -9999 -9999 -9999 -9999 -9999 -9999 -9999 -9999 -9999 -9999 -9999 -9999 -9999 -9999 -9999 -9999 -9999 -9999 -9999 -9999 -9999 -9999 -9999 -9999 -9999 -9999 -9999 -9999 -9999 -9999 -9999 -9999 -9999 -9999 -9999 -9999 -9999 -9999 -9999 -9999 -9999 -9999 -9999 -9999 -9999 -9999 -9999 -9999 -9999 -9999 -9999 -9999 -9999 -9999 -9999 -9999 -9999 -9999 -9999 -9999 -9999 -9999 -9999 -9999 -9999 -9999 -9999 -9999 -9999 -9999 -9999 -9999 -9999 -9999 -9999 -9999 -9999 -9999 -9999 -9999 -9999 -9999 -9999 -9999 -9999 -9999 -9999 -9999 -9999 -9999 -9999 -9999 -9999 -9999 -9999 -9999 -9999 -9999 -9999 -9999 -9999 -9999 -9999 -9999 -9999 -9999 -9999 -9999 -9999 -9999 -9999 -9999 -9999 -9999 -9999 -9999 -9999 -9999
-9999 -9999 -9999 -9999 -9999 -9999 -9999 -9999 -9999 -9999 -9999 -9999 -9999 -9999 -9999 -9999 -9999 -9999 -9999 -9999 -9999 -9999 -9999 -9999 -9999 -9999 -9999 -9999 -9999 -9999 -9999 -9999 -9999 -9999 -9999 -9999 -9999 -9999 -9999 -9999 0.000 0.105 0.103 0.142 0.140 0.151 0.151 0.198 0.192 0.110 0.111 0.094 0.094 0.098 0.091 0.211 0.175 0.191 0.186 0.164 0.180 0.184 0.166 0.165 0.206 0.163 0.152 0.159 0.159 0.160 0.134 0.162 0.135 0.148 0.150 0.143 0.122 0.132 0.137 0.125 0.132 0.123 0.123 0.008 0.007 0.008 0.009 0.009 0.008 0.008 0.008 0.009 0.007 0.007 0.008 0.009 0.008 0.008 0.008 0.008 0.009 0.009 0.010 0.008 0.007 0.008 0.007 0.000 -9999 -9999 -9999 -9999 -9999 -9999 -9999 -9999 -9999 -9999 -9999 -9999 -9999 -9999 -9999 -9999 -9999 -9999 -9999 -9999 -9999 -9999 -9999 -9999 -9999 -9999 -9999 -9999 -9999 -9999 -9999 -9999 -9999 -9999 -9999 -9999 -9999 -9999 -9999 -9999 -9999 -9999 -9999 -9999 -9999 -9999 -9999 -9999 -9999 -9999 -9999 -9999 -9999 -9999 -9999 -9999 -9999 -9999 -9999 -9999 -9999 -9999 -9999 -9999 -9999 -9999 -9999 -9999 -9999 -9999 -9999 -9999 -9999 -9999 -9999 -9999 -9999 -9999 -9999 -9999 -9999 -9999 -9999 -9999 -9999 -9999 -9999 -9999 -9999 -9999 -9999 -9999 -9999 -9999 -9999 -9999 -9999 -9999 -9999 -9999 -9999 -9999 -9999 -9999 -9999 -9999 -9999 -9999 -9999 -9999 -9999 -9999 -9999 -9999 -9999 -9999 -9999 -9999 -9999 -9999 -9999 -9999 -9999 -9999 -9999 -9999
-9999 -9999 -9999 -9999 -9999 -9999 -9999 -9999 -9999 -9999 -9999 -9999 -9999 -9999 -9999 -9999 -9999 -9999 -9999 -9999 -9999 -9999 -9999 -9999 -9999 -9999 -9999 -9999 -9999 -9999 -9999 -9999 -9999 -9999 -9999 -9999 -9999 -9999 -9999 -9999 0.000 0.122 0.088 0.122 0.114 0.113 0.103 0.134 0.125 0.120 0.104 0.111 0.108 0.108 0.085 0.195 0.188 0.212 0.223 0.190 0.150 0.169 0.185 0.185 0.175 0.194 0.223 0.212 0.126 0.118 0.134 0.155 0.139 0.148 0.135 0.153 0.126 0.124 0.136 0.133 0.114 0.130 0.123 0.006 0.009 0.007 0.007 0.172 0.137 0.120 0.007 0.008 0.009 0.009 0.008 0.008 0.007 0.009 0.007 0.007 0.007 0.007 0.007 0.007 0.007 0.007 0.000 -9999 -9999 -9999 -9999 -9999 -9999 -9999 -9999 -9999 -9999 -9999 -9999 -9999 -9999 -9999 -9999 -9999 -9999 -9999 -9999 -9999 -9999 -9999 -9999 -9999 -9999 -9999 -9999 -9999 -9999 -9999 -9999 -9999 -9999 -9999 -9999 -9999 -9999 -9999 -9999 -9999 -9999 -9999 -9999 -9999 -9999 -9999 -9999 -9999 -9999 -9999 -9999 -9999 -9999 -9999 -9999 -9999 -9999 -9999 -9999 -9999 -9999 -9999 -9999 -9999 -9999 -9999 -9999 -9999 -9999 -9999 -9999 -9999 -9999 -9999 -9999 -9999 -9999 -9999 -9999 -9999 -9999 -9999 -9999 -9999 -9999 -9999 -9999 -9999 -9999 -9999 -9999 -9999 -9999 -9999 -9999 -9999 -9999 -9999 -9999 -9999 -9999 -9999 -9999 -9999 -9999 -9999 -9999 -9999 -9999 -9999 -9999 -9999 -9999 -9999 -9999 -9999 -9999 -9999 -9999 -9999 -9999 -9999 -9999 -9999 -9999 -9999
-9999 -9999 -9999 -9999 -9999 -9999 -9999 -9999 -9999 -9999 -9999 -9999 -9999 -9999 -9999 -9999 -9999 -9999 -9999 -9999 -9999 -9999 -9999 -9999 -9999 -9999 -9999 -9999 -9999 -9999 -9999 -9999 -9999 -9999 -9999 -9999 -9999 -9999 -9999 -9999 0.000 0.141 0.115 0.147 0.142 0.132 0.100 0.102 0.112 0.106 0.106 0.108 0.110 0.114 0.099 0.202 0.214 0.256 0.242 0.238 0.209 0.163 0.192 0.209 0.183 0.188 0.216 0.198 0.170 0.143 0.153 0.157 0.146 0.150 0.149 0.133 0.142 0.137 0.128 0.137 0.140 0.134 0.133 0.134 0.008 0.152 0.167 0.175 0.135 0.008 0.009 0.009 0.009 0.007 0.007 0.008 0.009 0.007 0.007 0.007 0.007 0.007 -9999 0.007 0.007 0.007 -9999 -9999 -9999 -9999 -9999 -9999 -9999 -9999 -9999 -9999 -9999 -9999 -9999 -9999 -9999 -9999 -9999 -9999 -9999 -9999 -9999 -9999 -9999 -9999 -9999 -9999 -9999 -9999 -9999 -9999 -9999 -9999 -9999 -9999 -9999 -9999 -9999 -9999 -9999 -9999 -9999 -9999 -9999 -9999 -9999 -9999 -9999 -9999 -9999 -9999 -9999 -9999 -9999 -9999 -9999 -9999 -9999 -9999 -9999 -9999 -9999 -9999 -9999 -9999 -9999 -9999 -9999 -9999 -9999 -9999 -9999 -9999 -9999 -9999 -9999 -9999 -9999 -9999 -9999 -9999 -9999 -9999 -9999 -9999 -9999 -9999 -9999 -9999 -9999 -9999 -9999 -9999 -9999 -9999 -9999 -9999 -9999 -9999 -9999 -9999 -9999 -9999 -9999 -9999 -9999 -9999 -9999 -9999 -9999 -9999 -9999 -9999 -9999 -9999 -9999 -9999 -9999 -9999 -9999 -9999 -9999 -9999 -9999 -9999 -9999 -9999 -9999 -9999
-9999 -9999 -9999 -9999 -9999 -9999 -9999 -9999 -9999 -9999 -9999 -9999 -9999 -9999 -9999 -9999 -9999 -9999 -9999 -9999 -9999 -9999 -9999 -9999 -9999 -9999 -9999 -9999 -9999 -9999 -9999 -9999 -9999 -9999 -9999 -9999 -9999 -9999 -9999 -9999 0.000 0.195 0.186 0.207 0.207 0.153 0.124 0.129 0.108 0.100 0.119 0.119 0.112 0.106 0.111 0.098 0.191 0.222 0.233 0.227 0.231 0.174 0.186 0.209 0.230 0.188 0.171 0.201 0.164 0.152 0.163 0.144 0.128 0.147 0.153 0.146 0.147 0.125 0.124 0.120 0.146 0.141 0.149 0.157 0.143 0.143 0.152 0.152 0.162 0.140 0.009 0.009 0.008 0.008 0.007 0.007 0.009 0.010 0.009 0.008 0.007 0.007 0.007 0.007 0.007 0.000 -9999 -9999 -9999 -9999 -9999 -9999 -9999 -9999 -9999 -9999 -9999 -9999 -9999 -9999 -9999 -9999 -9999 -9999 -9999 -9999 -9999 -9999 -9999 -9999 -9999 -9999 -9999 -9999 -9999 -9999 -9999 -9999 -9999 -9999 -9999 -9999 -9999 -9999 -9999 -9999 -9999 -9999 -9999 -9999 -9999 -9999 -9999 -9999 -9999 -9999 -9999 -9999 -9999 -9999 -9999 -9999 -9999 -9999 -9999 -9999 -9999 -9999 -9999 -9999 -9999 -9999 -9999 -9999 -9999 -9999 -9999 -9999 -9999 -9999 -9999 -9999 -9999 -9999 -9999 -9999 -9999 -9999 -9999 -9999 -9999 -9999 -9999 -9999 -9999 -9999 -9999 -9999 -9999 -9999 -9999 -9999 -9999 -9999 -9999 -9999 -9999 -9999 -9999 -9999 -9999 -9999 -9999 -9999 -9999 -9999 -9999 -9999 -9999 -9999 -9999 -9999 -9999 -9999 -9999 -9999 -9999 -9999 -9999 -9999 -9999 -9999 -9999 -9999
-9999 -9999 -9999 -9999 -9999 -9999 -9999 -9999 -9999 -9999 -9999 -9999 -9999 -9999 -9999 -9999 -9999 -9999 -9999 -9999 -9999 -9999 -9999 -9999 -9999 -9999 -9999 -9999 -9999 -9999 -9999 -9999 -9999 -9999 -9999 -9999 -9999 -9999 -9999 -9999 0.000 0.147 0.128 0.207 0.208 0.155 0.141 0.131 0.124 0.098 0.105 0.113 0.127 0.132 0.127 0.105 0.100 0.243 0.262 0.228 0.215 0.195 0.214 0.208 0.225 0.243 0.242 0.156 0.150 0.174 0.181 0.138 0.144 0.140 0.151 0.157 0.138 0.138 0.142 0.153 0.164 0.129 0.152 0.175 0.147 0.152 0.158 0.161 0.155 0.138 0.169 0.008 0.008 0.010 0.010 0.009 0.009 0.009 0.009 0.008 0.008 0.006 0.000 -9999 -9999 -9999 -9999 -9999 -9999 -9999 -9999 -9999 -9999 -9999 -9999 -9999 -9999 -9999 -9999 -9999 -9999 -9999 -9999 -9999 -9999 -9999 -9999 -9999 -9999 -9999 -9999 -9999 -9999 -9999 -9999 -9999 -9999 -9999 -9999 -9999 -9999 -9999 -9999 -9999 -9999 -9999 -9999 -9999 -9999 -9999 -9999 -9999 -9999 -9999 -9999 -9999 -9999 -9999 -9999 -9999 -9999 -9999 -9999 -9999 -9999 -9999 -9999 -9999 -9999 -9999 -9999 -9999 -9999 -9999 -9999 -9999 -9999 -9999 -9999 -9999 -9999 -9999 -9999 -9999 -9999 -9999 -9999 -9999 -9999 -9999 -9999 -9999 -9999 -9999 -9999 -9999 -9999 -9999 -9999 -9999 -9999 -9999 -9999 -9999 -9999 -9999 -9999 -9999 -9999 -9999 -9999 -9999 -9999 -9999 -9999 -9999 -9999 -9999 -9999 -9999 -9999 -9999 -9999 -9999 -9999 -9999 -9999 -9999 -9999 -9999 -9999 -9999 -9999 -9999
-9999 -9999 -9999 -9999 -9999 -9999 -9999 -9999 -9999 -9999 -9999 -9999 -9999 -9999 -9999 -9999 -9999 -9999 -9999 -9999 -9999 -9999 -9999 -9999 -9999 -9999 -9999 -9999 -9999 -9999 -9999 -9999 -9999 -9999 -9999 -9999 -9999 -9999 -9999 -9999 0.000 0.152 0.139 0.120 0.145 0.116 0.158 0.141 0.129 0.108 0.100 0.115 0.115 0.121 0.114 0.125 0.123 0.251 0.243 0.217 0.210 0.199 0.228 0.221 0.220 0.220 0.181 0.202 0.205 0.159 0.159 0.133 0.167 0.175 0.167 0.156 0.158 0.164 0.163 0.154 0.152 0.134 0.164 0.141 0.144 0.152 0.159 0.144 0.166 0.008 0.009 0.010 0.010 0.010 0.009 0.009 0.009 0.008 0.008 0.007 0.008 0.000 -9999 -9999 -9999 -9999 -9999 -9999 -9999 -9999 -9999 -9999 -9999 -9999 -9999 -9999 -9999 -9999 -9999 -9999 -9999 -9999 -9999 -9999 -9999 -9999 -9999 -9999 -9999 -9999 -9999 -9999 -9999 -9999 -9999 -9999 -9999 -9999 -9999 -9999 -9999 -9999 -9999 -9999 -9999 -9999 -9999 -9999 -9999 -9999 -9999 -9999 -9999 -9999 -9999 -9999 -9999 -9999 -9999 -9999 -9999 -9999 -9999 -9999 -9999 -9999 -9999 -9999 -9999 -9999 -9999 -9999 -9999 -9999 -9999 -9999 -9999 -9999 -9999 -9999 -9999 -9999 -9999 -9999 -9999 -9999 -9999 -9999 -9999 -9999 -9999 -9999 -9999 -9999 -9999 -9999 -9999 -9999 -9999 -9999 -9999 -9999 -9999 -9999 -9999 -9999 -9999 -9999 -9999 -9999 -9999 -9999 -9999 -9999 -9999 -9999 -9999 -9999 -9999 -9999 -9999 -9999 -9999 -9999 -9999 -9999 -9999 -9999 -9999 -9999 -9999 -9999 -9999 -9999
-9999 -9999 -9999 -9999 -9999 -9999 -9999 -9999 -9999 -9999 -9999 -9999 -9999 -9999 -9999 -9999 -9999 -9999 -9999 -9999 -9999 -9999 -9999 -9999 -9999 -9999 -9999 -9999 -9999 -9999 -9999 -9999 -9999 -9999 -9999 -9999 -9999 -9999 -9999 -9999 0.000 0.152 0.139 0.116 0.141 0.133 0.146 0.122 0.134 0.120 0.108 0.100 0.125 0.113 0.136 0.114 0.111 0.126 0.272 0.221 0.237 0.221 0.254 0.218 0.187 0.188 0.212 0.192 0.209 0.222 0.205 0.171 0.139 0.133 0.154 0.158 0.155 0.162 0.135 0.120 0.132 0.165 0.146 0.149 0.140 0.146 0.146 0.007 0.011 0.010 0.010 0.010 0.011 0.010 0.009 0.009 0.007 0.007 0.000 0.000 -9999 -9999 -9999 -9999 -9999 -9999 -9999 -9999 -9999 -9999 -9999 -9999 -9999 -9999 -9999 -9999 -9999 -9999 -9999 -9999 -9999 -9999 -9999 -9999 -9999 -9999 -9999 -9999 -9999 -9999 -9999 -9999 -9999 -9999 -9999 -9999 -9999 -9999 -9999 -9999 -9999 -9999 -9999 -9999 -9999 -9999 -9999 -9999 -9999 -9999 -9999 -9999 -9999 -9999 -9999 -9999 -9999 -9999 -9999 -9999 -9999 -9999 -9999 -9999 -9999 -9999 -9999 -9999 -9999 -9999 -9999 -9999 -9999 -9999 -9999 -9999 -9999 -9999 -9999 -9999 -9999 -9999 -9999 -9999 -9999 -9999 -9999 -9999 -9999 -9999 -9999 -9999 -9999 -9999 -9999 -9999 -9999 -9999 -9999 -9999 -9999 -9999 -9999 -9999 -9999 -9999 -9999 -9999 -9999 -9999 -9999 -9999 -9999 -9999 -9999 -9999 -9999 -9999 -9999 -9999 -9999 -9999 -9999 -9999 -9999 -9999 -9999 -9999 -9999 -9999 -9999 -9999 -9999 -9999
-9999 -9999 -9999 -9999 -9999 -9999 -9999 -9999 -9999 -9999 -9999 -9999 -9999 -9999 -9999 -9999 -9999 -9999 -9999 -9999 -9999 -9999 -9999 -9999 -9999 -9999 -9999 -9999 -9999 -9999 -9999 -9999 -9999 -9999 -9999 -9999 -9999 -9999 -9999 -9999 0.000 0.123 0.117 0.120 0.135 0.148 0.143 0.117 0.119 0.130 0.099 0.122 0.127 0.134 0.114 0.120 0.110 0.114 0.100 0.230 0.246 0.230 0.227 0.211 0.221 0.207 0.177 0.179 0.188 0.206 0.181 0.215 0.169 0.140 0.122 0.164 0.192 0.146 0.152 0.149 0.154 0.171 0.144 0.136 0.139 0.134 0.134 0.008 0.010 0.011 0.011 0.010 0.011 0.011 0.007 0.007 0.008 -9999 -9999 -9999 -9999 -9999 -9999 -9999 -9999 -9999 -9999 -9999 -9999 -9999 -9999 -9999 -9999 -9999 -9999 -9999 -9999 -9999 -9999 -9999 -9999 -9999 -9999 -9999 -9999 -9999 -9999 -9999 -9999 -9999 -9999 -9999 -9999 -9999 -9999 -9999 -9999 -9999 -9999 -9999 -9999 -9999 -9999 -9999 -9999 -9999 -9999 -9999 -9999 -9999 -9999 -9999 -9999 -9999 -9999 -9999 -9999 -9999 -9999 -9999 -9999 -9999 -9999 -9999 -9999 -9999 -9999 -9999 -9999 -9999 -9999 -9999 -9999 -9999 -9999 -9999 -9999 -9999 -9999 -9999 -9999 -9999 -9999 -9999 -9999 -9999 -9999 -9999 -9999 -9999 -9999 -9999 -9999 -9999 -9999 -9999 -9999 -9999 -9999 -9999 -9999 -9999 -9999 -9999 -9999 -9999 -9999 -9999 -9999 -9999 -9999 -9999 -9999 -9999 -9999 -9999 -9999 -9999 -9999 -9999 -9999 -9999 -9999 -9999 -9999 -9999 -9999 -9999 -9999 -9999 -9999 -9999 -9999 -9999
-9999 -9999 -9999 -9999 -9999 -9999 -9999 -9999 -9999 -9999 -9999 -9999 -9999 -9999 -9999 -9999 -9999 -9999 -9999 -9999 -9999 -9999 -9999 -9999 -9999 -9999 -9999 -9999 -9999 -9999 -9999 -9999 -9999 -9999 -9999 -9999 -9999 -9999 -9999 -9999 -9999 0.111 0.079 0.101 0.137 0.134 0.142 0.129 0.118 0.120 0.128 0.104 0.128 0.131 0.125 0.118 0.112 0.118 0.104 0.093 0.199 0.238 0.225 0.197 0.230 0.197 0.148 0.156 0.150 0.150 0.215 0.188 0.177 0.167 0.131 0.146 0.154 0.167 0.164 0.172 0.157 0.157 0.168 0.151 0.140 0.189 0.191 0.187 0.185 0.194 0.008 0.009 0.008 0.008 0.000 -9999 -9999 -9999 -9999 -9999 -9999 -9999 -9999 -9999 -9999 -9999 -9999 -9999 -9999 -9999 -9999 -9999 -9999 -9999 -9999 -9999 -9999 -9999 -9999 -9999 -9999 -9999 -9999 -9999 -9999 -9999 -9999 -9999 -9999 -9999 -9999 -9999 -9999 -9999 -9999 -9999 -9999 -9999 -9999 -9999 -9999 -9999 -9999 -9999 -9999 -9999 -9999 -9999 -9999 -9999 -9999 -9999 -9999 -9999 -9999 -9999 -9999 -9999 -9999 -9999 -9999 -9999 -9999 -9999 -9999 -9999 -9999 -9999 -9999 -9999 -9999 -9999 -9999 -9999 -9999 -9999 -9999 -9999 -9999 -9999 -9999 -9999 -9999 -9999 -9999 -9999 -9999 -9999 -9999 -9999 -9999 -9999 -9999 -9999 -9999 -9999 -9999 -9999 -9999 -9999 -9999 -9999 -9999 -9999 -9999 -9999 -9999 -9999 -9999 -9999 -9999 -9999 -9999 -9999 -9999 -9999 -9999 -9999 -9999 -9999 -9999 -9999 -9999 -9999 -9999 -9999 -9999 -9999 -9999 -9999 -9999 -9999 -9999 -9999
-9999 -9999 -9999 -9999 -9999 -9999 -9999 -9999 -9999 -9999 -9999 -9999 -9999 -9999 -9999 -9999 -9999 -9999 -9999 -9999 -9999 -9999 -9999 -9999 -9999 -9999 -9999 -9999 -9999 -9999 -9999 -9999 -9999 -9999 -9999 -9999 -9999 -9999 -9999 -9999 -9999 0.101 0.089 0.095 0.113 0.131 0.144 0.120 0.122 0.132 0.125 0.105 0.131 0.138 0.116 0.106 0.104 0.113 0.107 0.181 0.204 0.206 0.188 0.224 0.215 0.220 0.223 0.179 0.174 0.166 0.136 0.157 0.189 0.182 0.142 0.177 0.170 0.159 0.158 0.148 0.182 0.192 0.173 0.194 0.212 0.181 0.193 0.193 0.184 0.153 0.129 0.000 -9999 -9999 -9999 -9999 -9999 -9999 -9999 -9999 -9999 -9999 -9999 -9999 -9999 -9999 -9999 -9999 -9999 -9999 -9999 -9999 -9999 -9999 -9999 -9999 -9999 -9999 -9999 -9999 -9999 -9999 -9999 -9999 -9999 -9999 -9999 -9999 -9999 -9999 -9999 -9999 -9999 -9999 -9999 -9999 -9999 -9999 -9999 -9999 -9999 -9999 -9999 -9999 -9999 -9999 -9999 -9999 -9999 -9999 -9999 -9999 -9999 -9999 -9999 -9999 -9999 -9999 -9999 -9999 -9999 -9999 -9999 -9999 -9999 -9999 -9999 -9999 -9999 -9999 -9999 -9999 -9999 -9999 -9999 -9999 -9999 -9999 -9999 -9999 -9999 -9999 -9999 -9999 -9999 -9999 -9999 -9999 -9999 -9999 -9999 -9999 -9999 -9999 -9999 -9999 -9999 -9999 -9999 -9999 -9999 -9999 -9999 -9999 -9999 -9999 -9999 -9999 -9999 -9999 -9999 -9999 -9999 -9999 -9999 -9999 -9999 -9999 -9999 -9999 -9999 -9999 -9999 -9999 -9999 -9999 -9999 -9999 -9999 -9999 -9999 -9999 -9999 -9999
-9999 -9999 -9999 -9999 -9999 -9999 -9999 -9999 -9999 -9999 -9999 -9999 -9999 -9999 -9999 -9999 -9999 -9999 -9999 -9999 -9999 -9999 -9999 -9999 -9999 -9999 -9999 -9999 -9999 -9999 -9999 -9999 -9999 -9999 -9999 -9999 -9999 -9999 -9999 -9999 -9999 0.006 0.090 0.100 0.098 0.103 0.119 0.112 0.110 0.137 0.124 0.099 0.104 0.119 0.117 0.107 0.107 0.108 0.126 0.088 0.192 0.200 0.181 0.198 0.177 0.199 0.229 0.234 0.232 0.187 0.138 0.134 0.187 0.200 0.171 0.163 0.158 0.137 0.149 0.161 0.188 0.179 0.190 0.193 0.178 0.181 0.148 0.147 0.162 0.000 0.000 -9999 -9999 -9999 -9999 -9999 -9999 -9999 -9999 -9999 -9999 -9999 -9999 -9999 -9999 -9999 -9999 -9999 -9999 -9999 -9999 -9999 -9999 -9999 -9999 -9999 -9999 -9999 -9999 -9999 -9999 -9999 -9999 -9999 -9999 -9999 -9999 -9999 -9999 -9999 -9999 -9999 -9999 -9999 -9999 -9999 -9999 -9999 -9999 -9999 -9999 -9999 -9999 -9999 -9999 -9999 -9999 -9999 -9999 -9999 -9999 -9999 -9999 -9999 -9999 -9999 -9999 -9999 -9999 -9999 -9999 -9999 -9999 -9999 -9999 -9999 -9999 -9999 -9999 -9999 -9999 -9999 -9999 -9999 -9999 -9999 -9999 -9999 -9999 -9999 -9999 -9999 -9999 -9999 -9999 -9999 -9999 -9999 -9999 -9999 -9999 -9999 -9999 -9999 -9999 -9999 -9999 -9999 -9999 -9999 -9999 -9999 -9999 -9999 -9999 -9999 -9999 -9999 -9999 -9999 -9999 -9999 -9999 -9999 -9999 -9999 -9999 -9999 -9999 -9999 -9999 -9999 -9999 -9999 -9999 -9999 -9999 -9999 -9999 -9999 -9999 -9999 -9999 -9999
-9999 -9999 -9999 -9999 -9999 -9999 -9999 -9999 -9999 -9999 -9999 -9999 -9999 -9999 -9999 -9999 -9999 -9999 -9999 -9999 -9999 -9999 -9999 -9999 -9999 -9999 -9999 -9999 -9999 -9999 -9999 -9999 -9999 -9999 -9999 -9999 -9999 -9999 -9999 -9999 -9999 0.006 0.084 0.095 0.097 0.103 0.106 0.126 0.108 0.130 0.126 0.113 0.101 0.109 0.131 0.116 0.107 0.103 0.105 0.171 0.205 0.179 0.169 0.196 0.175 0.221 0.230 0.212 0.214 0.195 0.159 0.147 0.169 0.184 0.176 0.133 0.164 0.170 0.167 0.172 0.180 0.174 0.175 0.152 0.143 0.148 0.000 0.000 -9999 -9999 -9999 -9999 -9999 -9999 -9999 -9999 -9999 -9999 -9999 -9999 -9999 -9999 -9999 -9999 -9999 -9999 -9999 -9999 -9999 -9999 -9999 -9999 -9999 -9999 -9999 -9999 -9999 -9999 -9999 -9999 -9999 -9999 -9999 -9999 -9999 -9999 -9999 -9999 -9999 -9999 -9999 -9999 -9999 -9999 -9999 -9999 -9999 -9999 -9999 -9999 -9999 -9999 -9999 -9999 -9999 -9999 -9999 -9999 -9999 -9999 -9999 -9999 -9999 -9999 -9999 -9999 -9999 -9999 -9999 -9999 -9999 -9999 -9999 -9999 -9999 -9999 -9999 -9999 -9999 -9999 -9999 -9999 -9999 -9999 -9999 -9999 -9999 -9999 -9999 -9999 -9999 -9999 -9999 -9999 -9999 -9999 -9999 -9999 -9999 -9999 -9999 -9999 -9999 -9999 -9999 -9999 -9999 -9999 -9999 -9999 -9999 -9999 -9999 -9999 -9999 -9999 -9999 -9999 -9999 -9999 -9999 -9999 -9999 -9999 -9999 -9999 -9999 -9999 -9999 -9999 -9999 -9999 -9999 -9999 -9999 -9999 -9999 -9999 -9999 -9999 -9999 -9999 -9999 -9999
-9999 -9999 -9999 -9999 -9999 -9999 -9999 -9999 -9999 -9999 -9999 -9999 -9999 -9999 -9999 -9999 -9999 -9999 -9999 -9999 -9999 -9999 -9999 -9999 -9999 -9999 -9999 -9999 -9999 -9999 -9999 -9999 -9999 -9999 -9999 -9999 -9999 -9999 -9999 -9999 -9999 0.005 0.082 0.099 0.105 0.114 0.105 0.115 0.117 0.119 0.121 0.108 0.090 0.081 0.077 0.065 0.072 0.073 0.072 0.160 0.164 0.185 0.175 0.186 0.157 0.208 0.191 0.202 0.186 0.192 0.162 0.167 0.193 0.250 0.220 0.131 0.139 0.162 0.163 0.167 0.154 0.151 0.145 0.163 0.000 0.000 -9999 -9999 -9999 -9999 -9999 -9999 -9999 -9999 -9999 -9999 -9999 -9999 -9999 -9999 -9999 -9999 -9999 -9999 -9999 -9999 -9999 -9999 -9999 -9999 -9999 -9999 -9999 -9999 -9999 -9999 -9999 -9999 -9999 -9999 -9999 -9999 -9999 -9999 -9999 -9999 -9999 -9999 -9999 -9999 -9999 -9999 -9999 -9999 -9999 -9999 -9999 -9999 -9999 -9999 -9999 -9999 -9999 -9999 -9999 -9999 -9999 -9999 -9999 -9999 -9999 -9999 -9999 -9999 -9999 -9999 -9999 -9999 -9999 -9999 -9999 -9999 -9999 -9999 -9999 -9999 -9999 -9999 -9999 -9999 -9999 -9999 -9999 -9999 -9999 -9999 -9999 -9999 -9999 -9999 -9999 -9999 -9999 -9999 -9999 -9999 -9999 -9999 -9999 -9999 -9999 -9999 -9999 -9999 -9999 -9999 -9999 -9999 -9999 -9999 -9999 -9999 -9999 -9999 -9999 -9999 -9999 -9999 -9999 -9999 -9999 -9999 -9999 -9999 -9999 -9999 -9999 -9999 -9999 -9999 -9999 -9999 -9999 -9999 -9999 -9999 -9999 -9999 -9999 -9999 -9999 -9999 -9999 -9999
-9999 -9999 -9999 -9999 -9999 -9999 -9999 -9999 -9999 -9999 -9999 -9999 -9999 -9999 -9999 -9999 -9999 -9999 -9999 -9999 -9999 -9999 -9999 -9999 -9999 -9999 -9999 -9999 -9999 -9999 -9999 -9999 -9999 -9999 -9999 -9999 -9999 -9999 -9999 -9999 -9999 0.005 0.071 0.092 0.097 0.116 0.100 0.096 0.093 0.115 0.122 0.095 0.082 0.081 0.078 0.085 0.066 0.064 0.064 0.143 0.186 0.164 0.163 0.169 0.153 0.163 0.167 0.191 0.172 0.158 0.150 0.198 0.191 0.217 0.161 0.135 0.140 0.165 0.141 0.000 -9999 -9999 -9999 -9999 -9999 -9999 -9999 -9999 -9999 -9999 -9999 -9999 -9999 -9999 -9999 -9999 -9999 -9999 -9999 -9999 -9999 -9999 -9999 -9999 -9999 -9999 -9999 -9999 -9999 -9999 -9999 -9999 -9999 -9999 -9999 -9999 -9999 -9999 -9999 -9999 -9999 -9999 -9999 -9999 -9999 -9999 -9999 -9999 -9999 -9999 -9999 -9999 -9999 -9999 -9999 -9999 -9999 -9999 -9999 -9999 -9999 -9999 -9999 -9999 -9999 -9999 -9999 -9999 -9999 -9999 -9999 -9999 -9999 -9999 -9999 -9999 -9999 -9999 -9999 -9999 -9999 -9999 -9999 -9999 -9999 -9999 -9999 -9999 -9999 -9999 -9999 -9999 -9999 -9999 -9999 -9999 -9999 -9999 -9999 -9999 -9999 -9999 -9999 -9999 -9999 -9999 -9999 -9999 -9999 -9999 -9999 -9999 -9999 -9999 -9999 -9999 -9999 -9999 -9999 -9999 -9999 -9999 -9999 -9999 -9999 -9999 -9999 -9999 -9999 -9999 -9999 -9999 -9999 -9999 -9999 -9999 -9999 -9999 -9999 -9999 -9999 -9999 -9999 -9999 -9999 -9999 -9999 -9999 -9999 -9999 -9999 -9999 -9999 -9999
-9999 -9999 -9999 -9999 -9999 -9999 -9999 -9999 -9999 -9999 -9999 -9999 -9999 -9999 -9999 -9999 -9999 -9999 -9999 -9999 -9999 -9999 -9999 -9999 -9999 -9999 -9999 -9999 -9999 -9999 -9999 -9999 -9999 -9999 -9999 -9999 -9999 -9999 -9999 -9999 -9999 0.005 0.074 0.058 0.087 0.093 0.101 0.113 0.111 0.100 0.090 0.087 0.081 0.081 0.077 0.090 0.075 0.063 0.064 0.059 0.062 0.158 0.179 0.198 0.169 0.153 0.172 0.152 0.159 0.170 0.136 0.181 0.178 0.192 0.143 0.162 0.000 0.000 -9999 -9999 -9999 -9999 -9999 -9999 -9999 -9999 -9999 -9999 -9999 -9999 -9999 -9999 -9999 -9999 -9999 -9999 -9999 -9999 -9999 -9999 -9999 -9999 -9999 -9999 -9999 -9999 -9999 -9999 -9999 -9999 -9999 -9999 -9999 -9999 -9999 -9999 -9999 -9999 -9999 -9999 -9999 -9999 -9999 -9999 -9999 -9999 -9999 -9999 -9999 -9999 -9999 -9999 -9999 -9999 -9999 -9999 -9999 -9999 -9999 -9999 -9999 -9999 -9999 -9999 -9999 -9999 -9999 -9999 -9999 -9999 -9999 -9999 -9999 -9999 -9999 -9999 -9999 -9999 -9999 -9999 -9999 -9999 -9999 -9999 -9999 -9999 -9999 -9999 -9999 -9999 -9999 -9999 -9999 -9999 -9999 -9999 -9999 -9999 -9999 -9999 -9999 -9999 -9999 -9999 -9999 -9999 -9999 -9999 -9999 -9999 -9999 -9999 -9999 -9999 -9999 -9999 -9999 -9999 -9999 -9999 -9999 -9999 -9999 -9999 -9999 -9999 -9999 -9999 -9999 -9999 -9999 -9999 -9999 -9999 -9999 -9999 -9999 -9999 -9999 -9999 -9999 -9999 -9999 -9999 -9999 -9999 -9999 -9999 -9999 -9999 -9999 -9999 -9999 -9999
-9999 -9999 -9999 -9999 -9999 -9999 -9999 -9999 -9999 -9999 -9999 -9999 -9999 -9999 -9999 -9999 -9999 -9999 -9999 -9999 -9999 -9999 -9999 -9999 -9999 -9999 -9999 -9999 -9999 -9999 -9999 -9999 -9999 -9999 -9999 -9999 -9999 -9999 -9999 -9999 -9999 0.002 0.050 0.063 0.087 0.096 0.092 0.094 0.107 0.088 0.087 0.091 0.091 0.085 0.082 0.069 0.049 0.048 0.059 0.059 0.060 0.167 0.164 0.175 0.170 0.156 0.169 0.149 0.194 0.168 0.145 0.150 0.154 0.159 0.147 -9999 -9999 -9999 -9999 -9999 -9999 -9999 -9999 -9999 -9999 -9999 -9999 -9999 -9999 -9999 -9999 -9999 -9999 -9999 -9999 -9999 -9999 -9999 -9999 -9999 -9999 -9999 -9999 -9999 -9999 -9999 -9999 -9999 -9999 -9999 -9999 -9999 -9999 -9999 -9999 -9999 -9999 -9999 -9999 -9999 -9999 -9999 -9999 -9999 -9999 -9999 -9999 -9999 -9999 -9999 -9999 -9999 -9999 -9999 -9999 -9999 -9999 -9999 -9999 -9999 -9999 -9999 -9999 -9999 -9999 -9999 -9999 -9999 -9999 -9999 -9999 -9999 -9999 -9999 -9999 -9999 -9999 -9999 -9999 -9999 -9999 -9999 -9999 -9999 -9999 -9999 -9999 -9999 -9999 -9999 -9999 -9999 -9999 -9999 -9999 -9999 -9999 -9999 -9999 -9999 -9999 -9999 -9999 -9999 -9999 -9999 -9999 -9999 -9999 -9999 -9999 -9999 -9999 -9999 -9999 -9999 -9999 -9999 -9999 -9999 -9999 -9999 -9999 -9999 -9999 -9999 -9999 -9999 -9999 -9999 -9999 -9999 -9999 -9999 -9999 -9999 -9999 -9999 -9999 -9999 -9999 -9999 -9999 -9999 -9999 -9999 -9999 -9999 -9999 -9999 -9999 -9999 -9999 -9999
-9999 -9999 -9999 -9999 -9999 -9999 -9999 -9999 -9999 -9999 -9999 -9999 -9999 -9999 -9999 -9999 -9999 -9999 -9999 -9999 -9999 -9999 -9999 -9999 -9999 -9999 -9999 -9999 -9999 -9999 -9999 -9999 -9999 -9999 -9999 -9999 -9999 -9999 -9999 -9999 -9999 0.001 0.051 0.058 0.069 0.084 0.096 0.085 0.089 0.104 0.088 0.082 0.091 0.096 0.082 0.064 0.060 0.052 0.053 0.062 0.057 0.152 0.147 0.155 0.165 0.155 0.153 0.145 0.168 0.162 0.154 0.158 0.000 0.000 -9999 -9999 -9999 -9999 -9999 -9999 -9999 -9999 -9999 -9999 -9999 -9999 -9999 -9999 -9999 -9999 -9999 -9999 -9999 -9999 -9999 -9999 -9999 -9999 -9999 -9999 -9999 -9999 -9999 -9999 -9999 -9999 -9999 -9999 -9999 -9999 -9999 -9999 -9999 -9999 -9999 -9999 -9999 -9999 -9999 -9999 -9999 -9999 -9999 -9999 -9999 -9999 -9999 -9999 -9999 -9999 -9999 -9999 -9999 -9999 -9999 -9999 -9999 -9999 -9999 -9999 -9999 -9999 -9999 -9999 -9999 -9999 -9999 -9999 -9999 -9999 -9999 -9999 -9999 -9999 -9999 -9999 -9999 -9999 -9999 -9999 -9999 -9999 -9999 -9999 -9999 -9999 -9999 -9999 -9999 -9999 -9999 -9999 -9999 -9999 -9999 -9999 -9999 -9999 -9999 -9999 -9999 -9999 -9999 -9999 -9999 -9999 -9999 -9999 -9999 -9999 -9999 -9999 -9999 -9999 -9999 -9999 -9999 -9999 -9999 -9999 -9999 -9999 -9999 -9999 -9999 -9999 -9999 -9999 -9999 -9999 -9999 -9999 -9999 -9999 -9999 -9999 -9999 -9999 -9999 -9999 -9999 -9999 -9999 -9999 -9999 -9999 -9999 -9999 -9999 -9999 -9999 -9999 -9999 -9999
-9999 -9999 -9999 -9999 -9999 -9999 -9999 -9999 -9999 -9999 -9999 -9999 -9999 -9999 -9999 -9999 -9999 -9999 -9999 -9999 -9999 -9999 -9999 -9999 -9999 -9999 -9999 -9999 -9999 -9999 -9999 -9999 -9999 -9999 -9999 -9999 -9999 -9999 -9999 -9999 -9999 0.001 0.066 0.045 0.058 0.083 0.080 0.081 0.080 0.090 0.077 0.078 0.086 0.096 0.066 0.073 0.068 0.054 0.046 0.056 0.060 0.064 0.151 0.138 0.149 0.134 0.149 0.150 0.149 0.162 0.000 -9999 -9999 -9999 -9999 -9999 -9999 -9999 -9999 -9999 -9999 -9999 -9999 -9999 -9999 -9999 -9999 -9999 -9999 -9999 -9999 -9999 -9999 -9999 -9999 -9999 -9999 -9999 -9999 -9999 -9999 -9999 -9999 -9999 -9999 -9999 -9999 -9999 -9999 -9999 -9999 -9999 -9999 -9999 -9999 -9999 -9999 -9999 -9999 -9999 -9999 -9999 -9999 -9999 -9999 -9999 -9999 -9999 -9999 -9999 -9999 -9999 -9999 -9999 -9999 -9999 -9999 -9999 -9999 -9999 -9999 -9999 -9999 -9999 -9999 -9999 -9999 -9999 -9999 -9999 -9999 -9999 -9999 -9999 -9999 -9999 -9999 -9999 -9999 -9999 -9999 -9999 -9999 -9999 -9999 -9999 -9999 -9999 -9999 -9999 -9999 -9999 -9999 -9999 -9999 -9999 -9999 -9999 -9999 -9999 -9999 -9999 -9999 -9999 -9999 -9999 -9999 -9999 -9999 -9999 -9999 -9999 -9999 -9999 -9999 -9999 -9999 -9999 -9999 -9999 -9999 -9999 -9999 -9999 -9999 -9999 -9999 -9999 -9999 -9999 -9999 -9999 -9999 -9999 -9999 -9999 -9999 -9999 -9999 -9999 -9999 -9999 -9999 -9999 -9999 -9999 -9999 -9999 -9999 -9999 -9999 -9999 -9999 -9999
-9999 -9999 -9999 -9999 -9999 -9999 -9999 -9999 -9999 -9999 -9999 -9999 -9999 -9999 -9999 -9999 -9999 -9999 -9999 -9999 -9999 -9999 -9999 -9999 -9999 -9999 -9999 -9999 -9999 -9999 -9999 -9999 -9999 -9999 -9999 -9999 -9999 -9999 -9999 -9999 -9999 0.002 0.062 0.056 0.060 0.064 0.070 0.080 0.088 0.074 0.073 0.064 0.082 0.084 0.074 0.063 0.060 0.050 0.047 0.057 0.059 0.068 0.067 0.058 0.168 0.128 0.128 0.134 0.000 0.000 -9999 -9999 -9999 -9999 -9999 -9999 -9999 -9999 -9999 -9999 -9999 -9999 -9999 -9999 -9999 -9999 -9999 -9999 -9999 -9999 -9999 -9999 -9999 -9999 -9999 -9999 -9999 -9999 -9999 -9999 -9999 -9999 -9999 -9999 -9999 -9999 -9999 -9999 -9999 -9999 -9999 -9999 -9999 -9999 -9999 -9999 -9999 -9999 -9999 -9999 -9999 -9999 -9999 -9999 -9999 -9999 -9999 -9999 -9999 -9999 -9999 -9999 -9999 -9999 -9999 -9999 -9999 -9999 -9999 -9999 -9999 -9999 -9999 -9999 -9999 -9999 -9999 -9999 -9999 -9999 -9999 -9999 -9999 -9999 -9999 -9999 -9999 -9999 -9999 -9999 -9999 -9999 -9999 -9999 -9999 -9999 -9999 -9999 -9999 -9999 -9999 -9999 -9999 -9999 -9999 -9999 -9999 -9999 -9999 -9999 -9999 -9999 -9999 -9999 -9999 -9999 -9999 -9999 -9999 -9999 -9999 -9999 -9999 -9999 -9999 -9999 -9999 -9999 -9999 -9999 -9999 -9999 -9999 -9999 -9999 -9999 -9999 -9999 -9999 -9999 -9999 -9999 -9999 -9999 -9999 -9999 -9999 -9999 -9999 -9999 -9999 -9999 -9999 -9999 -9999 -9999 -9999 -9999 -9999 -9999 -9999 -9999 -9999 -9999
-9999 -9999 -9999 -9999 -9999 -9999 -9999 -9999 -9999 -9999 -9999 -9999 -9999 -9999 -9999 -9999 -9999 -9999 -9999 -9999 -9999 -9999 -9999 -9999 -9999 -9999 -9999 -9999 -9999 -9999 -9999 -9999 -9999 -9999 -9999 -9999 -9999 -9999 -9999 -9999 -9999 0.001 0.060 0.056 0.063 0.055 0.059 0.067 0.068 0.068 0.060 0.064 0.080 0.070 0.069 0.063 0.055 0.053 0.044 0.061 0.058 0.067 0.057 0.061 0.148 0.128 0.000 0.000 -9999 -9999 -9999 -9999 -9999 -9999 -9999 -9999 -9999 -9999 -9999 -9999 -9999 -9999 -9999 -9999 -9999 -9999 -9999 -9999 -9999 -9999 -9999 -9999 -9999 -9999 -9999 -9999 -9999 -9999 -9999 -9999 -9999 -9999 -9999 -9999 -9999 -9999 -9999 -9999 -9999 -9999 -9999 -9999 -9999 -9999 -9999 -9999 -9999 -9999 -9999 -9999 -9999 -9999 -9999 -9999 -9999 -9999 -9999 -9999 -9999 -9999 -9999 -9999 -9999 -9999 -9999 -9999 -9999 -9999 -9999 -9999 -9999 -9999 -9999 -9999 -9999 -9999 -9999 -9999 -9999 -9999 -9999 -9999 -9999 -9999 -9999 -9999 -9999 -9999 -9999 -9999 -9999 -9999 -9999 -9999 -9999 -9999 -9999 -9999 -9999 -9999 -9999 -9999 -9999 -9999 -9999 -9999 -9999 -9999 -9999 -9999 -9999 -9999 -9999 -9999 -9999 -9999 -9999 -9999 -9999 -9999 -9999 -9999 -9999 -9999 -9999 -9999 -9999 -9999 -9999 -9999 -9999 -9999 -9999 -9999 -9999 -9999 -9999 -9999 -9999 -9999 -9999 -9999 -9999 -9999 -9999 -9999 -9999 -9999 -9999 -9999 -9999 -9999 -9999 -9999 -9999 -9999 -9999 -9999 -9999 -9999 -9999 -9999 -9999 -9999
-9999 -9999 -9999 -9999 -9999 -9999 -9999 -9999 -9999 -9999 -9999 -9999 -9999 -9999 -9999 -9999 -9999 -9999 -9999 -9999 -9999 -9999 -9999 -9999 -9999 -9999 -9999 -9999 -9999 -9999 -9999 -9999 -9999 -9999 -9999 -9999 -9999 -9999 -9999 -9999 -9999 0.002 0.055 0.057 0.064 0.055 0.062 0.061 0.072 0.065 0.067 0.074 0.066 0.060 0.058 0.060 0.055 0.043 0.054 0.054 0.070 0.075 0.060 0.057 0.115 -9999 -9999 -9999 -9999 -9999 -9999 -9999 -9999 -9999 -9999 -9999 -9999 -9999 -9999 -9999 -9999 -9999 -9999 -9999 -9999 -9999 -9999 -9999 -9999 -9999 -9999 -9999 -9999 -9999 -9999 -9999 -9999 -9999 -9999 -9999 -9999 -9999 -9999 -9999 -9999 -9999 -9999 -9999 -9999 -9999 -9999 -9999 -9999 -9999 -9999 -9999 -9999 -9999 -9999 -9999 -9999 -9999 -9999 -9999 -9999 -9999 -9999 -9999 -9999 -9999 -9999 -9999 -9999 -9999 -9999 -9999 -9999 -9999 -9999 -9999 -9999 -9999 -9999 -9999 -9999 -9999 -9999 -9999 -9999 -9999 -9999 -9999 -9999 -9999 -9999 -9999 -9999 -9999 -9999 -9999 -9999 -9999 -9999 -9999 -9999 -9999 -9999 -9999 -9999 -9999 -9999 -9999 -9999 -9999 -9999 -9999 -9999 -9999 -9999 -9999 -9999 -9999 -9999 -9999 -9999 -9999 -9999 -9999 -9999 -9999 -9999 -9999 -9999 -9999 -9999 -9999 -9999 -9999 -9999 -9999 -9999 -9999 -9999 -9999 -9999 -9999 -9999 -9999 -9999 -9999 -9999 -9999 -9999 -9999 -9999 -9999 -9999 -9999 -9999 -9999 -9999 -9999 -9999 -9999 -9999 -9999 -9999 -9999 -9999 -9999 -9999 -9999 -9999 -9999
-9999 -9999 -9999 -9999 -9999 -9999 -9999 -9999 -9999 -9999 -9999 -9999 -9999 -9999 -9999 -9999 -9999 -9999 -9999 -9999 -9999 -9999 -9999 -9999 -9999 -9999 -9999 -9999 -9999 -9999 -9999 -9999 -9999 -9999 -9999 -9999 -9999 -9999 -9999 -9999 -9999 0.060 0.052 0.055 0.053 0.051 0.069 0.070 0.069 0.074 0.069 0.069 0.058 0.053 0.059 0.058 0.057 0.045 0.054 0.064 0.066 0.060 0.044 0.053 -9999 -9999 -9999 -9999 -9999 -9999 -9999 -9999 -9999 -9999 -9999 -9999 -9999 -9999 -9999 -9999 -9999 -9999 -9999 -9999 -9999 -9999 -9999 -9999 -9999 -9999 -9999 -9999 -9999 -9999 -9999 -9999 -9999 -9999 -9999 -9999 -9999 -9999 -9999 -9999 -9999 -9999 -9999 -9999 -9999 -9999 -9999 -9999 -9999 -9999 -9999 -9999 -9999 -9999 -9999 -9999 -9999 -9999 -9999 -9999 -9999 -9999 -9999 -9999 -9999 -9999 -9999 -9999 -9999 -9999 -9999 -9999 -9999 -9999 -9999 -9999 -9999 -9999 -9999 -9999 -9999 -9999 -9999 -9999 -9999 -9999 -9999 -9999 -9999 -9999 -9999 -9999 -9999 -9999 -9999 -9999 -9999 -9999 -9999 -9999 -9999 -9999 -9999 -9999 -9999 -9999 -9999 -9999 -9999 -9999 -9999 -9999 -9999 -9999 -9999 -9999 -9999 -9999 -9999 -9999 -9999 -9999 -9999 -9999 -9999 -9999 -9999 -9999 -9999 -9999 -9999 -9999 -9999 -9999 -9999 -9999 -9999 -9999 -9999 -9999 -9999 -9999 -9999 -9999 -9999 -9999 -9999 -9999 -9999 -9999 -9999 -9999 -9999 -9999 -9999 -9999 -9999 -9999 -9999 -9999 -9999 -9999 -9999 -9999 -9999 -9999 -9999 -9999 -9999 -9999
-9999 -9999 -9999 -9999 -9999 -9999 -9999 -9999 -9999 -9999 -9999 -9999 -9999 -9999 -9999 -9999 -9999 -9999 -9999 -9999 -9999 -9999 -9999 -9999 -9999 -9999 -9999 -9999 -9999 -9999 -9999 -9999 -9999 -9999 -9999 -9999 -9999 -9999 -9999 -9999 0.000 0.040 0.043 0.051 0.054 0.051 0.065 0.060 0.073 0.066 0.072 0.078 0.050 0.047 0.053 0.058 0.047 0.049 0.060 0.071 0.051 0.057 0.000 -9999 -9999 -9999 -9999 -9999 -9999 -9999 -9999 -9999 -9999 -9999 -9999 -9999 -9999 -9999 -9999 -9999 -9999 -9999 -9999 -9999 -9999 -9999 -9999 -9999 -9999 -9999 -9999 -9999 -9999 -9999 -9999 -9999 -9999 -9999 -9999 -9999 -9999 -9999 -9999 -9999 -9999 -9999 -9999 -9999 -9999 -9999 -9999 -9999 -9999 -9999 -9999 -9999 -9999 -9999 -9999 -9999 -9999 -9999 -9999 -9999 -9999 -9999 -9999 -9999 -9999 -9999 -9999 -9999 -9999 -9999 -9999 -9999 -9999 -9999 -9999 -9999 -9999 -9999 -9999 -9999 -9999 -9999 -9999 -9999 -9999 -9999 -9999 -9999 -9999 -9999 -9999 -9999 -9999 -9999 -9999 -9999 -9999 -9999 -9999 -9999 -9999 -9999 -9999 -9999 -9999 -9999 -9999 -9999 -9999 -9999 -9999 -9999 -9999 -9999 -9999 -9999 -9999 -9999 -9999 -9999 -9999 -9999 -9999 -9999 -9999 -9999 -9999 -9999 -9999 -9999 -9999 -9999 -9999 -9999 -9999 -9999 -9999 -9999 -9999 -9999 -9999 -9999 -9999 -9999 -9999 -9999 -9999 -9999 -9999 -9999 -9999 -9999 -9999 -9999 -9999 -9999 -9999 -9999 -9999 -9999 -9999 -9999 -9999 -9999 -9999 -9999 -9999 -9999 -9999 -9999
-9999 -9999 -9999 -9999 -9999 -9999 -9999 -9999 -9999 -9999 -9999 -9999 -9999 -9999 -9999 -9999 -9999 -9999 -9999 -9999 -9999 -9999 -9999 -9999 -9999 -9999 -9999 -9999 -9999 -9999 -9999 -9999 -9999 -9999 -9999 -9999 -9999 -9999 -9999 -9999 0.001 0.046 0.043 0.042 0.059 0.051 0.054 0.064 0.069 0.067 0.072 0.071 0.047 0.041 0.051 0.053 0.041 0.063 0.070 0.067 0.000 -9999 -9999 -9999 -9999 -9999 -9999 -9999 -9999 -9999 -9999 -9999 -9999 -9999 -9999 -9999 -9999 -9999 -9999 -9999 -9999 -9999 -9999 -9999 -9999 -9999 -9999 -9999 -9999 -9999 -9999 -9999 -9999 -9999 -9999 -9999 -9999 -9999 -9999 -9999 -9999 -9999 -9999 -9999 -9999 -9999 -9999 -9999 -9999 -9999 -9999 -9999 -9999 -9999 -9999 -9999 -9999 -9999 -9999 -9999 -9999 -9999 -9999 -9999 -9999 -9999 -9999 -9999 -9999 -9999 -9999 -9999 -9999 -9999 -9999 -9999 -9999 -9999 -9999 -9999 -9999 -9999 -9999 -9999 -9999 -9999 -9999 -9999 -9999 -9999 -9999 -9999 -9999 -9999 -9999 -9999 -9999 -9999 -9999 -9999 -9999 -9999 -9999 -9999 -9999 -9999 -9999 -9999 -9999 -9999 -9999 -9999 -9999 -9999 -9999 -9999 -9999 -9999 -9999 -9999 -9999 -9999 -9999 -9999 -9999 -9999 -9999 -9999 -9999 -9999 -9999 -9999 -9999 -9999 -9999 -9999 -9999 -9999 -9999 -9999 -9999 -9999 -9999 -9999 -9999 -9999 -9999 -9999 -9999 -9999 -9999 -9999 -9999 -9999 -9999 -9999 -9999 -9999 -9999 -9999 -9999 -9999 -9999 -9999 -9999 -9999 -9999 -9999 -9999 -9999 -9999 -9999 -9999 -9999
-9999 -9999 -9999 -9999 -9999 -9999 -9999 -9999 -9999 -9999 -9999 -9999 -9999 -9999 -9999 -9999 -9999 -9999 -9999 -9999 -9999 -9999 -9999 -9999 -9999 -9999 -9999 -9999 -9999 -9999 -9999 -9999 -9999 -9999 -9999 -9999 -9999 -9999 -9999 -9999 0.001 0.044 0.044 0.040 0.045 0.044 0.047 0.058 0.063 0.050 0.049 0.046 0.051 0.053 0.044 0.053 0.061 0.062 0.064 -9999 -9999 -9999 -9999 -9999 -9999 -9999 -9999 -9999 -9999 -9999 -9999 -9999 -9999 -9999 -9999 -9999 -9999 -9999 -9999 -9999 -9999 -9999 -9999 -9999 -9999 -9999 -9999 -9999 -9999 -9999 -9999 -9999 -9999 -9999 -9999 -9999 -9999 -9999 -9999 -9999 -9999 -9999 -9999 -9999 -9999 -9999 -9999 -9999 -9999 -9999 -9999 -9999 -9999 -9999 -9999 -9999 -9999 -9999 -9999 -9999 -9999 -9999 -9999 -9999 -9999 -9999 -9999 -9999 -9999 -9999 -9999 -9999 -9999 -9999 -9999 -9999 -9999 -9999 -9999 -9999 -9999 -9999 -9999 -9999 -9999 -9999 -9999 -9999 -9999 -9999 -9999 -9999 -9999 -9999 -9999 -9999 -9999 -9999 -9999 -9999 -9999 -9999 -9999 -9999 -9999 -9999 -9999 -9999 -9999 -9999 -9999 -9999 -9999 -9999 -9999 -9999 -9999 -9999 -9999 -9999 -9999 -9999 -9999 -9999 -9999 -9999 -9999 -9999 -9999 -9999 -9999 -9999 -9999 -9999 -9999 -9999 -9999 -9999 -9999 -9999 -9999 -9999 -9999 -9999 -9999 -9999 -9999 -9999 -9999 -9999 -9999 -9999 -9999 -9999 -9999 -9999 -9999 -9999 -9999 -9999 -9999 -9999 -9999 -9999 -9999 -9999 -9999 -9999 -9999 -9999 -9999 -9999 -9999 -9999
-9999 -9999 -9999 -9999 -9999 -9999 -9999 -9999 -9999 -9999 -9999 -9999 -9999 -9999 -9999 -9999 -9999 -9999 -9999 -9999 -9999 -9999 -9999 -9999 -9999 -9999 -9999 -9999 -9999 -9999 -9999 -9999 -9999 -9999 -9999 -9999 -9999 -9999 -9999 -9999 -9999 0.041 0.035 0.042 0.043 0.039 0.038 0.047 0.059 0.060 0.048 0.052 0.062 0.060 0.053 0.059 0.062 0.062 -9999 -9999 -9999 -9999 -9999 -9999 -9999 -9999 -9999 -9999 -9999 -9999 -9999 -9999 -9999 -9999 -9999 -9999 -9999 -9999 -9999 -9999 -9999 -9999 -9999 -9999 -9999 -9999 -9999 -9999 -9999 -9999 -9999 -9999 -9999 -9999 -9999 -9999 -9999 -9999 -9999 -9999 -9999 -9999 -9999 -9999 -9999 -9999 -9999 -9999 -9999 -9999 -9999 -9999 -9999 -9999 -9999 -9999 -9999 -9999 -9999 -9999 -9999 -9999 -9999 -9999 -9999 -9999 -9999 -9999 -9999 -9999 -9999 -9999 -9999 -9999 -9999 -9999 -9999 -9999 -9999 -9999 -9999 -9999 -9999 -9999 -9999 -9999 -9999 -9999 -9999 -9999 -9999 -9999 -9999 -9999 -9999 -9999 -9999 -9999 -9999 -9999 -9999 -9999 -9999 -9999 -9999 -9999 -9999 -9999 -9999 -9999 -9999 -9999 -9999 -9999 -9999 -9999 -9999 -9999 -9999 -9999 -9999 -9999 -9999 -9999 -9999 -9999 -9999 -9999 -9999 -9999 -9999 -9999 -9999 -9999 -9999 -9999 -9999 -9999 -9999 -9999 -9999 -9999 -9999 -9999 -9999 -9999 -9999 -9999 -9999 -9999 -9999 -9999 -9999 -9999 -9999 -9999 -9999 -9999 -9999 -9999 -9999 -9999 -9999 -9999 -9999 -9999 -9999 -9999 -9999 -9999 -9999 -9999 -9999 -9999
-9999 -9999 -9999 -9999 -9999 -9999 -9999 -9999 -9999 -9999 -9999 -9999 -9999 -9999 -9999 -9999 -9999 -9999 -9999 -9999 -9999 -9999 -9999 -9999 -9999 -9999 -9999 -9999 -9999 -9999 -9999 -9999 -9999 -9999 -9999 -9999 -9999 -9999 -9999 -9999 -9999 0.041 0.038 0.035 0.040 0.043 0.041 0.047 0.062 0.066 0.052 0.056 0.057 0.070 0.048 0.055 0.057 0.000 -9999 -9999 -9999 -9999 -9999 -9999 -9999 -9999 -9999 -9999 -9999 -9999 -9999 -9999 -9999 -9999 -9999 -9999 -9999 -9999 -9999 -9999 -9999 -9999 -9999 -9999 -9999 -9999 -9999 -9999 -9999 -9999 -9999 -9999 -9999 -9999 -9999 -9999 -9999 -9999 -9999 -9999 -9999 -9999 -9999 -9999 -9999 -9999 -9999 -9999 -9999 -9999 -9999 -9999 -9999 -9999 -9999 -9999 -9999 -9999 -9999 -9999 -9999 -9999 -9999 -9999 -9999 -9999 -9999 -9999 -9999 -9999 -9999 -9999 -9999 -9999 -9999 -9999 -9999 -9999 -9999 -9999 -9999 -9999 -9999 -9999 -9999 -9999 -9999 -9999 -9999 -9999 -9999 -9999 -9999 -9999 -9999 -9999 -9999 -9999 -9999 -9999 -9999 -9999 -9999 -9999 -9999 -9999 -9999 -9999 -9999 -9999 -9999 -9999 -9999 -9999 -9999 -9999 -9999 -9999 -9999 -9999 -9999 -9999 -9999 -9999 -9999 -9999 -9999 -9999 -9999 -9999 -9999 -9999 -9999 -9999 -9999 -9999 -9999 -9999 -9999 -9999 -9999 -9999 -9999 -9999 -9999 -9999 -9999 -9999 -9999 -9999 -9999 -9999 -9999 -9999 -9999 -9999 -9999 -9999 -9999 -9999 -9999 -9999 -9999 -9999 -9999 -9999 -9999 -9999 -9999 -9999 -9999 -9999 -9999 -9999
-9999 -9999 -9999 -9999 -9999 -9999 -9999 -9999 -9999 -9999 -9999 -9999 -9999 -9999 -9999 -9999 -9999 -9999 -9999 -9999 -9999 -9999 -9999 -9999 -9999 -9999 -9999 -9999 -9999 -9999 -9999 -9999 -9999 -9999 -9999 -9999 -9999 -9999 -9999 -9999 0.015 0.042 0.033 0.044 0.038 0.042 0.046 0.047 0.054 0.053 0.055 0.050 0.059 0.064 0.052 0.057 0.000 -9999 -9999 -9999 -9999 -9999 -9999 -9999 -9999 -9999 -9999 -9999 -9999 -9999 -9999 -9999 -9999 -9999 -9999 -9999 -9999 -9999 -9999 -9999 -9999 -9999 -9999 -9999 -9999 -9999 -9999 -9999 -9999 -9999 -9999 -9999 -9999 -9999 -9999 -9999 -9999 -9999 -9999 -9999 -9999 -9999 -9999 -9999 -9999 -9999 -9999 -9999 -9999 -9999 -9999 -9999 -9999 -9999 -9999 -9999 -9999 -9999 -9999 -9999 -9999 -9999 -9999 -9999 -9999 -9999 -9999 -9999 -9999 -9999 -9999 -9999 -9999 -9999 -9999 -9999 -9999 -9999 -9999 -9999 -9999 -9999 -9999 -9999 -9999 -9999 -9999 -9999 -9999 -9999 -9999 -9999 -9999 -9999 -9999 -9999 -9999 -9999 -9999 -9999 -9999 -9999 -9999 -9999 -9999 -9999 -9999 -9999 -9999 -9999 -9999 -9999 -9999 -9999 -9999 -9999 -9999 -9999 -9999 -9999 -9999 -9999 -9999 -9999 -9999 -9999 -9999 -9999 -9999 -9999 -9999 -9999 -9999 -9999 -9999 -9999 -9999 -9999 -9999 -9999 -9999 -9999 -9999 -9999 -9999 -9999 -9999 -9999 -9999 -9999 -9999 -9999 -9999 -9999 -9999 -9999 -9999 -9999 -9999 -9999 -9999 -9999 -9999 -9999 -9999 -9999 -9999 -9999 -9999 -9999 -9999 -9999 -9999 -9999
-9999 -9999 -9999 -9999 -9999 -9999 -9999 -9999 -9999 -9999 -9999 -9999 -9999 -9999 -9999 -9999 -9999 -9999 -9999 -9999 -9999 -9999 -9999 -9999 -9999 -9999 -9999 -9999 -9999 -9999 -9999 -9999 -9999 -9999 -9999 -9999 -9999 -9999 -9999 -9999 0.037 0.040 0.035 0.039 0.042 0.040 0.042 0.043 0.054 0.050 0.054 0.065 0.070 0.064 0.053 0.059 0.000 -9999 -9999 -9999 -9999 -9999 -9999 -9999 -9999 -9999 -9999 -9999 -9999 -9999 -9999 -9999 -9999 -9999 -9999 -9999 -9999 -9999 -9999 -9999 -9999 -9999 -9999 -9999 -9999 -9999 -9999 -9999 -9999 -9999 -9999 -9999 -9999 -9999 -9999 -9999 -9999 -9999 -9999 -9999 -9999 -9999 -9999 -9999 -9999 -9999 -9999 -9999 -9999 -9999 -9999 -9999 -9999 -9999 -9999 -9999 -9999 -9999 -9999 -9999 -9999 -9999 -9999 -9999 -9999 -9999 -9999 -9999 -9999 -9999 -9999 -9999 -9999 -9999 -9999 -9999 -9999 -9999 -9999 -9999 -9999 -9999 -9999 -9999 -9999 -9999 -9999 -9999 -9999 -9999 -9999 -9999 -9999 -9999 -9999 -9999 -9999 -9999 -9999 -9999 -9999 -9999 -9999 -9999 -9999 -9999 -9999 -9999 -9999 -9999 -9999 -9999 -9999 -9999 -9999 -9999 -9999 -9999 -9999 -9999 -9999 -9999 -9999 -9999 -9999 -9999 -9999 -9999 -9999 -9999 -9999 -9999 -9999 -9999 -9999 -9999 -9999 -9999 -9999 -9999 -9999 -9999 -9999 -9999 -9999 -9999 -9999 -9999 -9999 -9999 -9999 -9999 -9999 -9999 -9999 -9999 -9999 -9999 -9999 -9999 -9999 -9999 -9999 -9999 -9999 -9999 -9999 -9999 -9999 -9999 -9999 -9999 -9999 -9999
-9999 -9999 -9999 -9999 -9999 -9999 -9999 -9999 -9999 -9999 -9999 -9999 -9999 -9999 -9999 -9999 -9999 -9999 -9999 -9999 -9999 -9999 -9999 -9999 -9999 -9999 -9999 -9999 -9999 -9999 -9999 -9999 -9999 -9999 -9999 -9999 -9999 -9999 -9999 -9999 0.035 0.037 0.036 0.039 0.043 0.044 0.035 0.044 0.053 0.066 0.065 0.073 0.071 0.060 0.053 0.057 -9999 -9999 -9999 -9999 -9999 -9999 -9999 -9999 -9999 -9999 -9999 -9999 -9999 -9999 -9999 -9999 -9999 -9999 -9999 -9999 -9999 -9999 -9999 -9999 -9999 -9999 -9999 -9999 -9999 -9999 -9999 -9999 -9999 -9999 -9999 -9999 -9999 -9999 -9999 -9999 -9999 -9999 -9999 -9999 -9999 -9999 -9999 -9999 -9999 -9999 -9999 -9999 -9999 -9999 -9999 -9999 -9999 -9999 -9999 -9999 -9999 -9999 -9999 -9999 -9999 -9999 -9999 -9999 -9999 -9999 -9999 -9999 -9999 -9999 -9999 -9999 -9999 -9999 -9999 -9999 -9999 -9999 -9999 -9999 -9999 -9999 -9999 -9999 -9999 -9999 -9999 -9999 -9999 -9999 -9999 -9999 -9999 -9999 -9999 -9999 -9999 -9999 -9999 -9999 -9999 -9999 -9999 -9999 -9999 -9999 -9999 -9999 -9999 -9999 -9999 -9999 -9999 -9999 -9999 -9999 -9999 -9999 -9999 -9999 -9999 -9999 -9999 -9999 -9999 -9999 -9999 -9999 -9999 -9999 -9999 -9999 -9999 -9999 -9999 -9999 -9999 -9999 -9999 -9999 -9999 -9999 -9999 -9999 -9999 -9999 -9999 -9999 -9999 -9999 -9999 -9999 -9999 -9999 -9999 -9999 -9999 -9999 -9999 -9999 -9999 -9999 -9999 -9999 -9999 -9999 -9999 -9999 -9999 -9999 -9999 -9999 -9999 -9999
-9999 -9999 -9999 -9999 -9999 -9999 -9999 -9999 -9999 -9999 -9999 -9999 -9999 -9999 -9999 -9999 -9999 -9999 -9999 -9999 -9999 -9999 -9999 -9999 -9999 -9999 -9999 -9999 -9999 -9999 -9999 -9999 -9999 -9999 -9999 -9999 -9999 -9999 -9999 0.002 0.030 0.033 0.034 0.034 0.043 0.039 0.035 0.046 0.053 0.070 0.067 0.068 0.059 0.050 0.058 0.000 -9999 -9999 -9999 -9999 -9999 -9999 -9999 -9999 -9999 -9999 -9999 -9999 -9999 -9999 -9999 -9999 -9999 -9999 -9999 -9999 -9999 -9999 -9999 -9999 -9999 -9999 -9999 -9999 -9999 -9999 -9999 -9999 -9999 -9999 -9999 -9999 -9999 -9999 -9999 -9999 -9999 -9999 -9999 -9999 -9999 -9999 -9999 -9999 -9999 -9999 -9999 -9999 -9999 -9999 -9999 -9999 -9999 -9999 -9999 -9999 -9999 -9999 -9999 -9999 -9999 -9999 -9999 -9999 -9999 -9999 -9999 -9999 -9999 -9999 -9999 -9999 -9999 -9999 -9999 -9999 -9999 -9999 -9999 -9999 -9999 -9999 -9999 -9999 -9999 -9999 -9999 -9999 -9999 -9999 -9999 -9999 -9999 -9999 -9999 -9999 -9999 -9999 -9999 -9999 -9999 -9999 -9999 -9999 -9999 -9999 -9999 -9999 -9999 -9999 -9999 -9999 -9999 -9999 -9999 -9999 -9999 -9999 -9999 -9999 -9999 -9999 -9999 -9999 -9999 -9999 -9999 -9999 -9999 -9999 -9999 -9999 -9999 -9999 -9999 -9999 -9999 -9999 -9999 -9999 -9999 -9999 -9999 -9999 -9999 -9999 -9999 -9999 -9999 -9999 -9999 -9999 -9999 -9999 -9999 -9999 -9999 -9999 -9999 -9999 -9999 -9999 -9999 -9999 -9999 -9999 -9999 -9999 -9999 -9999 -9999 -9999 -9999 -9999
-9999 -9999 -9999 -9999 -9999 -9999 -9999 -9999 -9999 -9999 -9999 -9999 -9999 -9999 -9999 -9999 -9999 -9999 -9999 -9999 -9999 -9999 -9999 -9999 -9999 -9999 -9999 -9999 -9999 -9999 -9999 -9999 -9999 -9999 -9999 -9999 -9999 -9999 -9999 0.001 0.027 0.029 0.033 0.036 0.044 0.037 0.040 0.053 0.056 0.069 0.059 0.053 0.052 0.050 0.063 0.000 -9999 -9999 -9999 -9999 -9999 -9999 -9999 -9999 -9999 -9999 -9999 -9999 -9999 -9999 -9999 -9999 -9999 -9999 -9999 -9999 -9999 -9999 -9999 -9999 -9999 -9999 -9999 -9999 -9999 -9999 -9999 -9999 -9999 -9999 -9999 -9999 -9999 -9999 -9999 -9999 -9999 -9999 -9999 -9999 -9999 -9999 -9999 -9999 -9999 -9999 -9999 -9999 -9999 -9999 -9999 -9999 -9999 -9999 -9999 -9999 -9999 -9999 -9999 -9999 -9999 -9999 -9999 -9999 -9999 -9999 -9999 -9999 -9999 -9999 -9999 -9999 -9999 -9999 -9999 -9999 -9999 -9999 -9999 -9999 -9999 -9999 -9999 -9999 -9999 -9999 -9999 -9999 -9999 -9999 -9999 -9999 -9999 -9999 -9999 -9999 -9999 -9999 -9999 -9999 -9999 -9999 -9999 -9999 -9999 -9999 -9999 -9999 -9999 -9999 -9999 -9999 -9999 -9999 -9999 -9999 -9999 -9999 -9999 -9999 -9999 -9999 -9999 -9999 -9999 -9999 -9999 -9999 -9999 -9999 -9999 -9999 -9999 -9999 -9999 -9999 -9999 -9999 -9999 -9999 -9999 -9999 -9999 -9999 -9999 -9999 -9999 -9999 -9999 -9999 -9999 -9999 -9999 -9999 -9999 -9999 -9999 -9999 -9999 -9999 -9999 -9999 -9999 -9999 -9999 -9999 -9999 -9999 -9999 -9999 -9999 -9999 -9999 -9999
-9999 -9999 -9999 -9999 -9999 -9999 -9999 -9999 -9999 -9999 -9999 -9999 -9999 -9999 -9999 -9999 -9999 -9999 -9999 -9999 -9999 -9999 -9999 -9999 -9999 -9999 -9999 -9999 -9999 -9999 -9999 -9999 -9999 -9999 -9999 -9999 -9999 -9999 -9999 -9999 0.026 0.026 0.028 0.035 0.041 0.039 0.041 0.045 0.053 0.051 0.054 0.059 0.057 0.053 0.000 -9999 -9999 -9999 -9999 -9999 -9999 -9999 -9999 -9999 -9999 -9999 -9999 -9999 -9999 -9999 -9999 -9999 -9999 -9999 -9999 -9999 -9999 -9999 -9999 -9999 -9999 -9999 -9999 -9999 -9999 -9999 -9999 -9999 -9999 -9999 -9999 -9999 -9999 -9999 -9999 -9999 -9999 -9999 -9999 -9999 -9999 -9999 -9999 -9999 -9999 -9999 -9999 -9999 -9999 -9999 -9999 -9999 -9999 -9999 -9999 -9999 -9999 -9999 -9999 -9999 -9999 -9999 -9999 -9999 -9999 -9999 -9999 -9999 -9999 -9999 -9999 -9999 -9999 -9999 -9999 -9999 -9999 -9999 -9999 -9999 -9999 -9999 -9999 -9999 -9999 -9999 -9999 -9999 -9999 -9999 -9999 -9999 -9999 -9999 -9999 -9999 -9999 -9999 -9999 -9999 -9999 -9999 -9999 -9999 -9999 -9999 -9999 -9999 -9999 -9999 -9999 -9999 -9999 -9999 -9999 -9999 -9999 -9999 -9999 -9999 -9999 -9999 -9999 -9999 -9999 -9999 -9999 -9999 -9999 -9999 -9999 -9999 -9999 -9999 -9999 -9999 -9999 -9999 -9999 -9999 -9999 -9999 -9999 -9999 -9999 -9999 -9999 -9999 -9999 -9999 -9999 -9999 -9999 -9999 -9999 -9999 -9999 -9999 -9999 -9999 -9999 -9999 -9999 -9999 -9999 -9999 -9999 -9999 -9999 -9999 -9999 -9999 -9999 -9999
-9999 -9999 -9999 -9999 -9999 -9999 -9999 -9999 -9999 -9999 -9999 -9999 -9999 -9999 -9999 -9999 -9999 -9999 -9999 -9999 -9999 -9999 -9999 -9999 -9999 -9999 -9999 -9999 -9999 -9999 -9999 -9999 -9999 -9999 -9999 -9999 -9999 -9999 -9999 -9999 0.020 0.025 0.025 0.030 0.040 0.036 0.037 0.039 0.051 0.051 0.050 0.053 0.048 0.048 0.000 -9999 -9999 -9999 -9999 -9999 -9999 -9999 -9999 -9999 -9999 -9999 -9999 -9999 -9999 -9999 -9999 -9999 -9999 -9999 -9999 -9999 -9999 -9999 -9999 -9999 -9999 -9999 -9999 -9999 -9999 -9999 -9999 -9999 -9999 -9999 -9999 -9999 -9999 -9999 -9999 -9999 -9999 -9999 -9999 -9999 -9999 -9999 -9999 -9999 -9999 -9999 -9999 -9999 -9999 -9999 -9999 -9999 -9999 -9999 -9999 -9999 -9999 -9999 -9999 -9999 -9999 -9999 -9999 -9999 -9999 -9999 -9999 -9999 -9999 -9999 -9999 -9999 -9999 -9999 -9999 -9999 -9999 -9999 -9999 -9999 -9999 -9999 -9999 -9999 -9999 -9999 -9999 -9999 -9999 -9999 -9999 -9999 -9999 -9999 -9999 -9999 -9999 -9999 -9999 -9999 -9999 -9999 -9999 -9999 -9999 -9999 -9999 -9999 -9999 -9999 -9999 -9999 -9999 -9999 -9999 -9999 -9999 -9999 -9999 -9999 -9999 -9999 -9999 -9999 -9999 -9999 -9999 -9999 -9999 -9999 -9999 -9999 -9999 -9999 -9999 -9999 -9999 -9999 -9999 -9999 -9999 -9999 -9999 -9999 -9999 -9999 -9999 -9999 -9999 -9999 -9999 -9999 -9999 -9999 -9999 -9999 -9999 -9999 -9999 -9999 -9999 -9999 -9999 -9999 -9999 -9999 -9999 -9999 -9999 -9999 -9999 -9999 -9999 -9999
-9999 -9999 -9999 -9999 -9999 -9999 -9999 -9999 -9999 -9999 -9999 -9999 -9999 -9999 -9999 -9999 -9999 -9999 -9999 -9999 -9999 -9999 -9999 -9999 -9999 -9999 -9999 -9999 -9999 -9999 -9999 -9999 -9999 -9999 -9999 -9999 -9999 -9999 -9999 -9999 0.003 0.025 0.024 0.027 0.032 0.038 0.039 0.041 0.050 0.041 0.000 0.060 0.000 0.000 -9999 -9999 -9999 -9999 -9999 0.000 0.096 -9999 -9999 -9999 -9999 -9999 -9999 -9999 -9999 -9999 -9999 -9999 -9999 -9999 -9999 -9999 -9999 -9999 -9999 -9999 -9999 -9999 -9999 -9999 -9999 -9999 -9999 -9999 -9999 -9999 -9999 -9999 -9999 -9999 -9999 -9999 -9999 -9999 -9999 -9999 -9999 -9999 -9999 -9999 -9999 -9999 -9999 -9999 -9999 -9999 -9999 -9999 -9999 -9999 -9999 -9999 -9999 -9999 -9999 -9999 -9999 -9999 -9999 -9999 -9999 -9999 -9999 -9999 -9999 -9999 -9999 -9999 -9999 -9999 -9999 -9999 -9999 -9999 -9999 -9999 -9999 -9999 -9999 -9999 -9999 -9999 -9999 -9999 -9999 -9999 -9999 -9999 -9999 -9999 -9999 -9999 -9999 -9999 -9999 -9999 -9999 -9999 -9999 -9999 -9999 -9999 -9999 -9999 -9999 -9999 -9999 -9999 -9999 -9999 -9999 -9999 -9999 -9999 -9999 -9999 -9999 -9999 -9999 -9999 -9999 -9999 -9999 -9999 -9999 -9999 -9999 -9999 -9999 -9999 -9999 -9999 -9999 -9999 -9999 -9999 -9999 -9999 -9999 -9999 -9999 -9999 -9999 -9999 -9999 -9999 -9999 -9999 -9999 -9999 -9999 -9999 -9999 -9999 -9999 -9999 -9999 -9999 -9999 -9999 -9999 -9999 -9999 -9999 -9999 -9999 -9999 -9999 -9999 -9999
-9999 -9999 -9999 -9999 -9999 -9999 -9999 -9999 -9999 -9999 -9999 -9999 -9999 -9999 -9999 -9999 -9999 -9999 -9999 -9999 -9999 -9999 -9999 -9999 -9999 -9999 -9999 -9999 -9999 -9999 -9999 -9999 -9999 -9999 -9999 -9999 -9999 -9999 -9999 -9999 -9999 -9999 0.003 0.026 0.029 0.033 0.038 0.036 0.041 0.039 0.045 0.054 0.057 0.000 -9999 -9999 -9999 -9999 -9999 0.075 0.000 -9999 -9999 -9999 -9999 -9999 -9999 -9999 -9999 -9999 -9999 -9999 -9999 -9999 -9999 -9999 -9999 -9999 -9999 -9999 -9999 -9999 -9999 -9999 -9999 -9999 -9999 -9999 -9999 -9999 -9999 -9999 -9999 -9999 -9999 -9999 -9999 -9999 -9999 -9999 -9999 -9999 -9999 -9999 -9999 -9999 -9999 -9999 -9999 -9999 -9999 -9999 -9999 -9999 -9999 -9999 -9999 -9999 -9999 -9999 -9999 -9999 -9999 -9999 -9999 -9999 -9999 -9999 -9999 -9999 -9999 -9999 -9999 -9999 -9999 -9999 -9999 -9999 -9999 -9999 -9999 -9999 -9999 -9999 -9999 -9999 -9999 -9999 -9999 -9999 -9999 -9999 -9999 -9999 -9999 -9999 -9999 -9999 -9999 -9999 -9999 -9999 -9999 -9999 -9999 -9999 -9999 -9999 -9999 -9999 -9999 -9999 -9999 -9999 -9999 -9999 -9999 -9999 -9999 -9999 -9999 -9999 -9999 -9999 -9999 -9999 -9999 -9999 -9999 -9999 -9999 -9999 -9999 -9999 -9999 -9999 -9999 -9999 -9999 -9999 -9999 -9999 -9999 -9999 -9999 -9999 -9999 -9999 -9999 -9999 -9999 -9999 -9999 -9999 -9999 -9999 -9999 -9999 -9999 -9999 -9999 -9999 -9999 -9999 -9999 -9999 -9999 -9999 -9999 -9999 -9999 -9999 -9999 -9999
-9999 -9999 -9999 -9999 -9999 -9999 -9999 -9999 -9999 -9999 -9999 -9999 -9999 -9999 -9999 -9999 -9999 -9999 -9999 -9999 -9999 -9999 -9999 -9999 -9999 -9999 -9999 -9999 -9999 -9999 -9999 -9999 -9999 -9999 -9999 -9999 -9999 -9999 -9999 -9999 -9999 -9999 0.001 0.024 0.022 0.026 0.026 0.033 0.035 0.039 0.046 0.056 0.067 0.075 -9999 -9999 -9999 -9999 -9999 0.065 0.000 -9999 -9999 -9999 -9999 -9999 -9999 -9999 -9999 -9999 -9999 -9999 -9999 -9999 -9999 -9999 -9999 -9999 -9999 -9999 -9999 -9999 -9999 -9999 -9999 -9999 -9999 -9999 -9999 -9999 -9999 -9999 -9999 -9999 -9999 -9999 -9999 -9999 -9999 -9999 -9999 -9999 -9999 -9999 -9999 -9999 -9999 -9999 -9999 -9999 -9999 -9999 -9999 -9999 -9999 -9999 -9999 -9999 -9999 -9999 -9999 -9999 -9999 -9999 -9999 -9999 -9999 -9999 -9999 -9999 -9999 -9999 -9999 -9999 -9999 -9999 -9999 -9999 -9999 -9999 -9999 -9999 -9999 -9999 -9999 -9999 -9999 -9999 -9999 -9999 -9999 -9999 -9999 -9999 -9999 -9999 -9999 -9999 -9999 -9999 -9999 -9999 -9999 -9999 -9999 -9999 -9999 -9999 -9999 -9999 -9999 -9999 -9999 -9999 -9999 -9999 -9999 -9999 -9999 -9999 -9999 -9999 -9999 -9999 -9999 -9999 -9999 -9999 -9999 -9999 -9999 -9999 -9999 -9999 -9999 -9999 -9999 -9999 -9999 -9999 -9999 -9999 -9999 -9999 -9999 -9999 -9999 -9999 -9999 -9999 -9999 -9999 -9999 -9999 -9999 -9999 -9999 -9999 -9999 -9999 -9999 -9999 -9999 -9999 -9999 -9999 -9999 -9999 -9999 -9999 -9999 -9999 -9999 -9999
-9999 -9999 -9999 -9999 -9999 -9999 -9999 -9999 -9999 -9999 -9999 -9999 -9999 -9999 -9999 -9999 -9999 -9999 -9999 -9999 -9999 -9999 -9999 -9999 -9999 -9999 -9999 -9999 -9999 -9999 -9999 -9999 -9999 -9999 -9999 -9999 -9999 -9999 -9999 -9999 -9999 -9999 -9999 0.010 0.023 0.026 0.027 0.035 0.037 0.041 0.046 0.061 0.069 0.081 0.000 -9999 -9999 -9999 -9999 0.064 -9999 -9999 -9999 -9999 -9999 -9999 -9999 -9999 -9999 -9999 -9999 -9999 -9999 -9999 -9999 -9999 -9999 -9999 -9999 -9999 -9999 -9999 -9999 -9999 -9999 -9999 -9999 -9999 -9999 -9999 -9999 -9999 -9999 -9999 -9999 -9999 -9999 -9999 -9999 -9999 -9999 -9999 -9999 -9999 -9999 -9999 -9999 -9999 -9999 -9999 -9999 -9999 -9999 -9999 -9999 -9999 -9999 -9999 -9999 -9999 -9999 -9999 -9999 -9999 -9999 -9999 -9999 -9999 -9999 -9999 -9999 -9999 -9999 -9999 -9999 -9999 -9999 -9999 -9999 -9999 -9999 -9999 -9999 -9999 -9999 -9999 -9999 -9999 -9999 -9999 -9999 -9999 -9999 -9999 -9999 -9999 -9999 -9999 -9999 -9999 -9999 -9999 -9999 -9999 -9999 -9999 -9999 -9999 -9999 -9999 -9999 -9999 -9999 -9999 -9999 -9999 -9999 -9999 -9999 -9999 -9999 -9999 -9999 -9999 -9999 -9999 -9999 -9999 -9999 -9999 -9999 -9999 -9999 -9999 -9999 -9999 -9999 -9999 -9999 -9999 -9999 -9999 -9999 -9999 -9999 -9999 -9999 -9999 -9999 -9999 -9999 -9999 -9999 -9999 -9999 -9999 -9999 -9999 -9999 -9999 -9999 -9999 -9999 -9999 -9999 -9999 -9999 -9999 -9999 -9999 -9999 -9999 -9999 -9999
-9999 -9999 -9999 -9999 -9999 -9999 -9999 -9999 -9999 -9999 -9999 -9999 -9999 -9999 -9999 -9999 -9999 -9999 -9999 -9999 -9999 -9999 -9999 -9999 -9999 -9999 -9999 -9999 -9999 -9999 -9999 -9999 -9999 -9999 -9999 -9999 -9999 -9999 -9999 -9999 -9999 -9999 -9999 0.020 0.024 0.026 0.033 0.032 0.031 0.044 0.049 0.063 0.066 0.066 0.054 0.001 -9999 -9999 0.000 0.066 -9999 -9999 -9999 -9999 -9999 -9999 -9999 -9999 -9999 -9999 -9999 -9999 -9999 -9999 -9999 -9999 -9999 -9999 -9999 -9999 -9999 -9999 -9999 -9999 -9999 -9999 -9999 -9999 -9999 -9999 -9999 -9999 -9999 -9999 -9999 -9999 -9999 -9999 -9999 -9999 -9999 -9999 -9999 -9999 -9999 -9999 -9999 -9999 -9999 -9999 -9999 -9999 -9999 -9999 -9999 -9999 -9999 -9999 -9999 -9999 -9999 -9999 -9999 -9999 -9999 -9999 -9999 -9999 -9999 -9999 -9999 -9999 -9999 -9999 -9999 -9999 -9999 -9999 -9999 -9999 -9999 -9999 -9999 -9999 -9999 -9999 -9999 -9999 -9999 -9999 -9999 -9999 -9999 -9999 -9999 -9999 -9999 -9999 -9999 -9999 -9999 -9999 -9999 -9999 -9999 -9999 -9999 -9999 -9999 -9999 -9999 -9999 -9999 -9999 -9999 -9999 -9999 -9999 -9999 -9999 -9999 -9999 -9999 -9999 -9999 -9999 -9999 -9999 -9999 -9999 -9999 -9999 -9999 -9999 -9999 -9999 -9999 -9999 -9999 -9999 -9999 -9999 -9999 -9999 -9999 -9999 -9999 -9999 -9999 -9999 -9999 -9999 -9999 -9999 -9999 -9999 -9999 -9999 -9999 -9999 -9999 -9999 -9999 -9999 -9999 -9999 -9999 -9999 -9999 -9999 -9999 -9999 -9999 -9999
-9999 -9999 -9999 -9999 -9999 -9999 -9999 -9999 -9999 -9999 -9999 -9999 -9999 -9999 -9999 -9999 -9999 -9999 -9999 -9999 -9999 -9999 -9999 -9999 -9999 -9999 -9999 -9999 -9999 -9999 -9999 -9999 -9999 -9999 -9999 -9999 -9999 -9999 -9999 -9999 -9999 -9999 -9999 0.020 0.022 0.026 0.030 0.031 0.033 0.042 0.051 0.066 0.070 0.061 0.057 0.060 0.084 -9999 0.000 0.069 -9999 -9999 -9999 -9999 -9999 -9999 -9999 -9999 -9999 -9999 -9999 -9999 -9999 -9999 -9999 -9999 -9999 -9999 -9999 -9999 -9999 -9999 -9999 -9999 -9999 -9999 -9999 -9999 -9999 -9999 -9999 -9999 -9999 -9999 -9999 -9999 -9999 -9999 -9999 -9999 -9999 -9999 -9999 -9999 -9999 -9999 -9999 -9999 -9999 -9999 -9999 -9999 -9999 -9999 -9999 -9999 -9999 -9999 -9999 -9999 -9999 -9999 -9999 -9999 -9999 -9999 -9999 -9999 -9999 -9999 -9999 -9999 -9999 -9999 -9999 -9999 -9999 -9999 -9999 -9999 -9999 -9999 -9999 -9999 -9999 -9999 -9999 -9999 -9999 -9999 -9999 -9999 -9999 -9999 -9999 -9999 -9999 -9999 -9999 -9999 -9999 -9999 -9999 -9999 -9999 -9999 -9999 -9999 -9999 -9999 -9999 -9999 -9999 -9999 -9999 -9999 -9999 -9999 -9999 -9999 -9999 -9999 -9999 -9999 -9999 -9999 -9999 -9999 -9999 -9999 -9999 -9999 -9999 -9999 -9999 -9999 -9999 -9999 -9999 -9999 -9999 -9999 -9999 -9999 -9999 -9999 -9999 -9999 -9999 -9999 -9999 -9999 -9999 -9999 -9999 -9999 -9999 -9999 -9999 -9999 -9999 -9999 -9999 -9999 -9999 -9999 -9999 -9999 -9999 -9999 -9999 -9999 -9999 -9999
-9999 -9999 -9999 -9999 -9999 -9999 -9999 -9999 -9999 -9999 -9999 -9999 -9999 -9999 -9999 -9999 -9999 -9999 -9999 -9999 -9999 -9999 -9999 -9999 -9999 -9999 -9999 -9999 -9999 -9999 -9999 -9999 -9999 -9999 -9999 -9999 -9999 -9999 -9999 -9999 -9999 -9999 0.000 0.023 0.020 0.027 0.030 0.029 0.034 0.043 0.049 0.057 0.075 0.060 0.055 0.056 0.059 0.000 0.000 0.068 -9999 -9999 -9999 -9999 -9999 -9999 -9999 -9999 -9999 -9999 -9999 -9999 -9999 -9999 -9999 -9999 -9999 -9999 -9999 -9999 -9999 -9999 -9999 -9999 -9999 -9999 -9999 -9999 -9999 -9999 -9999 -9999 -9999 -9999 -9999 -9999 -9999 -9999 -9999 -9999 -9999 -9999 -9999 -9999 -9999 -9999 -9999 -9999 -9999 -9999 -9999 -9999 -9999 -9999 -9999 -9999 -9999 -9999 -9999 -9999 -9999 -9999 -9999 -9999 -9999 -9999 -9999 -9999 -9999 -9999 -9999 -9999 -9999 -9999 -9999 -9999 -9999 -9999 -9999 -9999 -9999 -9999 -9999 -9999 -9999 -9999 -9999 -9999 -9999 -9999 -9999 -9999 -9999 -9999 -9999 -9999 -9999 -9999 -9999 -9999 -9999 -9999 -9999 -9999 -9999 -9999 -9999 -9999 -9999 -9999 -9999 -9999 -9999 -9999 -9999 -9999 -9999 -9999 -9999 -9999 -9999 -9999 -9999 -9999 -9999 -9999 -9999 -9999 -9999 -9999 -9999 -9999 -9999 -9999 -9999 -9999 -9999 -9999 -9999 -9999 -9999 -9999 -9999 -9999 -9999 -9999 -9999 -9999 -9999 -9999 -9999 -9999 -9999 -9999 -9999 -9999 -9999 -9999 -9999 -9999 -9999 -9999 -9999 -9999 -9999 -9999 -9999 -9999 -9999 -9999 -9999 -9999 -9999 -9999
-9999 -9999 -9999 -9999 -9999 -9999 -9999 -9999 -9999 -9999 -9999 -9999 -9999 -9999 -9999 -9999 -9999 -9999 -9999 -9999 -9999 -9999 -9999 -9999 -9999 -9999 -9999 -9999 -9999 -9999 -9999 -9999 -9999 -9999 -9999 -9999 -9999 -9999 -9999 -9999 -9999 -9999 0.003 0.024 0.021 0.029 0.036 0.036 0.037 0.041 0.046 0.055 0.054 0.058 0.053 0.061 0.060 0.061 0.053 0.000 -9999 -9999 -9999 -9999 -9999 -9999 -9999 -9999 -9999 -9999 -9999 -9999 -9999 -9999 -9999 -9999 -9999 -9999 -9999 -9999 -9999 -9999 -9999 -9999 -9999 -9999 -9999 -9999 -9999 -9999 -9999 -9999 -9999 -9999 -9999 -9999 -9999 -9999 -9999 -9999 -9999 -9999 -9999 -9999 -9999 -9999 -9999 -9999 -9999 -9999 -9999 -9999 -9999 -9999 -9999 -9999 -9999 -9999 -9999 -9999 -9999 -9999 -9999 -9999 -9999 -9999 -9999 -9999 -9999 -9999 -9999 -9999 -9999 -9999 -9999 -9999 -9999 -9999 -9999 -9999 -9999 -9999 -9999 -9999 -9999 -9999 -9999 -9999 -9999 -9999 -9999 -9999 -9999 -9999 -9999 -9999 -9999 -9999 -9999 -9999 -9999 -9999 -9999 -9999 -9999 -9999 -9999 -9999 -9999 -9999 -9999 -9999 -9999 -9999 -9999 -9999 -9999 -9999 -9999 -9999 -9999 -9999 -9999 -9999 -9999 -9999 -9999 -9999 -9999 -9999 -9999 -9999 -9999 -9999 -9999 -9999 -9999 -9999 -9999 -9999 -9999 -9999 -9999 -9999 -9999 -9999 -9999 -9999 -9999 -9999 -9999 -9999 -9999 -9999 -9999 -9999 -9999 -9999 -9999 -9999 -9999 -9999 -9999 -9999 -9999 -9999 -9999 -9999 -9999 -9999 -9999 -9999 -9999 -9999
-9999 -9999 -9999 -9999 -9999 -9999 -9999 -9999 -9999 -9999 -9999 -9999 -9999 -9999 -9999 -9999 -9999 -9999 -9999 -9999 -9999 -9999 -9999 -9999 -9999 -9999 -9999 -9999 -9999 -9999 -9999 -9999 -9999 -9999 -9999 -9999 -9999 -9999 -9999 -9999 -9999 -9999 0.003 0.023 0.022 0.030 0.030 0.034 0.036 0.039 0.040 0.055 0.050 0.049 0.058 0.062 0.064 0.060 0.053 0.000 -9999 -9999 -9999 -9999 -9999 -9999 -9999 -9999 -9999 -9999 -9999 -9999 -9999 -9999 -9999 -9999 -9999 -9999 -9999 -9999 -9999 -9999 -9999 -9999 -9999 -9999 -9999 -9999 -9999 -9999 -9999 -9999 -9999 -9999 -9999 -9999 -9999 -9999 -9999 -9999 -9999 -9999 -9999 -9999 -9999 -9999 -9999 -9999 -9999 -9999 -9999 -9999 -9999 -9999 -9999 -9999 -9999 -9999 -9999 -9999 -9999 -9999 -9999 -9999 -9999 -9999 -9999 -9999 -9999 -9999 -9999 -9999 -9999 -9999 -9999 -9999 -9999 -9999 -9999 -9999 -9999 -9999 -9999 -9999 -9999 -9999 -9999 -9999 -9999 -9999 -9999 -9999 -9999 -9999 -9999 -9999 -9999 -9999 -9999 -9999 -9999 -9999 -9999 -9999 -9999 -9999 -9999 -9999 -9999 -9999 -9999 -9999 -9999 -9999 -9999 -9999 -9999 -9999 -9999 -9999 -9999 -9999 -9999 -9999 -9999 -9999 -9999 -9999 -9999 -9999 -9999 -9999 -9999 -9999 -9999 -9999 -9999 -9999 -9999 -9999 -9999 -9999 -9999 -9999 -9999 -9999 -9999 -9999 -9999 -9999 -9999 -9999 -9999 -9999 -9999 -9999 -9999 -9999 -9999 -9999 -9999 -9999 -9999 -9999 -9999 -9999 -9999 -9999 -9999 -9999 -9999 -9999 -9999 -9999
-9999 -9999 -9999 -9999 -9999 -9999 -9999 -9999 -9999 -9999 -9999 -9999 -9999 -9999 -9999 -9999 -9999 -9999 -9999 -9999 -9999 -9999 -9999 -9999 -9999 -9999 -9999 -9999 -9999 -9999 -9999 -9999 -9999 -9999 -9999 -9999 -9999 -9999 -9999 -9999 -9999 -9999 0.003 0.021 0.027 0.029 0.035 0.041 0.042 0.043 0.049 0.051 0.063 0.048 0.056 0.060 0.058 0.060 0.057 0.000 -9999 -9999 -9999 -9999 -9999 -9999 -9999 -9999 -9999 -9999 -9999 -9999 -9999 -9999 -9999 -9999 -9999 -9999 -9999 -9999 -9999 -9999 -9999 -9999 -9999 -9999 -9999 -9999 -9999 -9999 -9999 -9999 -9999 -9999 -9999 -9999 -9999 -9999 -9999 -9999 -9999 -9999 -9999 -9999 -9999 -9999 -9999 -9999 -9999 -9999 -9999 -9999 -9999 -9999 -9999 -9999 -9999 -9999 -9999 -9999 -9999 -9999 -9999 -9999 -9999 -9999 -9999 -9999 -9999 -9999 -9999 -9999 -9999 -9999 -9999 -9999 -9999 -9999 -9999 -9999 -9999 -9999 -9999 -9999 -9999 -9999 -9999 -9999 -9999 -9999 -9999 -9999 -9999 -9999 -9999 -9999 -9999 -9999 -9999 -9999 -9999 -9999 -9999 -9999 -9999 -9999 -9999 -9999 -9999 -9999 -9999 -9999 -9999 -9999 -9999 -9999 -9999 -9999 -9999 -9999 -9999 -9999 -9999 -9999 -9999 -9999 -9999 -9999 -9999 -9999 -9999 -9999 -9999 -9999 -9999 -9999 -9999 -9999 -9999 -9999 -9999 -9999 -9999 -9999 -9999 -9999 -9999 -9999 -9999 -9999 -9999 -9999 -9999 -9999 -9999 -9999 -9999 -9999 -9999 -9999 -9999 -9999 -9999 -9999 -9999 -9999 -9999 -9999 -9999 -9999 -9999 -9999 -9999 -9999
-9999 -9999 -9999 -9999 -9999 -9999 -9999 -9999 -9999 -9999 -9999 -9999 -9999 -9999 -9999 -9999 -9999 -9999 -9999 -9999 -9999 -9999 -9999 -9999 -9999 -9999 -9999 -9999 -9999 -9999 -9999 -9999 -9999 -9999 -9999 -9999 -9999 -9999 -9999 -9999 -9999 -9999 0.000 0.020 0.022 0.030 0.035 0.040 0.040 0.041 0.046 0.051 0.054 0.049 0.052 0.052 0.054 0.055 0.055 0.000 -9999 -9999 -9999 -9999 -9999 -9999 -9999 -9999 -9999 -9999 -9999 -9999 -9999 -9999 -9999 -9999 -9999 -9999 -9999 -9999 -9999 -9999 -9999 -9999 -9999 -9999 -9999 -9999 -9999 -9999 -9999 -9999 -9999 -9999 -9999 -9999 -9999 -9999 -9999 -9999 -9999 -9999 -9999 -9999 -9999 -9999 -9999 -9999 -9999 -9999 -9999 -9999 -9999 -9999 -9999 -9999 -9999 -9999 -9999 -9999 -9999 -9999 -9999 -9999 -9999 -9999 -9999 -9999 -9999 -9999 -9999 -9999 -9999 -9999 -9999 -9999 -9999 -9999 -9999 -9999 -9999 -9999 -9999 -9999 -9999 -9999 -9999 -9999 -9999 -9999 -9999 -9999 -9999 -9999 -9999 -9999 -9999 -9999 -9999 -9999 -9999 -9999 -9999 -9999 -9999 -9999 -9999 -9999 -9999 -9999 -9999 -9999 -9999 -9999 -9999 -9999 -9999 -9999 -9999 -9999 -9999 -9999 -9999 -9999 -9999 -9999 -9999 -9999 -9999 -9999 -9999 -9999 -9999 -9999 -9999 -9999 -9999 -9999 -9999 -9999 -9999 -9999 -9999 -9999 -9999 -9999 -9999 -9999 -9999 -9999 -9999 -9999 -9999 -9999 -9999 -9999 -9999 -9999 -9999 -9999 -9999 -9999 -9999 -9999 -9999 -9999 -9999 -9999 -9999 -9999 -9999 -9999 -9999 -9999
-9999 -9999 -9999 -9999 -9999 -9999 -9999 -9999 -9999 -9999 -9999 -9999 -9999 -9999 -9999 -9999 -9999 -9999 -9999 -9999 -9999 -9999 -9999 -9999 -9999 -9999 -9999 -9999 -9999 -9999 -9999 -9999 -9999 -9999 -9999 -9999 -9999 -9999 -9999 -9999 -9999 -9999 -9999 0.003 0.027 0.033 0.037 0.042 0.053 0.040 0.045 0.049 0.039 0.040 0.045 0.051 0.051 0.050 0.053 0.000 -9999 -9999 -9999 -9999 -9999 -9999 -9999 -9999 -9999 -9999 -9999 -9999 -9999 -9999 -9999 -9999 -9999 -9999 -9999 -9999 -9999 -9999 -9999 -9999 -9999 -9999 -9999 -9999 -9999 -9999 -9999 -9999 -9999 -9999 -9999 -9999 -9999 -9999 -9999 -9999 -9999 -9999 -9999 -9999 -9999 -9999 -9999 -9999 -9999 -9999 -9999 -9999 -9999 -9999 -9999 -9999 -9999 -9999 -9999 -9999 -9999 -9999 -9999 -9999 -9999 -9999 -9999 -9999 -9999 -9999 -9999 -9999 -9999 -9999 -9999 -9999 -9999 -9999 -9999 -9999 -9999 -9999 -9999 -9999 -9999 -9999 -9999 -9999 -9999 -9999 -9999 -9999 -9999 -9999 -9999 -9999 -9999 -9999 -9999 -9999 -9999 -9999 -9999 -9999 -9999 -9999 -9999 -9999 -9999 -9999 -9999 -9999 -9999 -9999 -9999 -9999 -9999 -9999 -9999 -9999 -9999 -9999 -9999 -9999 -9999 -9999 -9999 -9999 -9999 -9999 -9999 -9999 -9999 -9999 -9999 -9999 -9999 -9999 -9999 -9999 -9999 -9999 -9999 -9999 -9999 -9999 -9999 -9999 -9999 -9999 -9999 -9999 -9999 -9999 -9999 -9999 -9999 -9999 -9999 -9999 -9999 -9999 -9999 -9999 -9999 -9999 -9999 -9999 -9999 -9999 -9999 -9999 -9999 -9999
-9999 -9999 -9999 -9999 -9999 -9999 -9999 -9999 -9999 -9999 -9999 -9999 -9999 -9999 -9999 -9999 -9999 -9999 -9999 -9999 -9999 -9999 -9999 -9999 -9999 -9999 -9999 -9999 -9999 -9999 -9999 -9999 -9999 -9999 -9999 -9999 -9999 -9999 -9999 -9999 -9999 -9999 -9999 0.000 0.026 0.035 0.053 0.052 0.055 0.038 0.043 0.046 0.046 0.046 0.051 0.052 0.051 0.050 0.052 0.000 -9999 -9999 -9999 -9999 -9999 -9999 -9999 -9999 -9999 -9999 -9999 -9999 -9999 -9999 -9999 -9999 -9999 -9999 -9999 -9999 -9999 -9999 -9999 -9999 -9999 -9999 -9999 -9999 -9999 -9999 -9999 -9999 -9999 -9999 -9999 -9999 -9999 -9999 -9999 -9999 -9999 -9999 -9999 -9999 -9999 -9999 -9999 -9999 -9999 -9999 -9999 -9999 -9999 -9999 -9999 -9999 -9999 -9999 -9999 -9999 -9999 -9999 -9999 -9999 -9999 -9999 -9999 -9999 -9999 -9999 -9999 -9999 -9999 -9999 -9999 -9999 -9999 -9999 -9999 -9999 -9999 -9999 -9999 -9999 -9999 -9999 -9999 -9999 -9999 -9999 -9999 -9999 -9999 -9999 -9999 -9999 -9999 -9999 -9999 -9999 -9999 -9999 -9999 -9999 -9999 -9999 -9999 -9999 -9999 -9999 -9999 -9999 -9999 -9999 -9999 -9999 -9999 -9999 -9999 -9999 -9999 -9999 -9999 -9999 -9999 -9999 -9999 -9999 -9999 -9999 -9999 -9999 -9999 -9999 -9999 -9999 -9999 -9999 -9999 -9999 -9999 -9999 -9999 -9999 -9999 -9999 -9999 -9999 -9999 -9999 -9999 -9999 -9999 -9999 -9999 -9999 -9999 -9999 -9999 -9999 -9999 -9999 -9999 -9999 -9999 -9999 -9999 -9999 -9999 -9999 -9999 -9999 -9999 -9999
-9999 -9999 -9999 -9999 -9999 -9999 -9999 -9999 -9999 -9999 -9999 -9999 -9999 -9999 -9999 -9999 -9999 -9999 -9999 -9999 -9999 -9999 -9999 -9999 -9999 -9999 -9999 -9999 -9999 -9999 -9999 -9999 -9999 -9999 -9999 -9999 -9999 -9999 -9999 -9999 -9999 -9999 -9999 0.000 0.027 0.050 0.054 0.058 0.059 0.040 0.055 0.044 0.045 0.051 0.056 0.046 0.046 0.053 0.089 -9999 -9999 -9999 -9999 -9999 -9999 -9999 -9999 -9999 -9999 -9999 -9999 -9999 -9999 -9999 -9999 -9999 -9999 -9999 -9999 -9999 -9999 -9999 -9999 -9999 -9999 -9999 -9999 -9999 -9999 -9999 -9999 -9999 -9999 -9999 -9999 -9999 -9999 -9999 -9999 -9999 -9999 -9999 -9999 -9999 -9999 -9999 -9999 -9999 -9999 -9999 -9999 -9999 -9999 -9999 -9999 -9999 -9999 -9999 -9999 -9999 -9999 -9999 -9999 -9999 -9999 -9999 -9999 -9999 -9999 -9999 -9999 -9999 -9999 -9999 -9999 -9999 -9999 -9999 -9999 -9999 -9999 -9999 -9999 -9999 -9999 -9999 -9999 -9999 -9999 -9999 -9999 -9999 -9999 -9999 -9999 -9999 -9999 -9999 -9999 -9999 -9999 -9999 -9999 -9999 -9999 -9999 -9999 -9999 -9999 -9999 -9999 -9999 -9999 -9999 -9999 -9999 -9999 -9999 -9999 -9999 -9999 -9999 -9999 -9999 -9999 -9999 -9999 -9999 -9999 -9999 -9999 -9999 -9999 -9999 -9999 -9999 -9999 -9999 -9999 -9999 -9999 -9999 -9999 -9999 -9999 -9999 -9999 -9999 -9999 -9999 -9999 -9999 -9999 -9999 -9999 -9999 -9999 -9999 -9999 -9999 -9999 -9999 -9999 -9999 -9999 -9999 -9999 -9999 -9999 -9999 -9999 -9999 -9999 -9999
-9999 -9999 -9999 -9999 -9999 -9999 -9999 -9999 -9999 -9999 -9999 -9999 -9999 -9999 -9999 -9999 -9999 -9999 -9999 -9999 -9999 -9999 -9999 -9999 -9999 -9999 -9999 -9999 -9999 -9999 -9999 -9999 -9999 -9999 -9999 -9999 -9999 -9999 -9999 -9999 -9999 -9999 -9999 0.000 0.028 0.038 0.052 0.057 0.053 0.039 0.055 0.044 0.043 0.061 0.062 0.049 0.049 0.044 0.049 -9999 -9999 -9999 -9999 -9999 -9999 -9999 -9999 -9999 -9999 -9999 -9999 -9999 -9999 -9999 -9999 -9999 -9999 -9999 -9999 -9999 -9999 -9999 -9999 -9999 -9999 -9999 -9999 -9999 -9999 -9999 -9999 -9999 -9999 -9999 -9999 -9999 -9999 -9999 -9999 -9999 -9999 -9999 -9999 -9999 -9999 -9999 -9999 -9999 -9999 -9999 -9999 -9999 -9999 -9999 -9999 -9999 -9999 -9999 -9999 -9999 -9999 -9999 -9999 -9999 -9999 -9999 -9999 -9999 -9999 -9999 -9999 -9999 -9999 -9999 -9999 -9999 -9999 -9999 -9999 -9999 -9999 -9999 -9999 -9999 -9999 -9999 -9999 -9999 -9999 -9999 -9999 -9999 -9999 -9999 -9999 -9999 -9999 -9999 -9999 -9999 -9999 -9999 -9999 -9999 -9999 -9999 -9999 -9999 -9999 -9999 -9999 -9999 -9999 -9999 -9999 -9999 -9999 -9999 -9999 -9999 -9999 -9999 -9999 -9999 -9999 -9999 -9999 -9999 -9999 -9999 -9999 -9999 -9999 -9999 -9999 -9999 -9999 -9999 -9999 -9999 -9999 -9999 -9999 -9999 -9999 -9999 -9999 -9999 -9999 -9999 -9999 -9999 -9999 -9999 -9999 -9999 -9999 -9999 -9999 -9999 -9999 -9999 -9999 -9999 -9999 -9999 -9999 -9999 -9999 -9999 -9999 -9999 -9999 -9999
-9999 -9999 -9999 -9999 -9999 -9999 -9999 -9999 -9999 -9999 -9999 -9999 -9999 -9999 -9999 -9999 -9999 -9999 -9999 -9999 -9999 -9999 -9999 -9999 -9999 -9999 -9999 -9999 -9999 -9999 -9999 -9999 -9999 -9999 -9999 -9999 -9999 -9999 -9999 -9999 -9999 -9999 -9999 0.000 0.027 0.036 0.053 0.050 0.052 0.043 0.053 0.046 0.044 0.042 0.045 0.044 0.050 0.044 0.046 -9999 -9999 -9999 -9999 -9999 -9999 -9999 -9999 -9999 -9999 -9999 -9999 -9999 -9999 -9999 -9999 -9999 -9999 -9999 -9999 -9999 -9999 -9999 -9999 -9999 -9999 -9999 -9999 -9999 -9999 -9999 -9999 -9999 -9999 -9999 -9999 -9999 -9999 -9999 -9999 -9999 -9999 -9999 -9999 -9999 -9999 -9999 -9999 -9999 -9999 -9999 -9999 -9999 -9999 -9999 -9999 -9999 -9999 -9999 -9999 -9999 -9999 -9999 -9999 -9999 -9999 -9999 -9999 -9999 -9999 -9999 -9999 -9999 -9999 -9999 -9999 -9999 -9999 -9999 -9999 -9999 -9999 -9999 -9999 -9999 -9999 -9999 -9999 -9999 -9999 -9999 -9999 -9999 -9999 -9999 -9999 -9999 -9999 -9999 -9999 -9999 -9999 -9999 -9999 -9999 -9999 -9999 -9999 -9999 -9999 -9999 -9999 -9999 -9999 -9999 -9999 -9999 -9999 -9999 -9999 -9999 -9999 -9999 -9999 -9999 -9999 -9999 -9999 -9999 -9999 -9999 -9999 -9999 -9999 -9999 -9999 -9999 -9999 -9999 -9999 -9999 -9999 -9999 -9999 -9999 -9999 -9999 -9999 -9999 -9999 -9999 -9999 -9999 -9999 -9999 -9999 -9999 -9999 -9999 -9999 -9999 -9999 -9999 -9999 -9999 -9999 -9999 -9999 -9999 -9999 -9999 -9999 -9999 -9999 -9999
-9999 -9999 -9999 -9999 -9999 -9999 -9999 -9999 -9999 -9999 -9999 -9999 -9999 -9999 -9999 -9999 -9999 -9999 -9999 -9999 -9999 -9999 -9999 -9999 -9999 -9999 -9999 -9999 -9999 -9999 -9999 -9999 -9999 -9999 -9999 -9999 -9999 -9999 -9999 -9999 -9999 -9999 -9999 0.000 0.028 0.034 0.056 0.049 0.039 0.049 0.055 0.045 0.042 0.041 0.040 0.040 0.038 0.034 0.036 -9999 -9999 -9999 -9999 -9999 -9999 -9999 -9999 -9999 -9999 -9999 -9999 -9999 -9999 -9999 -9999 -9999 -9999 -9999 -9999 -9999 -9999 -9999 -9999 -9999 -9999 -9999 -9999 -9999 -9999 -9999 -9999 -9999 -9999 -9999 -9999 -9999 -9999 -9999 -9999 -9999 -9999 -9999 -9999 -9999 -9999 -9999 -9999 -9999 -9999 -9999 -9999 -9999 -9999 -9999 -9999 -9999 -9999 -9999 -9999 -9999 -9999 -9999 -9999 -9999 -9999 -9999 -9999 -9999 -9999 -9999 -9999 -9999 -9999 -9999 -9999 -9999 -9999 -9999 -9999 -9999 -9999 -9999 -9999 -9999 -9999 -9999 -9999 -9999 -9999 -9999 -9999 -9999 -9999 -9999 -9999 -9999 -9999 -9999 -9999 -9999 -9999 -9999 -9999 -9999 -9999 -9999 -9999 -9999 -9999 -9999 -9999 -9999 -9999 -9999 -9999 -9999 -9999 -9999 -9999 -9999 -9999 -9999 -9999 -9999 -9999 -9999 -9999 -9999 -9999 -9999 -9999 -9999 -9999 -9999 -9999 -9999 -9999 -9999 -9999 -9999 -9999 -9999 -9999 -9999 -9999 -9999 -9999 -9999 -9999 -9999 -9999 -9999 -9999 -9999 -9999 -9999 -9999 -9999 -9999 -9999 -9999 -9999 -9999 -9999 -9999 -9999 -9999 -9999 -9999 -9999 -9999 -9999 -9999 -9999
-9999 -9999 -9999 -9999 -9999 -9999 -9999 -9999 -9999 -9999 -9999 -9999 -9999 -9999 -9999 -9999 -9999 -9999 -9999 -9999 -9999 -9999 -9999 -9999 -9999 -9999 -9999 -9999 -9999 -9999 -9999 -9999 -9999 -9999 -9999 -9999 -9999 -9999 -9999 -9999 -9999 -9999 -9999 0.001 0.028 0.034 0.050 0.038 0.032 0.049 0.040 0.037 0.038 0.040 0.044 0.038 0.036 0.031 0.034 -9999 -9999 -9999 -9999 -9999 -9999 -9999 -9999 -9999 -9999 -9999 -9999 -9999 -9999 -9999 -9999 -9999 -9999 -9999 -9999 -9999 -9999 -9999 -9999 -9999 -9999 -9999 -9999 -9999 -9999 -9999 -9999 -9999 -9999 -9999 -9999 -9999 -9999 -9999 -9999 -9999 -9999 -9999 -9999 -9999 -9999 -9999 -9999 -9999 -9999 -9999 -9999 -9999 -9999 -9999 -9999 -9999 -9999 -9999 -9999 -9999 -9999 -9999 -9999 -9999 -9999 -9999 -9999 -9999 -9999 -9999 -9999 -9999 -9999 -9999 -9999 -9999 -9999 -9999 -9999 -9999 -9999 -9999 -9999 -9999 -9999 -9999 -9999 -9999 -9999 -9999 -9999 -9999 -9999 -9999 -9999 -9999 -9999 -9999 -9999 -9999 -9999 -9999 -9999 -9999 -9999 -9999 -9999 -9999 -9999 -9999 -9999 -9999 -9999 -9999 -9999 -9999 -9999 -9999 -9999 -9999 -9999 -9999 -9999 -9999 -9999 -9999 -9999 -9999 -9999 -9999 -9999 -9999 -9999 -9999 -9999 -9999 -9999 -9999 -9999 -9999 -9999 -9999 -9999 -9999 -9999 -9999 -9999 -9999 -9999 -9999 -9999 -9999 -9999 -9999 -9999 -9999 -9999 -9999 -9999 -9999 -9999 -9999 -9999 -9999 -9999 -9999 -9999 -9999 -9999 -9999 -9999 -9999 -9999 -9999
-9999 -9999 -9999 -9999 -9999 -9999 -9999 -9999 -9999 -9999 -9999 -9999 -9999 -9999 -9999 -9999 -9999 -9999 -9999 -9999 -9999 -9999 -9999 -9999 -9999 -9999 -9999 -9999 -9999 -9999 -9999 -9999 -9999 -9999 -9999 -9999 -9999 -9999 -9999 -9999 -9999 -9999 -9999 0.035 0.032 0.032 0.040 0.037 0.033 0.034 0.039 0.039 0.037 0.035 0.039 0.036 0.032 0.031 0.032 -9999 -9999 -9999 -9999 -9999 -9999 -9999 -9999 -9999 -9999 -9999 -9999 -9999 -9999 -9999 -9999 -9999 -9999 -9999 -9999 -9999 -9999 -9999 -9999 -9999 -9999 -9999 -9999 -9999 -9999 -9999 -9999 -9999 -9999 -9999 -9999 -9999 -9999 -9999 -9999 -9999 -9999 -9999 -9999 -9999 -9999 -9999 -9999 -9999 -9999 -9999 -9999 -9999 -9999 -9999 -9999 -9999 -9999 -9999 -9999 -9999 -9999 -9999 -9999 -9999 -9999 -9999 -9999 -9999 -9999 -9999 -9999 -9999 -9999 -9999 -9999 -9999 -9999 -9999 -9999 -9999 -9999 -9999 -9999 -9999 -9999 -9999 -9999 -9999 -9999 -9999 -9999 -9999 -9999 -9999 -9999 -9999 -9999 -9999 -9999 -9999 -9999 -9999 -9999 -9999 -9999 -9999 -9999 -9999 -9999 -9999 -9999 -9999 -9999 -9999 -9999 -9999 -9999 -9999 -9999 -9999 -9999 -9999 -9999 -9999 -9999 -9999 -9999 -9999 -9999 -9999 -9999 -9999 -9999 -9999 -9999 -9999 -9999 -9999 -9999 -9999 -9999 -9999 -9999 -9999 -9999 -9999 -9999 -9999 -9999 -9999 -9999 -9999 -9999 -9999 -9999 -9999 -9999 -9999 -9999 -9999 -9999 -9999 -9999 -9999 -9999 -9999 -9999 -9999 -9999 -9999 -9999 -9999 -9999 -9999
-9999 -9999 -9999 -9999 -9999 -9999 -9999 -9999 -9999 -9999 -9999 -9999 -9999 -9999 -9999 -9999 -9999 -9999 -9999 -9999 -9999 -9999 -9999 -9999 -9999 -9999 -9999 -9999 -9999 -9999 -9999 -9999 -9999 -9999 -9999 -9999 -9999 -9999 -9999 -9999 -9999 -9999 -9999 0.000 0.001 0.003 0.001 0.001 0.028 0.033 0.034 0.034 0.036 0.036 0.034 0.035 0.028 0.028 0.027 -9999 -9999 -9999 -9999 -9999 -9999 -9999 -9999 -9999 -9999 -9999 -9999 -9999 -9999 -9999 -9999 -9999 -9999 -9999 -9999 -9999 -9999 -9999 -9999 -9999 -9999 -9999 -9999 -9999 -9999 -9999 -9999 -9999 -9999 -9999 -9999 -9999 -9999 -9999 -9999 -9999 -9999 -9999 -9999 -9999 -9999 -9999 -9999 -9999 -9999 -9999 -9999 -9999 -9999 -9999 -9999 -9999 -9999 -9999 -9999 -9999 -9999 -9999 -9999 -9999 -9999 -9999 -9999 -9999 -9999 -9999 -9999 -9999 -9999 -9999 -9999 -9999 -9999 -9999 -9999 -9999 -9999 -9999 -9999 -9999 -9999 -9999 -9999 -9999 -9999 -9999 -9999 -9999 -9999 -9999 -9999 -9999 -9999 -9999 -9999 -9999 -9999 -9999 -9999 -9999 -9999 -9999 -9999 -9999 -9999 -9999 -9999 -9999 -9999 -9999 -9999 -9999 -9999 -9999 -9999 -9999 -9999 -9999 -9999 -9999 -9999 -9999 -9999 -9999 -9999 -9999 -9999 -9999 -9999 -9999 -9999 -9999 -9999 -9999 -9999 -9999 -9999 -9999 -9999 -9999 -9999 -9999 -9999 -9999 -9999 -9999 -9999 -9999 -9999 -9999 -9999 -9999 -9999 -9999 -9999 -9999 -9999 -9999 -9999 -9999 -9999 -9999 -9999 -9999 -9999 -9999 -9999 -9999 -9999 -9999
-9999 -9999 -9999 -9999 -9999 -9999 -9999 -9999 -9999 -9999 -9999 -9999 -9999 -9999 -9999 -9999 -9999 -9999 -9999 -9999 -9999 -9999 -9999 -9999 -9999 -9999 -9999 -9999 -9999 -9999 -9999 -9999 -9999 -9999 -9999 -9999 -9999 -9999 -9999 -9999 -9999 -9999 -9999 -9999 -9999 -9999 -9999 -9999 -9999 -9999 -9999 -9999 -9999 -9999 -9999 -9999 -9999 0.003 -9999 -9999 -9999 -9999 -9999 -9999 -9999 -9999 -9999 -9999 -9999 -9999 -9999 -9999 -9999 -9999 -9999 -9999 -9999 -9999 -9999 -9999 -9999 -9999 -9999 -9999 -9999 -9999 -9999 -9999 -9999 -9999 -9999 -9999 -9999 -9999 -9999 -9999 -9999 -9999 -9999 -9999 -9999 -9999 -9999 -9999 -9999 -9999 -9999 -9999 -9999 -9999 -9999 -9999 -9999 -9999 -9999 -9999 -9999 -9999 -9999 -9999 -9999 -9999 -9999 -9999 -9999 -9999 -9999 -9999 -9999 -9999 -9999 -9999 -9999 -9999 -9999 -9999 -9999 -9999 -9999 -9999 -9999 -9999 -9999 -9999 -9999 -9999 -9999 -9999 -9999 -9999 -9999 -9999 -9999 -9999 -9999 -9999 -9999 -9999 -9999 -9999 -9999 -9999 -9999 -9999 -9999 -9999 -9999 -9999 -9999 -9999 -9999 -9999 -9999 -9999 -9999 -9999 -9999 -9999 -9999 -9999 -9999 -9999 -9999 -9999 -9999 -9999 -9999 -9999 -9999 -9999 -9999 -9999 -9999 -9999 -9999 -9999 -9999 -9999 -9999 -9999 -9999 -9999 -9999 -9999 -9999 -9999 -9999 -9999 -9999 -9999 -9999 -9999 -9999 -9999 -9999 -9999 -9999 -9999 -9999 -9999 -9999 -9999 -9999 -9999 -9999 -9999 -9999 -9999 -9999 -9999 -9999 -9999 -9999 -9999
-9999 -9999 -9999 -9999 -9999 -9999 -9999 -9999 -9999 -9999 -9999 -9999 -9999 -9999 -9999 -9999 -9999 -9999 -9999 -9999 -9999 -9999 -9999 -9999 -9999 -9999 -9999 -9999 -9999 -9999 -9999 -9999 -9999 -9999 -9999 -9999 -9999 -9999 -9999 -9999 -9999 -9999 -9999 -9999 -9999 -9999 -9999 -9999 -9999 -9999 -9999 -9999 -9999 -9999 -9999 -9999 -9999 -9999 -9999 -9999 -9999 -9999 -9999 -9999 -9999 -9999 -9999 -9999 -9999 -9999 -9999 -9999 -9999 -9999 -9999 -9999 -9999 -9999 -9999 -9999 -9999 -9999 -9999 -9999 -9999 -9999 -9999 -9999 -9999 -9999 -9999 -9999 -9999 -9999 -9999 -9999 -9999 -9999 -9999 -9999 -9999 -9999 -9999 -9999 -9999 -9999 -9999 -9999 -9999 -9999 -9999 -9999 -9999 -9999 -9999 -9999 -9999 -9999 -9999 -9999 -9999 -9999 -9999 -9999 -9999 -9999 -9999 -9999 -9999 -9999 -9999 -9999 -9999 -9999 -9999 -9999 -9999 -9999 -9999 -9999 -9999 -9999 -9999 -9999 -9999 -9999 -9999 -9999 -9999 -9999 -9999 -9999 -9999 -9999 -9999 -9999 -9999 -9999 -9999 -9999 -9999 -9999 -9999 -9999 -9999 -9999 -9999 -9999 -9999 -9999 -9999 -9999 -9999 -9999 -9999 -9999 -9999 -9999 -9999 -9999 -9999 -9999 -9999 -9999 -9999 -9999 -9999 -9999 -9999 -9999 -9999 -9999 -9999 -9999 -9999 -9999 -9999 -9999 -9999 -9999 -9999 -9999 -9999 -9999 -9999 -9999 -9999 -9999 -9999 -9999 -9999 -9999 -9999 -9999 -9999 -9999 -9999 -9999 -9999 -9999 -9999 -9999 -9999 -9999 -9999 -9999 -9999 -9999 -9999 -9999 -9999 -9999 -9999 -9999
-9999 -9999 -9999 -9999 -9999 -9999 -9999 -9999 -9999 -9999 -9999 -9999 -9999 -9999 -9999 -9999 -9999 -9999 -9999 -9999 -9999 -9999 -9999 -9999 -9999 -9999 -9999 -9999 -9999 -9999 -9999 -9999 -9999 -9999 -9999 -9999 -9999 -9999 -9999 -9999 -9999 -9999 -9999 -9999 -9999 -9999 -9999 -9999 -9999 -9999 -9999 -9999 -9999 -9999 -9999 -9999 -9999 -9999 -9999 -9999 -9999 -9999 -9999 -9999 -9999 -9999 -9999 -9999 -9999 -9999 -9999 -9999 -9999 -9999 -9999 -9999 -9999 -9999 -9999 -9999 -9999 -9999 -9999 -9999 -9999 -9999 -9999 -9999 -9999 -9999 -9999 -9999 -9999 -9999 -9999 -9999 -9999 -9999 -9999 -9999 -9999 -9999 -9999 -9999 -9999 -9999 -9999 -9999 -9999 -9999 -9999 -9999 -9999 -9999 -9999 -9999 -9999 -9999 -9999 -9999 -9999 -9999 -9999 -9999 -9999 -9999 -9999 -9999 -9999 -9999 -9999 -9999 -9999 -9999 -9999 -9999 -9999 -9999 -9999 -9999 -9999 -9999 -9999 -9999 -9999 -9999 -9999 -9999 -9999 -9999 -9999 -9999 -9999 -9999 -9999 -9999 -9999 -9999 -9999 -9999 -9999 -9999 -9999 -9999 -9999 -9999 -9999 -9999 -9999 -9999 -9999 -9999 -9999 -9999 -9999 -9999 -9999 -9999 -9999 -9999 -9999 -9999 -9999 -9999 -9999 -9999 -9999 -9999 -9999 -9999 -9999 -9999 -9999 -9999 -9999 -9999 -9999 -9999 -9999 -9999 -9999 -9999 -9999 -9999 -9999 -9999 -9999 -9999 -9999 -9999 -9999 -9999 -9999 -9999 -9999 -9999 -9999 -9999 -9999 -9999 -9999 -9999 -9999 -9999 -9999 -9999 -9999 -9999 -9999 -9999 -9999 -9999 -9999 -9999
-9999 -9999 -9999 -9999 -9999 -9999 -9999 -9999 -9999 -9999 -9999 -9999 -9999 -9999 -9999 -9999 -9999 -9999 -9999 -9999 -9999 -9999 -9999 -9999 -9999 -9999 -9999 -9999 -9999 -9999 -9999 -9999 -9999 -9999 -9999 -9999 -9999 -9999 -9999 -9999 -9999 -9999 -9999 -9999 -9999 -9999 -9999 -9999 -9999 -9999 -9999 -9999 -9999 -9999 -9999 -9999 -9999 -9999 -9999 -9999 -9999 -9999 -9999 -9999 -9999 -9999 -9999 -9999 -9999 -9999 -9999 -9999 -9999 -9999 -9999 -9999 -9999 -9999 -9999 -9999 -9999 -9999 -9999 -9999 -9999 -9999 -9999 -9999 -9999 -9999 -9999 -9999 -9999 -9999 -9999 -9999 -9999 -9999 -9999 -9999 -9999 -9999 -9999 -9999 -9999 -9999 -9999 -9999 -9999 -9999 -9999 -9999 -9999 -9999 -9999 -9999 -9999 -9999 -9999 -9999 -9999 -9999 -9999 -9999 -9999 -9999 -9999 -9999 -9999 -9999 -9999 -9999 -9999 -9999 -9999 -9999 -9999 -9999 -9999 -9999 -9999 -9999 -9999 -9999 -9999 -9999 -9999 -9999 -9999 -9999 -9999 -9999 -9999 -9999 -9999 -9999 -9999 -9999 -9999 -9999 -9999 -9999 -9999 -9999 -9999 -9999 -9999 -9999 -9999 -9999 -9999 -9999 -9999 -9999 -9999 -9999 -9999 -9999 -9999 -9999 -9999 -9999 -9999 -9999 -9999 -9999 -9999 -9999 -9999 -9999 -9999 -9999 -9999 -9999 -9999 -9999 -9999 -9999 -9999 -9999 -9999 -9999 -9999 -9999 -9999 -9999 -9999 -9999 -9999 -9999 -9999 -9999 -9999 -9999 -9999 -9999 -9999 -9999 -9999 -9999 -9999 -9999 -9999 -9999 -9999 -9999 -9999 -9999 -9999 -9999 -9999 -9999 -9999 -9999
-9999 -9999 -9999 -9999 -9999 -9999 -9999 -9999 -9999 -9999 -9999 -9999 -9999 -9999 -9999 -9999 -9999 -9999 -9999 -9999 -9999 -9999 -9999 -9999 -9999 -9999 -9999 -9999 -9999 -9999 -9999 -9999 -9999 -9999 -9999 -9999 -9999 -9999 -9999 -9999 -9999 -9999 -9999 -9999 -9999 -9999 -9999 -9999 -9999 -9999 -9999 -9999 -9999 -9999 -9999 -9999 -9999 -9999 -9999 -9999 -9999 -9999 -9999 -9999 -9999 -9999 -9999 -9999 -9999 -9999 -9999 -9999 -9999 -9999 -9999 -9999 -9999 -9999 -9999 -9999 -9999 -9999 -9999 -9999 -9999 -9999 -9999 -9999 -9999 -9999 -9999 -9999 -9999 -9999 -9999 -9999 -9999 -9999 -9999 -9999 -9999 -9999 -9999 -9999 -9999 -9999 -9999 -9999 -9999 -9999 -9999 -9999 -9999 -9999 -9999 -9999 -9999 -9999 -9999 -9999 -9999 -9999 -9999 -9999 -9999 -9999 -9999 -9999 -9999 -9999 -9999 -9999 -9999 -9999 -9999 -9999 -9999 -9999 -9999 -9999 -9999 -9999 -9999 -9999 -9999 -9999 -9999 -9999 -9999 -9999 -9999 -9999 -9999 -9999 -9999 -9999 -9999 -9999 -9999 -9999 -9999 -9999 -9999 -9999 -9999 -9999 -9999 -9999 -9999 -9999 -9999 -9999 -9999 -9999 -9999 -9999 -9999 -9999 -9999 -9999 -9999 -9999 -9999 -9999 -9999 -9999 -9999 -9999 -9999 -9999 -9999 -9999 -9999 -9999 -9999 -9999 -9999 -9999 -9999 -9999 -9999 -9999 -9999 -9999 -9999 -9999 -9999 -9999 -9999 -9999 -9999 -9999 -9999 -9999 -9999 -9999 -9999 -9999 -9999 -9999 -9999 -9999 -9999 -9999 -9999 -9999 -9999 -9999 -9999 -9999 -9999 -9999 -9999 -9999
